P3
300 150
255
112 131 150 112 131 150 112 131 150 112 131 149 112 131 149 112 131
149 112 131 149 112 130 149 112 130 149 112 130 149 112 130 149 112
130 149 112 130 149 111 130 148 111 130 148 111 130 148 111 130 148
111 130 148 111 130 148 111 129 148 111 129 148 111 129 148 111 129
148 111 129 147 111 129 147 111 129 147 111 129 147 110 129 147 110
129 147 110 129 147 110 129 147 110 128 147 110 128 147 110 128 147
110 128 146 110 128 146 110 128 146 110 128 146 110 128 146 110 128
146 110 128 146 109 128 146 109 128 146 109 127 146 109 127 145 109
127 145 109 127 145 109 127 145 109 127 145 109 127 145 109 127 145
109 127 145 109 127 145 109 127 145 108 126 144 108 126 144 108 126
144 108 126 144 108 126 144 108 126 144 108 126 144 108 126 144 108
126 144 108 126 144 108 126 143 108 126 143 108 125 143 108 125 143
107 125 143 107 125 143 107 125 143 107 125 143 107 125 143 107 125
143 107 125 142 107 125 142 107 125 142 107 124 142 107 124 142 107
124 142 107 124 142 106 124 142 106 124 142 106 124 142 106 124 141
106 124 141 106 124 141 106 124 141 106 124 141 106 123 141 106 123
141 106 123 141 106 123 141 106 123 141 105 123 140 105 123 140 105
123 140 105 123 140 105 123 140 105 123 140 105 122 140 105 122 140
105 122 140 105 122 140 105 122 139 105 122 139 105 122 139 105 122
139 104 122 139 104 122 139 104 122 139 104 122 139 104 121 139 104
121 139 104 121 139 104 121 138 104 121 138 104 121 138 104 121 138
104 121 138 104 121 138 103 121 138 103 121 138 103 120 138 103 120
138 103 120 137 103 120 137 103 120 137 103 120 137 103 120 137 103
120 137 103 120 137 103 120 137 103 120 137 103 120 137 102 119 136
102 119 136 102 119 136 102 119 136 102 119 136 102 119 136 102 119
136 102 119 136 102 119 136 102 119 136 102 119 135 102 118 135 102
118 135 101 118 135 101 118 135 101 118 135 101 118 135 101 118 135
101 118 135 101 118 135 101 118 134 101 118 134 101 118 134 101 117
134 101 117 134 101 117 134 101 117 134 100 117 134 100 117 134 100
117 134 100 117 133 100 117 133 100 117 133 100 117 133 100 116 133
100 116 133 100 116 133 100 116 133 100 116 133 100 116 133 99 116 132
99 116 132 99 116 132 99 116 132 99 116 132 99 116 132 99 115 132 99
115 132 99 115 132 99 115 132 99 115 131 99 115 131 99 115 131 99 115
131 98 115 131 98 115 131 98 115 131 98 115 131 98 114 131 98 114 131
98 114 131 98 114 130 98 114 130 98 114 130 98 114 130 98 114 130 98
114 130 98 114 130 97 114 130 97 114 130 97 113 130 97 113 129 97 113
129 97 113 129 97 113 129 97 113 129 97 113 129 97 113 129 97 113 129
97 113 129 97 113 129 97 113 129 96 112 128 96 112 128 96 112 128 96
112 128 96 112 128 96 112 128 96 112 128 96 112 128 96 112 128 96 112
128 96 112 127 96 112 127 96 111 127 96 111 127 95 111 127 95 111 127
95 111 127 95 111 127 95 111 127 95 111 127 95 111 127 95 111 126 95
111 126 95 111 126 95 110 126 95 110 126 95 110 126 95 110 126 94 110
126 94 110 126 94 110 126 94 110 126 94 110 125 94 110 125 94 110 125
94 110 125 94 109 125 94 109 125 94 109 125 94 109 125 94 109 125 94
109 125 93 109 124 93 109 124 93 109 124 93 109 124 93 109 124 93 109
124 93 109 124 93 108 124 93 108 124 93 108 124 93 108 124 93 108 123
93 108 123 93 108 123 93 108 123 92 108 123 92 108 123 92 108 123 92
108 123 92 107 123 92 107 123 92 107 123 92 107 122 92 107 122 92 107
122 92 107 122 92 107 122 92 107 122 92 107 122 92 107 122 91 107 122
91 107 122 91 106 122 91 106 121 91 106 121 91 106 121 91 106 121 91
106 121 91 106 121 91 106 121 91 106 121
112 131 150 112 131 150 112 131 149 112 131 149 112 131 149 112 131
149 112 130 149 112 130 149 112 130 149 112 130 149 112 130 149 112
130 149 111 130 148 111 130 148 111 130 148 111 130 148 111 130 148
111 130 148 111 129 148 111 129 148 111 129 148 111 129 148 111 129
148 111 129 147 111 129 147 111 129 147 110 129 147 110 129 147 110
129 147 110 129 147 110 128 147 110 128 147 110 128 147 110 128 146
110 128 146 110 128 146 110 128 146 110 128 146 110 128 146 110 128
146 109 128 146 109 128 146 109 127 146 109 127 145 109 127 145 109
127 145 109 127 145 109 127 145 109 127 145 109 127 145 109 127 145
109 127 145 109 127 145 109 127 145 108 126 144 108 126 144 108 126
144 108 126 144 108 126 144 108 126 144 108 126 144 108 126 144 108
126 144 108 126 144 108 126 143 108 125 143 108 125 143 107 125 143
107 125 143 107 125 143 107 125 143 107 125 143 107 125 143 107 125
143 107 125 142 107 125 142 107 125 142 107 124 142 107 124 142 107
124 142 106 124 142 106 124 142 106 124 142 106 124 142 106 124 141
106 124 141 106 124 141 106 124 141 106 123 141 106 123 141 106 123
141 106 123 141 106 123 141 106 123 141 105 123 140 105 123 140 105
123 140 105 123 140 105 123 140 105 123 140 105 122 140 105 122 140
105 122 140 105 122 140 105 122 139 105 122 139 105 122 139 104 122
139 104 122 139 104 122 139 104 122 139 104 121 139 104 121 139 104
121 139 104 121 138 104 121 138 104 121 138 104 121 138 104 121 138
104 121 138 104 121 138 103 121 138 103 120 138 103 120 138 103 120
137 103 120 137 103 120 137 103 120 137 103 120 137 103 120 137 103
120 137 103 120 137 103 120 137 103 120 137 102 119 136 102 119 136
102 119 136 102 119 136 102 119 136 102 119 136 102 119 136 102 119
136 102 119 136 102 119 136 102 119 135 102 119 135 102 118 135 101
118 135 101 118 135 101 118 135 101 118 135 101 118 135 101 118 135
101 118 135 101 118 134 101 118 134 101 118 134 101 117 134 101 117
134 101 117 134 101 117 134 100 117 134 100 117 134 100 117 134 100
117 133 100 117 133 100 117 133 100 117 133 100 117 133 100 116 133
100 116 133 100 116 133 100 116 133 100 116 133 100 116 133 99 116 132
99 116 132 99 116 132 99 116 132 99 116 132 99 115 132 99 115 132 99
115 132 99 115 132 99 115 132 99 115 131 99 115 131 99 115 131 98 115
131 98 115 131 98 115 131 98 115 131 98 114 131 98 114 131 98 114 131
98 114 130 98 114 130 98 114 130 98 114 130 98 114 130 98 114 130 98
114 130 97 114 130 97 114 130 97 113 130 97 113 129 97 113 129 97 113
129 97 113 129 97 113 129 97 113 129 97 113 129 97 113 129 97 113 129
97 113 129 97 113 129 96 112 128 96 112 128 96 112 128 96 112 128 96
112 128 96 112 128 96 112 128 96 112 128 96 112 128 96 112 128 96 112
127 96 112 127 96 111 127 96 111 127 95 111 127 95 111 127 95 111 127
95 111 127 95 111 127 95 111 127 95 111 127 95 111 126 95 111 126 95
111 126 95 110 126 95 110 126 95 110 126 95 110 126 94 110 126 94 110
126 94 110 126 94 110 126 94 110 125 94 110 125 94 110 125 94 110 125
94 109 125 94 109 125 94 109 125 94 109 125 94 109 125 94 109 125 94
109 125 93 109 124 93 109 124 93 109 124 93 109 124 93 109 124 93 109
124 93 108 124 93 108 124 93 108 124 93 108 124 93 108 123 93 108 123
93 108 123 93 108 123 92 108 123 92 108 123 92 108 123 92 108 123 92
107 123 92 107 123 92 107 123 92 107 122 92 107 122 92 107 122 92 107
122 92 107 122 92 107 122 92 107 122 92 107 122 91 107 122 91 107 122
91 106 122 91 106 122 91 106 121 91 106 121 91 106 121 91 106 121 91
106 121 91 106 121 91 106 121 91 106 121
112 131 150 112 131 149 112 131 149 112 131 149 112 131 149 112 131
149 112 130 149 112 130 149 112 130 149 112 130 149 112 130 149 112
130 149 111 130 148 111 130 148 111 130 148 111 130 148 111 130 148
111 130 148 111 129 148 111 129 148 111 129 148 111 129 148 111 129
147 111 129 147 111 129 147 111 129 147 110 129 147 110 129 147 110
129 147 110 129 147 110 128 147 110 128 147 110 128 147 110 128 146
110 128 146 110 128 146 110 128 146 110 128 146 110 128 146 109 128
146 109 128 146 109 127 146 109 127 146 109 127 145 109 127 145 109
127 145 109 127 145 109 127 145 109 127 145 109 127 145 109 127 145
109 127 145 109 127 145 108 126 144 108 126 144 108 126 144 108 126
144 108 126 144 108 126 144 108 126 144 108 126 144 108 126 144 108
126 144 108 126 143 108 125 143 108 125 143 107 125 143 107 125 143
107 125 143 107 125 143 107 125 143 107 125 143 107 125 143 107 125
142 107 125 142 107 125 142 107 124 142 107 124 142 107 124 142 107
124 142 106 124 142 106 124 142 106 124 142 106 124 141 106 124 141
106 124 141 106 124 141 106 123 141 106 123 141 106 123 141 106 123
141 106 123 141 106 123 141 105 123 140 105 123 140 105 123 140 105
123 140 105 123 140 105 123 140 105 122 140 105 122 140 105 122 140
105 122 140 105 122 139 105 122 139 105 122 139 105 122 139 104 122
139 104 122 139 104 122 139 104 121 139 104 121 139 104 121 139 104
121 138 104 121 138 104 121 138 104 121 138 104 121 138 104 121 138
104 121 138 103 121 138 103 121 138 103 120 138 103 120 137 103 120
137 103 120 137 103 120 137 103 120 137 103 120 137 103 120 137 103
120 137 103 120 137 103 120 137 102 119 136 102 119 136 102 119 136
102 119 136 102 119 136 102 119 136 102 119 136 102 119 136 102 119
136 102 119 136 102 119 135 102 119 135 102 118 135 102 118 135 101
118 135 101 118 135 101 118 135 101 118 135 101 118 135 101 118 135
101 118 134 101 118 134 101 118 134 101 117 134 101 117 134 101 117
134 101 117 134 100 117 134 100 117 134 100 117 134 100 117 134 100
117 133 100 117 133 100 117 133 100 117 133 100 116 133 100 116 133
100 116 133 100 116 133 100 116 133 100 116 133 99 116 132 99 116 132
99 116 132 99 116 132 99 116 132 99 116 132 99 115 132 99 115 132 99
115 132 99 115 132 99 115 131 99 115 131 99 115 131 98 115 131 98 115
131 98 115 131 98 115 131 98 114 131 98 114 131 98 114 131 98 114 130
98 114 130 98 114 130 98 114 130 98 114 130 98 114 130 98 114 130 97
114 130 97 114 130 97 113 130 97 113 130 97 113 129 97 113 129 97 113
129 97 113 129 97 113 129 97 113 129 97 113 129 97 113 129 97 113 129
97 113 129 96 112 128 96 112 128 96 112 128 96 112 128 96 112 128 96
112 128 96 112 128 96 112 128 96 112 128 96 112 128 96 112 128 96 112
127 96 111 127 96 111 127 95 111 127 95 111 127 95 111 127 95 111 127
95 111 127 95 111 127 95 111 127 95 111 126 95 111 126 95 111 126 95
110 126 95 110 126 95 110 126 95 110 126 94 110 126 94 110 126 94 110
126 94 110 126 94 110 125 94 110 125 94 110 125 94 110 125 94 110 125
94 109 125 94 109 125 94 109 125 94 109 125 94 109 125 94 109 125 93
109 124 93 109 124 93 109 124 93 109 124 93 109 124 93 109 124 93 108
124 93 108 124 93 108 124 93 108 124 93 108 124 93 108 123 93 108 123
93 108 123 92 108 123 92 108 123 92 108 123 92 108 123 92 107 123 92
107 123 92 107 123 92 107 123 92 107 122 92 107 122 92 107 122 92 107
122 92 107 122 92 107 122 92 107 122 91 107 122 91 107 122 91 106 122
91 106 122 91 106 121 91 106 121 91 106 121 91 106 121 91 106 121 91
106 121 91 106 121 91 106 121 91 106 121
112 131 150 112 131 149 112 131 149 112 131 149 112 131 149 112 130
149 112 130 149 112 130 149 112 130 149 112 130 149 112 130 149 111
130 148 111 130 148 111 130 148 111 130 148 111 130 148 111 130 148
111 129 148 111 129 148 111 129 148 111 129 148 111 129 148 111 129
147 111 129 147 111 129 147 110 129 147 110 129 147 110 129 147 110
129 147 110 128 147 110 128 147 110 128 147 110 128 146 110 128 146
110 128 146 110 128 146 110 128 146 110 128 146 110 128 146 109 128
146 109 128 146 109 127 146 109 127 145 109 127 145 109 127 145 109
127 145 109 127 145 109 127 145 109 127 145 109 127 145 109 127 145
109 127 145 108 126 144 108 126 144 108 126 144 108 126 144 108 126
144 108 126 144 108 126 144 108 126 144 108 126 144 108 126 144 108
126 143 108 126 143 108 125 143 108 125 143 107 125 143 107 125 143
107 125 143 107 125 143 107 125 143 107 125 143 107 125 142 107 125
142 107 125 142 107 124 142 107 124 142 107 124 142 107 124 142 106
124 142 106 124 142 106 124 142 106 124 142 106 124 141 106 124 141
106 124 141 106 124 141 106 123 141 106 123 141 106 123 141 106 123
141 106 123 141 106 123 141 105 123 140 105 123 140 105 123 140 105
123 140 105 123 140 105 122 140 105 122 140 105 122 140 105 122 140
105 122 140 105 122 139 105 122 139 105 122 139 104 122 139 104 122
139 104 122 139 104 122 139 104 121 139 104 121 139 104 121 139 104
121 138 104 121 138 104 121 138 104 121 138 104 121 138 104 121 138
103 121 138 103 121 138 103 120 138 103 120 138 103 120 137 103 120
137 103 120 137 103 120 137 103 120 137 103 120 137 103 120 137 103
120 137 103 120 137 103 120 137 102 119 136 102 119 136 102 119 136
102 119 136 102 119 136 102 119 136 102 119 136 102 119 136 102 119
136 102 119 136 102 119 135 102 118 135 102 118 135 101 118 135 101
118 135 101 118 135 101 118 135 101 118 135 101 118 135 101 118 135
101 118 134 101 118 134 101 118 134 101 117 134 101 117 134 101 117
134 101 117 134 100 117 134 100 117 134 100 117 134 100 117 133 100
117 133 100 117 133 100 117 133 100 116 133 100 116 133 100 116 133
100 116 133 100 116 133 100 116 133 99 116 132 99 116 132 99 116 132
99 116 132 99 116 132 99 116 132 99 115 132 99 115 132 99 115 132 99
115 132 99 115 131 99 115 131 99 115 131 99 115 131 98 115 131 98 115
131 98 115 131 98 115 131 98 114 131 98 114 131 98 114 131 98 114 130
98 114 130 98 114 130 98 114 130 98 114 130 98 114 130 98 114 130 97
114 130 97 113 130 97 113 130 97 113 129 97 113 129 97 113 129 97 113
129 97 113 129 97 113 129 97 113 129 97 113 129 97 113 129 97 113 129
96 112 128 96 112 128 96 112 128 96 112 128 96 112 128 96 112 128 96
112 128 96 112 128 96 112 128 96 112 128 96 112 128 96 112 127 96 111
127 96 111 127 95 111 127 95 111 127 95 111 127 95 111 127 95 111 127
95 111 127 95 111 127 95 111 126 95 111 126 95 111 126 95 110 126 95
110 126 95 110 126 95 110 126 95 110 126 94 110 126 94 110 126 94 110
126 94 110 125 94 110 125 94 110 125 94 110 125 94 110 125 94 109 125
94 109 125 94 109 125 94 109 125 94 109 125 94 109 125 93 109 124 93
109 124 93 109 124 93 109 124 93 109 124 93 109 124 93 108 124 93 108
124 93 108 124 93 108 124 93 108 124 93 108 123 93 108 123 93 108 123
92 108 123 92 108 123 92 108 123 92 108 123 92 108 123 92 107 123 92
107 123 92 107 123 92 107 122 92 107 122 92 107 122 92 107 122 92 107
122 92 107 122 92 107 122 91 107 122 91 107 122 91 106 122 91 106 122
91 106 121 91 106 121 91 106 121 91 106 121 91 106 121 91 106 121 91
106 121 91 106 121 91 106 121 91 106 121
112 131 149 112 131 149 112 131 149 112 131 149 112 130 149 112 130
149 112 130 149 112 130 149 112 130 149 112 130 149 111 130 148 111
130 148 111 130 148 111 130 148 111 130 148 111 130 148 111 129 148
111 129 148 111 129 148 111 129 148 111 129 148 111 129 147 111 129
147 111 129 147 110 129 147 110 129 147 110 129 147 110 129 147 110
128 147 110 128 147 110 128 147 110 128 146 110 128 146 110 128 146
110 128 146 110 128 146 110 128 146 110 128 146 109 128 146 109 128
146 109 127 146 109 127 145 109 127 145 109 127 145 109 127 145 109
127 145 109 127 145 109 127 145 109 127 145 109 127 145 109 127 145
109 127 145 108 126 144 108 126 144 108 126 144 108 126 144 108 126
144 108 126 144 108 126 144 108 126 144 108 126 144 108 126 144 108
126 143 108 125 143 108 125 143 107 125 143 107 125 143 107 125 143
107 125 143 107 125 143 107 125 143 107 125 143 107 125 142 107 125
142 107 125 142 107 124 142 107 124 142 107 124 142 107 124 142 106
124 142 106 124 142 106 124 142 106 124 141 106 124 141 106 124 141
106 124 141 106 123 141 106 123 141 106 123 141 106 123 141 106 123
141 106 123 141 105 123 140 105 123 140 105 123 140 105 123 140 105
123 140 105 123 140 105 122 140 105 122 140 105 122 140 105 122 140
105 122 139 105 122 139 105 122 139 104 122 139 104 122 139 104 122
139 104 122 139 104 121 139 104 121 139 104 121 139 104 121 138 104
121 138 104 121 138 104 121 138 104 121 138 104 121 138 104 121 138
103 121 138 103 120 138 103 120 138 103 120 137 103 120 137 103 120
137 103 120 137 103 120 137 103 120 137 103 120 137 103 120 137 103
120 137 103 120 137 102 119 136 102 119 136 102 119 136 102 119 136
102 119 136 102 119 136 102 119 136 102 119 136 102 119 136 102 119
136 102 119 135 102 118 135 102 118 135 101 118 135 101 118 135 101
118 135 101 118 135 101 118 135 101 118 135 101 118 135 101 118 134
101 118 134 101 118 134 101 117 134 101 117 134 101 117 134 101 117
134 100 117 134 100 117 134 100 117 134 100 117 133 100 117 133 100
117 133 100 117 133 100 117 133 100 116 133 100 116 133 100 116 133
100 116 133 100 116 133 99 116 132 99 116 132 99 116 132 99 116 132 99
116 132 99 116 132 99 115 132 99 115 132 99 115 132 99 115 132 99 115
132 99 115 131 99 115 131 99 115 131 98 115 131 98 115 131 98 115 131
98 115 131 98 114 131 98 114 131 98 114 131 98 114 130 98 114 130 98
114 130 98 114 130 98 114 130 98 114 130 98 114 130 97 114 130 97 114
130 97 113 130 97 113 129 97 113 129 97 113 129 97 113 129 97 113 129
97 113 129 97 113 129 97 113 129 97 113 129 97 113 129 97 113 129 96
112 128 96 112 128 96 112 128 96 112 128 96 112 128 96 112 128 96 112
128 96 112 128 96 112 128 96 112 128 96 112 127 96 112 127 96 111 127
96 111 127 95 111 127 95 111 127 95 111 127 95 111 127 95 111 127 95
111 127 95 111 127 95 111 126 95 111 126 95 111 126 95 110 126 95 110
126 95 110 126 95 110 126 94 110 126 94 110 126 94 110 126 94 110 125
94 110 125 94 110 125 94 110 125 94 110 125 94 109 125 94 109 125 94
109 125 94 109 125 94 109 125 94 109 125 93 109 124 93 109 124 93 109
124 93 109 124 93 109 124 93 109 124 93 108 124 93 108 124 93 108 124
93 108 124 93 108 124 93 108 123 93 108 123 93 108 123 93 108 123 92
108 123 92 108 123 92 108 123 92 108 123 92 107 123 92 107 123 92 107
123 92 107 122 92 107 122 92 107 122 92 107 122 92 107 122 92 107 122
92 107 122 91 107 122 91 107 122 91 106 122 91 106 122 91 106 121 91
106 121 91 106 121 91 106 121 91 106 121 91 106 121 91 106 121 91 106
121 91 106 121 91 106 121 91 106 121
112 131 149 112 131 149 112 131 149 112 131 149 112 130 149 112 130
149 112 130 149 112 130 149 112 130 149 112 130 149 111 130 148 111
130 148 111 130 148 111 130 148 111 130 148 111 130 148 111 129 148
111 129 148 111 129 148 111 129 148 111 129 147 111 129 147 111 129
147 111 129 147 110 129 147 110 129 147 110 129 147 110 129 147 110
128 147 110 128 147 110 128 147 110 128 146 110 128 146 110 128 146
110 128 146 110 128 146 110 128 146 109 128 146 109 128 146 109 127
146 109 127 146 109 127 145 109 127 145 109 127 145 109 127 145 109
127 145 109 127 145 109 127 145 109 127 145 109 127 145 109 127 145
108 126 144 108 126 144 108 126 144 108 126 144 108 126 144 108 126
144 108 126 144 108 126 144 108 126 144 108 126 144 108 126 143 108
126 143 108 125 143 107 125 143 107 125 143 107 125 143 107 125 143
107 125 143 107 125 143 107 125 143 107 125 142 107 125 142 107 125
142 107 124 142 107 124 142 107 124 142 107 124 142 106 124 142 106
124 142 106 124 142 106 124 141 106 124 141 106 124 141 106 124 141
106 124 141 106 123 141 106 123 141 106 123 141 106 123 141 106 123
141 105 123 140 105 123 140 105 123 140 105 123 140 105 123 140 105
123 140 105 122 140 105 122 140 105 122 140 105 122 140 105 122 139
105 122 139 105 122 139 105 122 139 104 122 139 104 122 139 104 122
139 104 121 139 104 121 139 104 121 139 104 121 138 104 121 138 104
121 138 104 121 138 104 121 138 104 121 138 104 121 138 103 121 138
103 121 138 103 120 138 103 120 137 103 120 137 103 120 137 103 120
137 103 120 137 103 120 137 103 120 137 103 120 137 103 120 137 103
120 137 102 119 136 102 119 136 102 119 136 102 119 136 102 119 136
102 119 136 102 119 136 102 119 136 102 119 136 102 119 136 102 119
135 102 119 135 102 118 135 102 118 135 101 118 135 101 118 135 101
118 135 101 118 135 101 118 135 101 118 135 101 118 134 101 118 134
101 118 134 101 117 134 101 117 134 101 117 134 101 117 134 100 117
134 100 117 134 100 117 134 100 117 134 100 117 133 100 117 133 100
117 133 100 117 133 100 116 133 100 116 133 100 116 133 100 116 133
100 116 133 100 116 133 99 116 132 99 116 132 99 116 132 99 116 132 99
116 132 99 115 132 99 115 132 99 115 132 99 115 132 99 115 132 99 115
131 99 115 131 99 115 131 98 115 131 98 115 131 98 115 131 98 115 131
98 114 131 98 114 131 98 114 131 98 114 130 98 114 130 98 114 130 98
114 130 98 114 130 98 114 130 98 114 130 97 114 130 97 114 130 97 113
130 97 113 129 97 113 129 97 113 129 97 113 129 97 113 129 97 113 129
97 113 129 97 113 129 97 113 129 97 113 129 97 113 129 96 112 128 96
112 128 96 112 128 96 112 128 96 112 128 96 112 128 96 112 128 96 112
128 96 112 128 96 112 128 96 112 127 96 112 127 96 111 127 96 111 127
95 111 127 95 111 127 95 111 127 95 111 127 95 111 127 95 111 127 95
111 127 95 111 126 95 111 126 95 111 126 95 110 126 95 110 126 95 110
126 95 110 126 94 110 126 94 110 126 94 110 126 94 110 125 94 110 125
94 110 125 94 110 125 94 110 125 94 109 125 94 109 125 94 109 125 94
109 125 94 109 125 94 109 125 93 109 124 93 109 124 93 109 124 93 109
124 93 109 124 93 109 124 93 108 124 93 108 124 93 108 124 93 108 124
93 108 124 93 108 123 93 108 123 93 108 123 93 108 123 92 108 123 92
108 123 92 108 123 92 108 123 92 107 123 92 107 123 92 107 123 92 107
122 92 107 122 92 107 122 92 107 122 92 107 122 92 107 122 92 107 122
91 107 122 91 107 122 91 106 122 91 106 122 91 106 121 91 106 121 91
106 121 91 106 121 91 106 121 91 106 121 91 106 121 91 106 121 91 106
121 91 106 121 91 106 121 90 105 120
112 131 149 112 131 149 112 131 149 112 130 149 112 130 149 112 130
149 112 130 149 112 130 149 112 130 149 111 130 148 111 130 148 111
130 148 111 130 148 111 130 148 111 130 148 111 129 148 111 129 148
111 129 148 111 129 148 111 129 148 111 129 147 111 129 147 111 129
147 110 129 147 110 129 147 110 129 147 110 129 147 110 128 147 110
128 147 110 128 147 110 128 146 110 128 146 110 128 146 110 128 146
110 128 146 110 128 146 110 128 146 109 128 146 109 128 146 109 127
146 109 127 145 109 127 145 109 127 145 109 127 145 109 127 145 109
127 145 109 127 145 109 127 145 109 127 145 109 127 145 108 126 144
108 126 144 108 126 144 108 126 144 108 126 144 108 126 144 108 126
144 108 126 144 108 126 144 108 126 144 108 126 143 108 126 143 108
125 143 108 125 143 107 125 143 107 125 143 107 125 143 107 125 143
107 125 143 107 125 143 107 125 143 107 125 142 107 125 142 107 124
142 107 124 142 107 124 142 107 124 142 106 124 142 106 124 142 106
124 142 106 124 142 106 124 141 106 124 141 106 124 141 106 124 141
106 123 141 106 123 141 106 123 141 106 123 141 106 123 141 106 123
141 105 123 140 105 123 140 105 123 140 105 123 140 105 123 140 105
122 140 105 122 140 105 122 140 105 122 140 105 122 140 105 122 139
105 122 139 105 122 139 104 122 139 104 122 139 104 122 139 104 122
139 104 121 139 104 121 139 104 121 139 104 121 138 104 121 138 104
121 138 104 121 138 104 121 138 104 121 138 103 121 138 103 121 138
103 120 138 103 120 138 103 120 137 103 120 137 103 120 137 103 120
137 103 120 137 103 120 137 103 120 137 103 120 137 103 120 137 103
120 137 102 119 136 102 119 136 102 119 136 102 119 136 102 119 136
102 119 136 102 119 136 102 119 136 102 119 136 102 119 136 102 119
135 102 118 135 102 118 135 101 118 135 101 118 135 101 118 135 101
118 135 101 118 135 101 118 135 101 118 135 101 118 134 101 118 134
101 118 134 101 117 134 101 117 134 101 117 134 100 117 134 100 117
134 100 117 134 100 117 134 100 117 133 100 117 133 100 117 133 100
117 133 100 116 133 100 116 133 100 116 133 100 116 133 100 116 133
100 116 133 99 116 132 99 116 132 99 116 132 99 116 132 99 116 132 99
116 132 99 115 132 99 115 132 99 115 132 99 115 132 99 115 131 99 115
131 99 115 131 99 115 131 98 115 131 98 115 131 98 115 131 98 114 131
98 114 131 98 114 131 98 114 130 98 114 130 98 114 130 98 114 130 98
114 130 98 114 130 98 114 130 97 114 130 97 114 130 97 113 130 97 113
130 97 113 129 97 113 129 97 113 129 97 113 129 97 113 129 97 113 129
97 113 129 97 113 129 97 113 129 97 113 129 96 112 128 96 112 128 96
112 128 96 112 128 96 112 128 96 112 128 96 112 128 96 112 128 96 112
128 96 112 128 96 112 128 96 112 127 96 111 127 96 111 127 95 111 127
95 111 127 95 111 127 95 111 127 95 111 127 95 111 127 95 111 127 95
111 126 95 111 126 95 111 126 95 110 126 95 110 126 95 110 126 95 110
126 94 110 126 94 110 126 94 110 126 94 110 126 94 110 125 94 110 125
94 110 125 94 110 125 94 109 125 94 109 125 94 109 125 94 109 125 94
109 125 94 109 125 93 109 124 93 109 124 93 109 124 93 109 124 93 109
124 93 109 124 93 109 124 93 108 124 93 108 124 93 108 124 93 108 124
93 108 123 93 108 123 93 108 123 93 108 123 92 108 123 92 108 123 92
108 123 92 108 123 92 107 123 92 107 123 92 107 123 92 107 122 92 107
122 92 107 122 92 107 122 92 107 122 92 107 122 92 107 122 91 107 122
91 107 122 91 107 122 91 106 122 91 106 121 91 106 121 91 106 121 91
106 121 91 106 121 91 106 121 91 106 121 91 106 121 91 106 121 91 106
121 91 106 121 90 105 120 90 105 120
112 131 149 112 131 149 112 130 149 112 130 149 112 130 149 112 130
149 112 130 149 112 130 149 111 130 148 111 130 148 111 130 148 111
130 148 111 130 148 111 130 148 111 129 148 111 129 148 111 129 148
111 129 148 111 129 148 111 129 147 111 129 147 111 129 147 110 129
147 110 129 147 110 129 147 110 129 147 110 128 147 110 128 147 110
128 147 110 128 146 110 128 146 110 128 146 110 128 146 110 128 146
110 128 146 110 128 146 109 128 146 109 128 146 109 127 146 109 127
146 109 127 145 109 127 145 109 127 145 109 127 145 109 127 145 109
127 145 109 127 145 109 127 145 109 127 145 109 127 145 108 126 144
108 126 144 108 126 144 108 126 144 108 126 144 108 126 144 108 126
144 108 126 144 108 126 144 108 126 144 108 126 143 108 125 143 108
125 143 107 125 143 107 125 143 107 125 143 107 125 143 107 125 143
107 125 143 107 125 143 107 125 142 107 125 142 107 125 142 107 124
142 107 124 142 107 124 142 107 124 142 106 124 142 106 124 142 106
124 142 106 124 141 106 124 141 106 124 141 106 124 141 106 123 141
106 123 141 106 123 141 106 123 141 106 123 141 106 123 141 105 123
140 105 123 140 105 123 140 105 123 140 105 123 140 105 123 140 105
122 140 105 122 140 105 122 140 105 122 140 105 122 139 105 122 139
105 122 139 104 122 139 104 122 139 104 122 139 104 122 139 104 121
139 104 121 139 104 121 139 104 121 138 104 121 138 104 121 138 104
121 138 104 121 138 104 121 138 104 121 138 103 121 138 103 120 138
103 120 138 103 120 137 103 120 137 103 120 137 103 120 137 103 120
137 103 120 137 103 120 137 103 120 137 103 120 137 103 120 137 102
119 136 102 119 136 102 119 136 102 119 136 102 119 136 102 119 136
102 119 136 102 119 136 102 119 136 102 119 136 102 119 135 102 118
135 102 118 135 101 118 135 101 118 135 101 118 135 101 118 135 101
118 135 101 118 135 101 118 135 101 118 134 101 118 134 101 118 134
101 117 134 101 117 134 101 117 134 101 117 134 100 117 134 100 117
134 100 117 134 100 117 133 100 117 133 100 117 133 100 117 133 100
116 133 100 116 133 100 116 133 100 116 133 100 116 133 100 116 133 99
116 132 99 116 132 99 116 132 99 116 132 99 116 132 99 116 132 99 115
132 99 115 132 99 115 132 99 115 132 99 115 131 99 115 131 99 115 131
99 115 131 98 115 131 98 115 131 98 115 131 98 115 131 98 114 131 98
114 131 98 114 131 98 114 130 98 114 130 98 114 130 98 114 130 98 114
130 98 114 130 97 114 130 97 114 130 97 113 130 97 113 130 97 113 129
97 113 129 97 113 129 97 113 129 97 113 129 97 113 129 97 113 129 97
113 129 97 113 129 97 113 129 96 112 128 96 112 128 96 112 128 96 112
128 96 112 128 96 112 128 96 112 128 96 112 128 96 112 128 96 112 128
96 112 128 96 112 127 96 111 127 96 111 127 95 111 127 95 111 127 95
111 127 95 111 127 95 111 127 95 111 127 95 111 127 95 111 126 95 111
126 95 111 126 95 110 126 95 110 126 95 110 126 95 110 126 94 110 126
94 110 126 94 110 126 94 110 126 94 110 125 94 110 125 94 110 125 94
110 125 94 109 125 94 109 125 94 109 125 94 109 125 94 109 125 94 109
125 94 109 125 93 109 124 93 109 124 93 109 124 93 109 124 93 109 124
93 109 124 93 108 124 93 108 124 93 108 124 93 108 124 93 108 123 93
108 123 93 108 123 93 108 123 92 108 123 92 108 123 92 108 123 92 108
123 92 107 123 92 107 123 92 107 123 92 107 122 92 107 122 92 107 122
92 107 122 92 107 122 92 107 122 92 107 122 92 107 122 91 107 122 91
107 122 91 106 122 91 106 121 91 106 121 91 106 121 91 106 121 91 106
121 91 106 121 91 106 121 91 106 121 91 106 121 91 106 121 91 106 121
90 105 120 90 105 120 90 105 120
112 131 149 112 131 149 112 130 149 112 130 149 112 130 149 112 130
149 112 130 149 112 130 149 111 130 148 111 130 148 111 130 148 111
130 148 111 130 148 111 130 148 111 129 148 111 129 148 111 129 148
111 129 148 111 129 147 111 129 147 111 129 147 111 129 147 110 129
147 110 129 147 110 129 147 110 129 147 110 128 147 110 128 147 110
128 147 110 128 146 110 128 146 110 128 146 110 128 146 110 128 146
110 128 146 109 128 146 109 128 146 109 127 146 109 127 146 109 127
145 109 127 145 109 127 145 109 127 145 109 127 145 109 127 145 109
127 145 109 127 145 109 127 145 109 127 145 108 126 144 108 126 144
108 126 144 108 126 144 108 126 144 108 126 144 108 126 144 108 126
144 108 126 144 108 126 144 108 126 143 108 126 143 108 125 143 108
125 143 107 125 143 107 125 143 107 125 143 107 125 143 107 125 143
107 125 143 107 125 142 107 125 142 107 125 142 107 124 142 107 124
142 107 124 142 107 124 142 106 124 142 106 124 142 106 124 142 106
124 141 106 124 141 106 124 141 106 124 141 106 124 141 106 123 141
106 123 141 106 123 141 106 123 141 106 123 141 105 123 140 105 123
140 105 123 140 105 123 140 105 123 140 105 123 140 105 122 140 105
122 140 105 122 140 105 122 140 105 122 139 105 122 139 105 122 139
105 122 139 104 122 139 104 122 139 104 122 139 104 121 139 104 121
139 104 121 139 104 121 138 104 121 138 104 121 138 104 121 138 104
121 138 104 121 138 104 121 138 103 121 138 103 121 138 103 120 138
103 120 137 103 120 137 103 120 137 103 120 137 103 120 137 103 120
137 103 120 137 103 120 137 103 120 137 103 120 137 102 119 136 102
119 136 102 119 136 102 119 136 102 119 136 102 119 136 102 119 136
102 119 136 102 119 136 102 119 136 102 119 135 102 119 135 102 118
135 102 118 135 101 118 135 101 118 135 101 118 135 101 118 135 101
118 135 101 118 135 101 118 134 101 118 134 101 118 134 101 117 134
101 117 134 101 117 134 101 117 134 100 117 134 100 117 134 100 117
134 100 117 133 100 117 133 100 117 133 100 117 133 100 117 133 100
116 133 100 116 133 100 116 133 100 116 133 100 116 133 100 116 133 99
116 132 99 116 132 99 116 132 99 116 132 99 116 132 99 115 132 99 115
132 99 115 132 99 115 132 99 115 132 99 115 131 99 115 131 99 115 131
98 115 131 98 115 131 98 115 131 98 115 131 98 114 131 98 114 131 98
114 131 98 114 130 98 114 130 98 114 130 98 114 130 98 114 130 98 114
130 98 114 130 97 114 130 97 114 130 97 113 130 97 113 129 97 113 129
97 113 129 97 113 129 97 113 129 97 113 129 97 113 129 97 113 129 97
113 129 97 113 129 97 113 129 96 112 128 96 112 128 96 112 128 96 112
128 96 112 128 96 112 128 96 112 128 96 112 128 96 112 128 96 112 128
96 112 127 96 111 127 96 111 127 95 111 127 95 111 127 95 111 127 95
111 127 95 111 127 95 111 127 95 111 127 95 111 126 95 111 126 95 111
126 95 110 126 95 110 126 95 110 126 95 110 126 94 110 126 94 110 126
94 110 126 94 110 126 94 110 125 94 110 125 94 110 125 94 110 125 94
110 125 94 109 125 94 109 125 94 109 125 94 109 125 94 109 125 94 109
125 93 109 124 93 109 124 93 109 124 93 109 124 93 109 124 93 109 124
93 108 124 93 108 124 93 108 124 93 108 124 93 108 123 93 108 123 93
108 123 93 108 123 92 108 123 92 108 123 92 108 123 92 108 123 92 107
123 92 107 123 92 107 123 92 107 122 92 107 122 92 107 122 92 107 122
92 107 122 92 107 122 92 107 122 92 107 122 91 107 122 91 107 122 91
106 122 91 106 121 91 106 121 91 106 121 91 106 121 91 106 121 91 106
121 91 106 121 91 106 121 91 106 121 91 106 121 91 106 121 90 105 120
90 105 120 90 105 120 90 105 120
112 131 149 112 130 149 112 130 149 112 130 149 112 130 149 112 130
149 112 130 149 111 130 148 111 130 148 111 130 148 111 130 148 111
130 148 111 130 148 111 129 148 111 129 148 111 129 148 111 129 148
111 129 148 111 129 147 111 129 147 111 129 147 110 129 147 110 129
147 110 129 147 110 129 147 110 128 147 110 128 147 110 128 147 110
128 146 110 128 146 110 128 146 110 128 146 110 128 146 110 128 146
110 128 146 109 128 146 109 128 146 109 127 146 109 127 145 109 127
145 109 127 145 109 127 145 109 127 145 109 127 145 109 127 145 109
127 145 109 127 145 109 127 145 108 126 144 108 126 144 108 126 144
108 126 144 108 126 144 108 126 144 108 126 144 108 126 144 108 126
144 108 126 144 108 126 143 108 126 143 108 125 143 108 125 143 107
125 143 107 125 143 107 125 143 107 125 143 107 125 143 107 125 143
107 125 143 107 125 142 107 125 142 107 124 142 107 124 142 107 124
142 107 124 142 106 124 142 106 124 142 106 124 142 106 124 142 106
124 141 106 124 141 106 124 141 106 124 141 106 123 141 106 123 141
106 123 141 106 123 141 106 123 141 106 123 141 105 123 140 105 123
140 105 123 140 105 123 140 105 123 140 105 122 140 105 122 140 105
122 140 105 122 140 105 122 140 105 122 139 105 122 139 105 122 139
104 122 139 104 122 139 104 122 139 104 122 139 104 121 139 104 121
139 104 121 139 104 121 138 104 121 138 104 121 138 104 121 138 104
121 138 104 121 138 103 121 138 103 121 138 103 120 138 103 120 138
103 120 137 103 120 137 103 120 137 103 120 137 103 120 137 103 120
137 103 120 137 103 120 137 103 120 137 103 120 137 102 119 136 102
119 136 102 119 136 102 119 136 102 119 136 102 119 136 102 119 136
102 119 136 102 119 136 102 119 136 102 119 135 102 118 135 102 118
135 101 118 135 101 118 135 101 118 135 101 118 135 101 118 135 101
118 135 101 118 135 101 118 134 101 118 134 101 117 134 101 117 134
101 117 134 101 117 134 100 117 134 100 117 134 100 117 134 100 117
134 100 117 133 100 117 133 100 117 133 100 117 133 100 116 133 100
116 133 100 116 133 100 116 133 100 116 133 100 116 133 99 116 132 99
116 132 99 116 132 99 116 132 99 116 132 99 116 132 99 115 132 99 115
132 99 115 132 99 115 132 99 115 131 99 115 131 99 115 131 98 115 131
98 115 131 98 115 131 98 115 131 98 114 131 98 114 131 98 114 131 98
114 130 98 114 130 98 114 130 98 114 130 98 114 130 98 114 130 98 114
130 97 114 130 97 114 130 97 113 130 97 113 129 97 113 129 97 113 129
97 113 129 97 113 129 97 113 129 97 113 129 97 113 129 97 113 129 97
113 129 97 113 129 96 112 128 96 112 128 96 112 128 96 112 128 96 112
128 96 112 128 96 112 128 96 112 128 96 112 128 96 112 128 96 112 127
96 112 127 96 111 127 96 111 127 95 111 127 95 111 127 95 111 127 95
111 127 95 111 127 95 111 127 95 111 127 95 111 126 95 111 126 95 111
126 95 110 126 95 110 126 95 110 126 95 110 126 94 110 126 94 110 126
94 110 126 94 110 125 94 110 125 94 110 125 94 110 125 94 110 125 94
109 125 94 109 125 94 109 125 94 109 125 94 109 125 94 109 125 93 109
124 93 109 124 93 109 124 93 109 124 93 109 124 93 109 124 93 108 124
93 108 124 93 108 124 93 108 124 93 108 124 93 108 123 93 108 123 93
108 123 92 108 123 92 108 123 92 108 123 92 108 123 92 107 123 92 107
123 92 107 123 92 107 122 92 107 122 92 107 122 92 107 122 92 107 122
92 107 122 92 107 122 92 107 122 91 107 122 91 107 122 91 106 122 91
106 121 91 106 121 91 106 121 91 106 121 91 106 121 91 106 121 91 106
121 91 106 121 91 106 121 91 106 121 91 106 121 91 106 121 90 105 120
90 105 120 90 105 120 90 105 120
112 130 149 112 130 149 112 130 149 112 130 149 112 130 149 112 130
149 111 130 148 111 130 148 111 130 148 111 130 148 111 130 148 111
130 148 111 129 148 111 129 148 111 129 148 111 129 148 111 129 148
111 129 147 111 129 147 111 129 147 110 129 147 110 129 147 110 129
147 110 129 147 110 128 147 110 128 147 110 128 147 110 128 146 110
128 146 110 128 146 110 128 146 110 128 146 110 128 146 110 128 146
109 128 146 109 128 146 109 127 146 109 127 146 109 127 145 109 127
145 109 127 145 109 127 145 109 127 145 109 127 145 109 127 145 109
127 145 109 127 145 109 127 145 108 126 144 108 126 144 108 126 144
108 126 144 108 126 144 108 126 144 108 126 144 108 126 144 108 126
144 108 126 144 108 126 143 108 125 143 108 125 143 107 125 143 107
125 143 107 125 143 107 125 143 107 125 143 107 125 143 107 125 143
107 125 142 107 125 142 107 125 142 107 124 142 107 124 142 107 124
142 107 124 142 106 124 142 106 124 142 106 124 142 106 124 141 106
124 141 106 124 141 106 124 141 106 123 141 106 123 141 106 123 141
106 123 141 106 123 141 106 123 141 105 123 140 105 123 140 105 123
140 105 123 140 105 123 140 105 123 140 105 122 140 105 122 140 105
122 140 105 122 140 105 122 139 105 122 139 105 122 139 104 122 139
104 122 139 104 122 139 104 122 139 104 121 139 104 121 139 104 121
139 104 121 138 104 121 138 104 121 138 104 121 138 104 121 138 104
121 138 104 121 138 103 121 138 103 120 138 103 120 138 103 120 137
103 120 137 103 120 137 103 120 137 103 120 137 103 120 137 103 120
137 103 120 137 103 120 137 103 120 137 102 119 136 102 119 136 102
119 136 102 119 136 102 119 136 102 119 136 102 119 136 102 119 136
102 119 136 102 119 136 102 119 135 102 118 135 102 118 135 101 118
135 101 118 135 101 118 135 101 118 135 101 118 135 101 118 135 101
118 135 101 118 134 101 118 134 101 118 134 101 117 134 101 117 134
101 117 134 101 117 134 100 117 134 100 117 134 100 117 134 100 117
133 100 117 133 100 117 133 100 117 133 100 116 133 100 116 133 100
116 133 100 116 133 100 116 133 100 116 133 99 116 132 99 116 132 99
116 132 99 116 132 99 116 132 99 116 132 99 115 132 99 115 132 99 115
132 99 115 132 99 115 131 99 115 131 99 115 131 99 115 131 98 115 131
98 115 131 98 115 131 98 114 131 98 114 131 98 114 131 98 114 130 98
114 130 98 114 130 98 114 130 98 114 130 98 114 130 98 114 130 97 114
130 97 114 130 97 113 130 97 113 130 97 113 129 97 113 129 97 113 129
97 113 129 97 113 129 97 113 129 97 113 129 97 113 129 97 113 129 97
113 129 96 112 128 96 112 128 96 112 128 96 112 128 96 112 128 96 112
128 96 112 128 96 112 128 96 112 128 96 112 128 96 112 127 96 112 127
96 111 127 96 111 127 95 111 127 95 111 127 95 111 127 95 111 127 95
111 127 95 111 127 95 111 127 95 111 126 95 111 126 95 111 126 95 110
126 95 110 126 95 110 126 95 110 126 94 110 126 94 110 126 94 110 126
94 110 125 94 110 125 94 110 125 94 110 125 94 110 125 94 109 125 94
109 125 94 109 125 94 109 125 94 109 125 94 109 125 93 109 124 93 109
124 93 109 124 93 109 124 93 109 124 93 109 124 93 108 124 93 108 124
93 108 124 93 108 124 93 108 124 93 108 123 93 108 123 93 108 123 92
108 123 92 108 123 92 108 123 92 108 123 92 108 123 92 107 123 92 107
123 92 107 123 92 107 122 92 107 122 92 107 122 92 107 122 92 107 122
92 107 122 92 107 122 91 107 122 91 107 122 91 106 122 91 106 122 91
106 121 91 106 121 91 106 121 91 106 121 91 106 121 91 106 121 91 106
121 91 106 121 91 106 121 91 106 121 91 106 121 90 105 120 90 105 120
90 105 120 90 105 120 90 105 120
112 130 149 112 130 149 112 130 149 112 130 149 112 130 149 112 130
149 111 130 148 111 130 148 111 130 148 111 130 148 111 130 148 111
130 148 111 129 148 111 129 148 111 129 148 111 129 148 111 129 147
111 129 147 111 129 147 111 129 147 110 129 147 110 129 147 110 129
147 110 129 147 110 128 147 110 128 147 110 128 147 110 128 146 110
128 146 110 128 146 110 128 146 110 128 146 110 128 146 109 128 146
109 128 146 109 127 146 109 127 146 109 127 145 109 127 145 109 127
145 109 127 145 109 127 145 109 127 145 109 127 145 109 127 145 109
127 145 109 127 145 108 126 144 108 126 144 108 126 144 108 126 144
108 126 144 108 126 144 108 126 144 108 126 144 108 126 144 108 126
144 108 126 143 108 126 143 108 125 143 108 125 143 107 125 143 107
125 143 107 125 143 107 125 143 107 125 143 107 125 143 107 125 142
107 125 142 107 125 142 107 124 142 107 124 142 107 124 142 107 124
142 106 124 142 106 124 142 106 124 142 106 124 141 106 124 141 106
124 141 106 124 141 106 124 141 106 123 141 106 123 141 106 123 141
106 123 141 106 123 141 105 123 140 105 123 140 105 123 140 105 123
140 105 123 140 105 123 140 105 122 140 105 122 140 105 122 140 105
122 140 105 122 139 105 122 139 105 122 139 105 122 139 104 122 139
104 122 139 104 122 139 104 121 139 104 121 139 104 121 139 104 121
138 104 121 138 104 121 138 104 121 138 104 121 138 104 121 138 104
121 138 103 121 138 103 121 138 103 120 138 103 120 137 103 120 137
103 120 137 103 120 137 103 120 137 103 120 137 103 120 137 103 120
137 103 120 137 103 120 137 102 119 136 102 119 136 102 119 136 102
119 136 102 119 136 102 119 136 102 119 136 102 119 136 102 119 136
102 119 136 102 119 135 102 119 135 102 118 135 101 118 135 101 118
135 101 118 135 101 118 135 101 118 135 101 118 135 101 118 135 101
118 134 101 118 134 101 118 134 101 117 134 101 117 134 101 117 134
101 117 134 100 117 134 100 117 134 100 117 134 100 117 133 100 117
133 100 117 133 100 117 133 100 117 133 100 116 133 100 116 133 100
116 133 100 116 133 100 116 133 99 116 132 99 116 132 99 116 132 99
116 132 99 116 132 99 116 132 99 115 132 99 115 132 99 115 132 99 115
132 99 115 131 99 115 131 99 115 131 99 115 131 98 115 131 98 115 131
98 115 131 98 115 131 98 114 131 98 114 131 98 114 131 98 114 130 98
114 130 98 114 130 98 114 130 98 114 130 98 114 130 97 114 130 97 114
130 97 113 130 97 113 130 97 113 129 97 113 129 97 113 129 97 113 129
97 113 129 97 113 129 97 113 129 97 113 129 97 113 129 97 113 129 96
112 128 96 112 128 96 112 128 96 112 128 96 112 128 96 112 128 96 112
128 96 112 128 96 112 128 96 112 128 96 112 128 96 112 127 96 111 127
96 111 127 95 111 127 95 111 127 95 111 127 95 111 127 95 111 127 95
111 127 95 111 127 95 111 126 95 111 126 95 111 126 95 110 126 95 110
126 95 110 126 95 110 126 94 110 126 94 110 126 94 110 126 94 110 126
94 110 125 94 110 125 94 110 125 94 110 125 94 109 125 94 109 125 94
109 125 94 109 125 94 109 125 94 109 125 93 109 124 93 109 124 93 109
124 93 109 124 93 109 124 93 109 124 93 108 124 93 108 124 93 108 124
93 108 124 93 108 124 93 108 123 93 108 123 93 108 123 93 108 123 92
108 123 92 108 123 92 108 123 92 108 123 92 107 123 92 107 123 92 107
123 92 107 122 92 107 122 92 107 122 92 107 122 92 107 122 92 107 122
92 107 122 91 107 122 91 107 122 91 106 122 91 106 122 91 106 121 91
106 121 91 106 121 91 106 121 91 106 121 91 106 121 91 106 121 91 106
121 91 106 121 91 106 121 91 106 121 90 105 120 90 105 120 90 105 120
90 105 120 90 105 120 90 105 120
112 130 149 112 130 149 112 130 149 112 130 149 112 130 149 111 130
148 111 130 148 111 130 148 111 130 148 111 130 148 111 130 148 111
129 148 111 129 148 111 129 148 111 129 148 111 129 148 111 129 147
111 129 147 111 129 147 110 129 147 110 129 147 110 129 147 110 129
147 110 128 147 110 128 147 110 128 147 110 128 146 110 128 146 110
128 146 110 128 146 110 128 146 110 128 146 110 128 146 109 128 146
109 128 146 109 127 146 109 127 145 109 127 145 109 127 145 109 127
145 109 127 145 109 127 145 109 127 145 109 127 145 109 127 145 109
127 145 108 126 144 108 126 144 108 126 144 108 126 144 108 126 144
108 126 144 108 126 144 108 126 144 108 126 144 108 126 144 108 126
143 108 126 143 108 125 143 108 125 143 107 125 143 107 125 143 107
125 143 107 125 143 107 125 143 107 125 143 107 125 143 107 125 142
107 125 142 107 124 142 107 124 142 107 124 142 107 124 142 106 124
142 106 124 142 106 124 142 106 124 142 106 124 141 106 124 141 106
124 141 106 124 141 106 123 141 106 123 141 106 123 141 106 123 141
106 123 141 106 123 141 105 123 140 105 123 140 105 123 140 105 123
140 105 123 140 105 122 140 105 122 140 105 122 140 105 122 140 105
122 140 105 122 139 105 122 139 105 122 139 104 122 139 104 122 139
104 122 139 104 122 139 104 121 139 104 121 139 104 121 139 104 121
138 104 121 138 104 121 138 104 121 138 104 121 138 104 121 138 103
121 138 103 121 138 103 120 138 103 120 137 103 120 137 103 120 137
103 120 137 103 120 137 103 120 137 103 120 137 103 120 137 103 120
137 103 120 137 102 119 136 102 119 136 102 119 136 102 119 136 102
119 136 102 119 136 102 119 136 102 119 136 102 119 136 102 119 136
102 119 135 102 119 135 102 118 135 102 118 135 101 118 135 101 118
135 101 118 135 101 118 135 101 118 135 101 118 135 101 118 134 101
118 134 101 118 134 101 117 134 101 117 134 101 117 134 101 117 134
100 117 134 100 117 134 100 117 134 100 117 133 100 117 133 100 117
133 100 117 133 100 117 133 100 116 133 100 116 133 100 116 133 100
116 133 100 116 133 100 116 133 99 116 132 99 116 132 99 116 132 99
116 132 99 116 132 99 115 132 99 115 132 99 115 132 99 115 132 99 115
132 99 115 131 99 115 131 99 115 131 98 115 131 98 115 131 98 115 131
98 115 131 98 114 131 98 114 131 98 114 131 98 114 130 98 114 130 98
114 130 98 114 130 98 114 130 98 114 130 98 114 130 97 114 130 97 114
130 97 113 130 97 113 129 97 113 129 97 113 129 97 113 129 97 113 129
97 113 129 97 113 129 97 113 129 97 113 129 97 113 129 96 112 128 96
112 128 96 112 128 96 112 128 96 112 128 96 112 128 96 112 128 96 112
128 96 112 128 96 112 128 96 112 128 96 112 127 96 111 127 96 111 127
95 111 127 95 111 127 95 111 127 95 111 127 95 111 127 95 111 127 95
111 127 95 111 126 95 111 126 95 111 126 95 110 126 95 110 126 95 110
126 95 110 126 94 110 126 94 110 126 94 110 126 94 110 126 94 110 125
94 110 125 94 110 125 94 110 125 94 109 125 94 109 125 94 109 125 94
109 125 94 109 125 94 109 125 93 109 124 93 109 124 93 109 124 93 109
124 93 109 124 93 109 124 93 108 124 93 108 124 93 108 124 93 108 124
93 108 124 93 108 123 93 108 123 93 108 123 93 108 123 92 108 123 92
108 123 92 108 123 92 108 123 92 107 123 92 107 123 92 107 123 92 107
122 92 107 122 92 107 122 92 107 122 92 107 122 92 107 122 92 107 122
91 107 122 91 107 122 91 106 122 91 106 122 91 106 121 91 106 121 91
106 121 91 106 121 91 106 121 91 106 121 91 106 121 91 106 121 91 106
121 91 106 121 91 106 121 90 105 120 90 105 120 90 105 120 90 105 120
90 105 120 90 105 120 90 105 120
112 130 149 112 130 149 112 130 149 112 130 149 111 130 148 111 130
148 111 130 148 111 130 148 111 130 148 111 130 148 111 129 148 111
129 148 111 129 148 111 129 148 111 129 148 111 129 147 111 129 147
111 129 147 110 129 147 110 129 147 110 129 147 110 129 147 110 128
147 110 128 147 110 128 147 110 128 146 110 128 146 110 128 146 110
128 146 110 128 146 110 128 146 110 128 146 109 128 146 109 128 146
109 127 146 109 127 145 109 127 145 109 127 145 109 127 145 109 127
145 109 127 145 109 127 145 109 127 145 109 127 145 109 127 145 109
127 145 108 126 144 108 126 144 108 126 144 108 126 144 108 126 144
108 126 144 108 126 144 108 126 144 108 126 144 108 126 144 108 126
143 108 125 143 108 125 143 107 125 143 107 125 143 107 125 143 107
125 143 107 125 143 107 125 143 107 125 143 107 125 142 107 125 142
107 125 142 107 124 142 107 124 142 107 124 142 107 124 142 106 124
142 106 124 142 106 124 142 106 124 141 106 124 141 106 124 141 106
124 141 106 123 141 106 123 141 106 123 141 106 123 141 106 123 141
106 123 141 105 123 140 105 123 140 105 123 140 105 123 140 105 123
140 105 123 140 105 122 140 105 122 140 105 122 140 105 122 140 105
122 139 105 122 139 105 122 139 104 122 139 104 122 139 104 122 139
104 122 139 104 121 139 104 121 139 104 121 139 104 121 138 104 121
138 104 121 138 104 121 138 104 121 138 104 121 138 103 121 138 103
121 138 103 120 138 103 120 138 103 120 137 103 120 137 103 120 137
103 120 137 103 120 137 103 120 137 103 120 137 103 120 137 103 120
137 103 120 137 102 119 136 102 119 136 102 119 136 102 119 136 102
119 136 102 119 136 102 119 136 102 119 136 102 119 136 102 119 136
102 119 135 102 118 135 102 118 135 101 118 135 101 118 135 101 118
135 101 118 135 101 118 135 101 118 135 101 118 135 101 118 134 101
118 134 101 118 134 101 117 134 101 117 134 101 117 134 100 117 134
100 117 134 100 117 134 100 117 134 100 117 133 100 117 133 100 117
133 100 117 133 100 116 133 100 116 133 100 116 133 100 116 133 100
116 133 100 116 133 99 116 132 99 116 132 99 116 132 99 116 132 99 116
132 99 116 132 99 115 132 99 115 132 99 115 132 99 115 132 99 115 131
99 115 131 99 115 131 98 115 131 98 115 131 98 115 131 98 115 131 98
114 131 98 114 131 98 114 131 98 114 130 98 114 130 98 114 130 98 114
130 98 114 130 98 114 130 98 114 130 97 114 130 97 114 130 97 113 130
97 113 129 97 113 129 97 113 129 97 113 129 97 113 129 97 113 129 97
113 129 97 113 129 97 113 129 97 113 129 97 113 129 96 112 128 96 112
128 96 112 128 96 112 128 96 112 128 96 112 128 96 112 128 96 112 128
96 112 128 96 112 128 96 112 127 96 111 127 96 111 127 95 111 127 95
111 127 95 111 127 95 111 127 95 111 127 95 111 127 95 111 127 95 111
126 95 111 126 95 111 126 95 110 126 95 110 126 95 110 126 95 110 126
94 110 126 94 110 126 94 110 126 94 110 126 94 110 125 94 110 125 94
110 125 94 110 125 94 109 125 94 109 125 94 109 125 94 109 125 94 109
125 94 109 125 93 109 124 93 109 124 93 109 124 93 109 124 93 109 124
93 109 124 93 109 124 93 108 124 93 108 124 93 108 124 93 108 124 93
108 123 93 108 123 93 108 123 93 108 123 92 108 123 92 108 123 92 108
123 92 108 123 92 107 123 92 107 123 92 107 123 92 107 122 92 107 122
92 107 122 92 107 122 92 107 122 92 107 122 92 107 122 91 107 122 91
107 122 91 106 122 91 106 122 91 106 121 91 106 121 91 106 121 91 106
121 91 106 121 91 106 121 91 106 121 91 106 121 91 106 121 91 106 121
91 106 121 90 105 120 90 105 120 90 105 120 90 105 120 90 105 120 90
105 120 90 105 120 90 105 120
112 130 149 112 130 149 112 130 149 112 130 149 111 130 148 111 130
148 111 130 148 111 130 148 111 130 148 111 130 148 111 129 148 111
129 148 111 129 148 111 129 148 111 129 147 111 129 147 111 129 147
111 129 147 110 129 147 110 129 147 110 129 147 110 129 147 110 128
147 110 128 147 110 128 147 110 128 146 110 128 146 110 128 146 110
128 146 110 128 146 110 128 146 109 128 146 109 128 146 109 127 146
109 127 146 109 127 145 109 127 145 109 127 145 109 127 145 109 127
145 109 127 145 109 127 145 109 127 145 109 127 145 109 127 145 108
126 144 108 126 144 108 126 144 108 126 144 108 126 144 108 126 144
108 126 144 108 126 144 108 126 144 108 126 144 108 126 143 108 126
143 108 125 143 107 125 143 107 125 143 107 125 143 107 125 143 107
125 143 107 125 143 107 125 143 107 125 142 107 125 142 107 125 142
107 124 142 107 124 142 107 124 142 107 124 142 106 124 142 106 124
142 106 124 142 106 124 141 106 124 141 106 124 141 106 124 141 106
123 141 106 123 141 106 123 141 106 123 141 106 123 141 106 123 141
105 123 140 105 123 140 105 123 140 105 123 140 105 123 140 105 123
140 105 122 140 105 122 140 105 122 140 105 122 140 105 122 139 105
122 139 105 122 139 104 122 139 104 122 139 104 122 139 104 122 139
104 121 139 104 121 139 104 121 139 104 121 138 104 121 138 104 121
138 104 121 138 104 121 138 104 121 138 104 121 138 103 121 138 103
121 138 103 120 138 103 120 137 103 120 137 103 120 137 103 120 137
103 120 137 103 120 137 103 120 137 103 120 137 103 120 137 103 120
137 102 119 136 102 119 136 102 119 136 102 119 136 102 119 136 102
119 136 102 119 136 102 119 136 102 119 136 102 119 136 102 119 135
102 118 135 102 118 135 101 118 135 101 118 135 101 118 135 101 118
135 101 118 135 101 118 135 101 118 135 101 118 134 101 118 134 101
118 134 101 117 134 101 117 134 101 117 134 101 117 134 100 117 134
100 117 134 100 117 134 100 117 133 100 117 133 100 117 133 100 117
133 100 116 133 100 116 133 100 116 133 100 116 133 100 116 133 100
116 133 99 116 132 99 116 132 99 116 132 99 116 132 99 116 132 99 116
132 99 115 132 99 115 132 99 115 132 99 115 132 99 115 131 99 115 131
99 115 131 99 115 131 98 115 131 98 115 131 98 115 131 98 114 131 98
114 131 98 114 131 98 114 130 98 114 130 98 114 130 98 114 130 98 114
130 98 114 130 98 114 130 97 114 130 97 114 130 97 113 130 97 113 130
97 113 129 97 113 129 97 113 129 97 113 129 97 113 129 97 113 129 97
113 129 97 113 129 97 113 129 97 113 129 96 112 128 96 112 128 96 112
128 96 112 128 96 112 128 96 112 128 96 112 128 96 112 128 96 112 128
96 112 128 96 112 127 96 112 127 96 111 127 96 111 127 95 111 127 95
111 127 95 111 127 95 111 127 95 111 127 95 111 127 95 111 127 95 111
126 95 111 126 95 111 126 95 110 126 95 110 126 95 110 126 95 110 126
94 110 126 94 110 126 94 110 126 94 110 125 94 110 125 94 110 125 94
110 125 94 110 125 94 109 125 94 109 125 94 109 125 94 109 125 94 109
125 94 109 125 93 109 124 93 109 124 93 109 124 93 109 124 93 109 124
93 109 124 93 108 124 93 108 124 93 108 124 93 108 124 93 108 123 93
108 123 93 108 123 93 108 123 92 108 123 92 108 123 92 108 123 92 108
123 92 107 123 92 107 123 92 107 123 92 107 122 92 107 122 92 107 122
92 107 122 92 107 122 92 107 122 92 107 122 91 107 122 91 107 122 91
106 122 91 106 122 91 106 121 91 106 121 91 106 121 91 106 121 91 106
121 91 106 121 91 106 121 91 106 121 91 106 121 91 106 121 91 106 121
90 105 120 90 105 120 90 105 120 90 105 120 90 105 120 90 105 120 90
105 120 90 105 120 90 105 120
112 130 149 112 130 149 112 130 149 111 130 148 111 130 148 111 130
148 111 130 148 111 130 148 111 130 148 111 129 148 111 129 148 111
129 148 111 129 148 111 129 147 111 129 147 111 129 147 111 129 147
110 129 147 110 129 147 110 129 147 110 129 147 110 128 147 110 128
147 110 128 147 110 128 146 110 128 146 110 128 146 110 128 146 110
128 146 110 128 146 110 128 146 109 128 146 109 128 146 109 127 146
109 127 145 109 127 145 109 127 145 109 127 145 109 127 145 109 127
145 109 127 145 109 127 145 109 127 145 109 127 145 108 126 144 108
126 144 108 126 144 108 126 144 108 126 144 108 126 144 108 126 144
108 126 144 108 126 144 108 126 144 108 126 143 108 126 143 108 125
143 108 125 143 107 125 143 107 125 143 107 125 143 107 125 143 107
125 143 107 125 143 107 125 142 107 125 142 107 125 142 107 124 142
107 124 142 107 124 142 107 124 142 106 124 142 106 124 142 106 124
142 106 124 142 106 124 141 106 124 141 106 124 141 106 124 141 106
123 141 106 123 141 106 123 141 106 123 141 106 123 141 106 123 141
105 123 140 105 123 140 105 123 140 105 123 140 105 123 140 105 122
140 105 122 140 105 122 140 105 122 140 105 122 139 105 122 139 105
122 139 105 122 139 104 122 139 104 122 139 104 122 139 104 122 139
104 121 139 104 121 139 104 121 138 104 121 138 104 121 138 104 121
138 104 121 138 104 121 138 104 121 138 103 121 138 103 121 138 103
120 138 103 120 137 103 120 137 103 120 137 103 120 137 103 120 137
103 120 137 103 120 137 103 120 137 103 120 137 103 120 137 102 119
136 102 119 136 102 119 136 102 119 136 102 119 136 102 119 136 102
119 136 102 119 136 102 119 136 102 119 136 102 119 135 102 119 135
102 118 135 102 118 135 101 118 135 101 118 135 101 118 135 101 118
135 101 118 135 101 118 135 101 118 134 101 118 134 101 118 134 101
117 134 101 117 134 101 117 134 101 117 134 100 117 134 100 117 134
100 117 134 100 117 133 100 117 133 100 117 133 100 117 133 100 117
133 100 116 133 100 116 133 100 116 133 100 116 133 100 116 133 99 116
132 99 116 132 99 116 132 99 116 132 99 116 132 99 116 132 99 115 132
99 115 132 99 115 132 99 115 132 99 115 131 99 115 131 99 115 131 99
115 131 98 115 131 98 115 131 98 115 131 98 115 131 98 114 131 98 114
131 98 114 131 98 114 130 98 114 130 98 114 130 98 114 130 98 114 130
98 114 130 97 114 130 97 114 130 97 113 130 97 113 130 97 113 129 97
113 129 97 113 129 97 113 129 97 113 129 97 113 129 97 113 129 97 113
129 97 113 129 97 113 129 96 112 128 96 112 128 96 112 128 96 112 128
96 112 128 96 112 128 96 112 128 96 112 128 96 112 128 96 112 128 96
112 127 96 112 127 96 111 127 96 111 127 95 111 127 95 111 127 95 111
127 95 111 127 95 111 127 95 111 127 95 111 127 95 111 126 95 111 126
95 111 126 95 110 126 95 110 126 95 110 126 95 110 126 94 110 126 94
110 126 94 110 126 94 110 125 94 110 125 94 110 125 94 110 125 94 110
125 94 109 125 94 109 125 94 109 125 94 109 125 94 109 125 94 109 125
93 109 124 93 109 124 93 109 124 93 109 124 93 109 124 93 109 124 93
108 124 93 108 124 93 108 124 93 108 124 93 108 123 93 108 123 93 108
123 93 108 123 92 108 123 92 108 123 92 108 123 92 108 123 92 107 123
92 107 123 92 107 123 92 107 122 92 107 122 92 107 122 92 107 122 92
107 122 92 107 122 92 107 122 91 107 122 91 107 122 91 107 122 91 106
122 91 106 121 91 106 121 91 106 121 91 106 121 91 106 121 91 106 121
91 106 121 91 106 121 91 106 121 91 106 121 91 106 121 90 105 120 90
105 120 90 105 120 90 105 120 90 105 120 90 105 120 90 105 120 90 105
120 90 105 120 90 105 120
112 130 149 112 130 149 111 130 148 111 130 148 111 130 148 111 130
148 111 130 148 111 130 148 111 129 148 111 129 148 111 129 148 111
129 148 111 129 148 111 129 147 111 129 147 111 129 147 110 129 147
110 129 147 110 129 147 110 129 147 110 128 147 110 128 147 110 128
147 110 128 146 110 128 146 110 128 146 110 128 146 110 128 146 110
128 146 110 128 146 109 128 146 109 128 146 109 127 146 109 127 145
109 127 145 109 127 145 109 127 145 109 127 145 109 127 145 109 127
145 109 127 145 109 127 145 109 127 145 109 127 145 108 126 144 108
126 144 108 126 144 108 126 144 108 126 144 108 126 144 108 126 144
108 126 144 108 126 144 108 126 144 108 126 143 108 125 143 108 125
143 107 125 143 107 125 143 107 125 143 107 125 143 107 125 143 107
125 143 107 125 143 107 125 142 107 125 142 107 125 142 107 124 142
107 124 142 107 124 142 106 124 142 106 124 142 106 124 142 106 124
142 106 124 141 106 124 141 106 124 141 106 124 141 106 123 141 106
123 141 106 123 141 106 123 141 106 123 141 106 123 141 105 123 140
105 123 140 105 123 140 105 123 140 105 123 140 105 123 140 105 122
140 105 122 140 105 122 140 105 122 140 105 122 139 105 122 139 105
122 139 104 122 139 104 122 139 104 122 139 104 122 139 104 121 139
104 121 139 104 121 139 104 121 138 104 121 138 104 121 138 104 121
138 104 121 138 104 121 138 103 121 138 103 121 138 103 120 138 103
120 138 103 120 137 103 120 137 103 120 137 103 120 137 103 120 137
103 120 137 103 120 137 103 120 137 103 120 137 103 120 137 102 119
136 102 119 136 102 119 136 102 119 136 102 119 136 102 119 136 102
119 136 102 119 136 102 119 136 102 119 136 102 119 135 102 118 135
102 118 135 101 118 135 101 118 135 101 118 135 101 118 135 101 118
135 101 118 135 101 118 135 101 118 134 101 118 134 101 117 134 101
117 134 101 117 134 101 117 134 100 117 134 100 117 134 100 117 134
100 117 134 100 117 133 100 117 133 100 117 133 100 117 133 100 116
133 100 116 133 100 116 133 100 116 133 100 116 133 100 116 133 99 116
132 99 116 132 99 116 132 99 116 132 99 116 132 99 115 132 99 115 132
99 115 132 99 115 132 99 115 132 99 115 131 99 115 131 99 115 131 98
115 131 98 115 131 98 115 131 98 115 131 98 114 131 98 114 131 98 114
131 98 114 130 98 114 130 98 114 130 98 114 130 98 114 130 98 114 130
98 114 130 97 114 130 97 114 130 97 113 130 97 113 129 97 113 129 97
113 129 97 113 129 97 113 129 97 113 129 97 113 129 97 113 129 97 113
129 97 113 129 96 112 128 96 112 128 96 112 128 96 112 128 96 112 128
96 112 128 96 112 128 96 112 128 96 112 128 96 112 128 96 112 128 96
112 127 96 111 127 96 111 127 95 111 127 95 111 127 95 111 127 95 111
127 95 111 127 95 111 127 95 111 127 95 111 126 95 111 126 95 111 126
95 110 126 95 110 126 95 110 126 95 110 126 94 110 126 94 110 126 94
110 126 94 110 125 94 110 125 94 110 125 94 110 125 94 110 125 94 109
125 94 109 125 94 109 125 94 109 125 94 109 125 94 109 125 93 109 124
93 109 124 93 109 124 93 109 124 93 109 124 93 109 124 93 108 124 93
108 124 93 108 124 93 108 124 93 108 124 93 108 123 93 108 123 93 108
123 92 108 123 92 108 123 92 108 123 92 108 123 92 107 123 92 107 123
92 107 123 92 107 122 92 107 122 92 107 122 92 107 122 92 107 122 92
107 122 92 107 122 92 107 122 91 107 122 91 107 122 91 106 122 91 106
121 91 106 121 91 106 121 91 106 121 91 106 121 91 106 121 91 106 121
91 106 121 91 106 121 91 106 121 91 106 121 90 105 120 90 105 120 90
105 120 90 105 120 90 105 120 90 105 120 90 105 120 90 105 120 90 105
120 90 105 120 90 105 120
112 130 149 111 130 148 111 130 148 111 130 148 111 130 148 111 130
148 111 130 148 111 129 148 111 129 148 111 129 148 111 129 148 111
129 148 111 129 147 111 129 147 111 129 147 110 129 147 110 129 147
110 129 147 110 129 147 110 128 147 110 128 147 110 128 147 110 128
146 110 128 146 110 128 146 110 128 146 110 128 146 110 128 146 110
128 146 109 128 146 109 128 146 109 127 146 109 127 146 109 127 145
109 127 145 109 127 145 109 127 145 109 127 145 109 127 145 109 127
145 109 127 145 109 127 145 109 127 145 108 126 144 108 126 144 108
126 144 108 126 144 108 126 144 108 126 144 108 126 144 108 126 144
108 126 144 108 126 144 108 126 143 108 125 143 108 125 143 107 125
143 107 125 143 107 125 143 107 125 143 107 125 143 107 125 143 107
125 143 107 125 142 107 125 142 107 125 142 107 124 142 107 124 142
107 124 142 107 124 142 106 124 142 106 124 142 106 124 142 106 124
141 106 124 141 106 124 141 106 124 141 106 123 141 106 123 141 106
123 141 106 123 141 106 123 141 106 123 141 105 123 140 105 123 140
105 123 140 105 123 140 105 123 140 105 123 140 105 122 140 105 122
140 105 122 140 105 122 140 105 122 139 105 122 139 105 122 139 104
122 139 104 122 139 104 122 139 104 122 139 104 121 139 104 121 139
104 121 139 104 121 138 104 121 138 104 121 138 104 121 138 104 121
138 104 121 138 104 121 138 103 121 138 103 121 138 103 120 138 103
120 137 103 120 137 103 120 137 103 120 137 103 120 137 103 120 137
103 120 137 103 120 137 103 120 137 103 120 137 102 119 136 102 119
136 102 119 136 102 119 136 102 119 136 102 119 136 102 119 136 102
119 136 102 119 136 102 119 136 102 119 135 102 118 135 102 118 135
101 118 135 101 118 135 101 118 135 101 118 135 101 118 135 101 118
135 101 118 135 101 118 134 101 118 134 101 118 134 101 117 134 101
117 134 101 117 134 100 117 134 100 117 134 100 117 134 100 117 134
100 117 133 100 117 133 100 117 133 100 117 133 100 116 133 100 116
133 100 116 133 100 116 133 100 116 133 100 116 133 99 116 132 99 116
132 99 116 132 99 116 132 99 116 132 99 116 132 99 115 132 99 115 132
99 115 132 99 115 132 99 115 131 99 115 131 99 115 131 98 115 131 98
115 131 98 115 131 98 115 131 98 114 131 98 114 131 98 114 131 98 114
130 98 114 130 98 114 130 98 114 130 98 114 130 98 114 130 98 114 130
97 114 130 97 114 130 97 113 130 97 113 129 97 113 129 97 113 129 97
113 129 97 113 129 97 113 129 97 113 129 97 113 129 97 113 129 97 113
129 96 112 128 96 112 128 96 112 128 96 112 128 96 112 128 96 112 128
96 112 128 96 112 128 96 112 128 96 112 128 96 112 128 96 112 127 96
111 127 96 111 127 95 111 127 95 111 127 95 111 127 95 111 127 95 111
127 95 111 127 95 111 127 95 111 126 95 111 126 95 111 126 95 110 126
95 110 126 95 110 126 95 110 126 94 110 126 94 110 126 94 110 126 94
110 126 94 110 125 94 110 125 94 110 125 94 110 125 94 109 125 94 109
125 94 109 125 94 109 125 94 109 125 94 109 125 93 109 124 93 109 124
93 109 124 93 109 124 93 109 124 93 109 124 93 108 124 93 108 124 93
108 124 93 108 124 93 108 124 93 108 123 93 108 123 93 108 123 92 108
123 92 108 123 92 108 123 92 108 123 92 107 123 92 107 123 92 107 123
92 107 122 92 107 122 92 107 122 92 107 122 92 107 122 92 107 122 92
107 122 92 107 122 91 107 122 91 107 122 91 106 122 91 106 121 91 106
121 91 106 121 91 106 121 91 106 121 91 106 121 91 106 121 91 106 121
91 106 121 91 106 121 91 106 121 90 105 120 90 105 120 90 105 120 90
105 120 90 105 120 90 105 120 90 105 120 90 105 120 90 105 120 90 105
120 90 105 120 90 105 119
112 130 149 111 130 148 111 130 148 111 130 148 111 130 148 111 130
148 111 130 148 111 129 148 111 129 148 111 129 148 111 129 148 111
129 147 111 129 147 111 129 147 111 129 147 110 129 147 110 129 147
110 129 147 110 129 147 110 128 147 110 128 147 110 128 147 110 128
146 110 128 146 110 128 146 110 128 146 110 128 146 110 128 146 110
128 146 109 128 146 109 127 146 109 127 146 109 127 145 109 127 145
109 127 145 109 127 145 109 127 145 109 127 145 109 127 145 109 127
145 109 127 145 109 127 145 108 126 144 108 126 144 108 126 144 108
126 144 108 126 144 108 126 144 108 126 144 108 126 144 108 126 144
108 126 144 108 126 143 108 126 143 108 125 143 108 125 143 107 125
143 107 125 143 107 125 143 107 125 143 107 125 143 107 125 143 107
125 142 107 125 142 107 125 142 107 124 142 107 124 142 107 124 142
107 124 142 106 124 142 106 124 142 106 124 142 106 124 141 106 124
141 106 124 141 106 124 141 106 124 141 106 123 141 106 123 141 106
123 141 106 123 141 106 123 141 105 123 140 105 123 140 105 123 140
105 123 140 105 123 140 105 123 140 105 122 140 105 122 140 105 122
140 105 122 140 105 122 139 105 122 139 105 122 139 105 122 139 104
122 139 104 122 139 104 122 139 104 121 139 104 121 139 104 121 139
104 121 138 104 121 138 104 121 138 104 121 138 104 121 138 104 121
138 104 121 138 103 121 138 103 121 138 103 120 138 103 120 137 103
120 137 103 120 137 103 120 137 103 120 137 103 120 137 103 120 137
103 120 137 103 120 137 103 120 137 102 119 136 102 119 136 102 119
136 102 119 136 102 119 136 102 119 136 102 119 136 102 119 136 102
119 136 102 119 136 102 119 135 102 119 135 102 118 135 101 118 135
101 118 135 101 118 135 101 118 135 101 118 135 101 118 135 101 118
135 101 118 134 101 118 134 101 118 134 101 117 134 101 117 134 101
117 134 101 117 134 100 117 134 100 117 134 100 117 134 100 117 133
100 117 133 100 117 133 100 117 133 100 116 133 100 116 133 100 116
133 100 116 133 100 116 133 100 116 133 99 116 132 99 116 132 99 116
132 99 116 132 99 116 132 99 116 132 99 115 132 99 115 132 99 115 132
99 115 132 99 115 131 99 115 131 99 115 131 99 115 131 98 115 131 98
115 131 98 115 131 98 114 131 98 114 131 98 114 131 98 114 130 98 114
130 98 114 130 98 114 130 98 114 130 98 114 130 98 114 130 97 114 130
97 114 130 97 113 130 97 113 129 97 113 129 97 113 129 97 113 129 97
113 129 97 113 129 97 113 129 97 113 129 97 113 129 97 113 129 97 113
129 96 112 128 96 112 128 96 112 128 96 112 128 96 112 128 96 112 128
96 112 128 96 112 128 96 112 128 96 112 128 96 112 127 96 111 127 96
111 127 95 111 127 95 111 127 95 111 127 95 111 127 95 111 127 95 111
127 95 111 127 95 111 126 95 111 126 95 111 126 95 110 126 95 110 126
95 110 126 95 110 126 94 110 126 94 110 126 94 110 126 94 110 126 94
110 125 94 110 125 94 110 125 94 110 125 94 109 125 94 109 125 94 109
125 94 109 125 94 109 125 94 109 125 93 109 124 93 109 124 93 109 124
93 109 124 93 109 124 93 109 124 93 108 124 93 108 124 93 108 124 93
108 124 93 108 124 93 108 123 93 108 123 93 108 123 92 108 123 92 108
123 92 108 123 92 108 123 92 107 123 92 107 123 92 107 123 92 107 123
92 107 122 92 107 122 92 107 122 92 107 122 92 107 122 92 107 122 92
107 122 91 107 122 91 107 122 91 106 122 91 106 121 91 106 121 91 106
121 91 106 121 91 106 121 91 106 121 91 106 121 91 106 121 91 106 121
91 106 121 91 106 121 90 105 120 90 105 120 90 105 120 90 105 120 90
105 120 90 105 120 90 105 120 90 105 120 90 105 120 90 105 120 90 105
120 90 105 119 90 105 119
111 130 148 111 130 148 111 130 148 111 130 148 111 130 148 111 130
148 111 129 148 111 129 148 111 129 148 111 129 148 111 129 147 111
129 147 111 129 147 111 129 147 110 129 147 110 129 147 110 129 147
110 129 147 110 128 147 110 128 147 110 128 147 110 128 146 110 128
146 110 128 146 110 128 146 110 128 146 110 128 146 110 128 146 109
128 146 109 128 146 109 127 146 109 127 145 109 127 145 109 127 145
109 127 145 109 127 145 109 127 145 109 127 145 109 127 145 109 127
145 109 127 145 108 126 144 108 126 144 108 126 144 108 126 144 108
126 144 108 126 144 108 126 144 108 126 144 108 126 144 108 126 144
108 126 144 108 126 143 108 125 143 108 125 143 107 125 143 107 125
143 107 125 143 107 125 143 107 125 143 107 125 143 107 125 143 107
125 142 107 125 142 107 125 142 107 124 142 107 124 142 107 124 142
106 124 142 106 124 142 106 124 142 106 124 142 106 124 141 106 124
141 106 124 141 106 124 141 106 123 141 106 123 141 106 123 141 106
123 141 106 123 141 106 123 141 105 123 140 105 123 140 105 123 140
105 123 140 105 123 140 105 122 140 105 122 140 105 122 140 105 122
140 105 122 140 105 122 139 105 122 139 105 122 139 104 122 139 104
122 139 104 122 139 104 122 139 104 121 139 104 121 139 104 121 139
104 121 138 104 121 138 104 121 138 104 121 138 104 121 138 104 121
138 103 121 138 103 121 138 103 120 138 103 120 138 103 120 137 103
120 137 103 120 137 103 120 137 103 120 137 103 120 137 103 120 137
103 120 137 103 120 137 102 119 136 102 119 136 102 119 136 102 119
136 102 119 136 102 119 136 102 119 136 102 119 136 102 119 136 102
119 136 102 119 135 102 119 135 102 118 135 102 118 135 101 118 135
101 118 135 101 118 135 101 118 135 101 118 135 101 118 135 101 118
134 101 118 134 101 118 134 101 117 134 101 117 134 101 117 134 101
117 134 100 117 134 100 117 134 100 117 134 100 117 133 100 117 133
100 117 133 100 117 133 100 117 133 100 116 133 100 116 133 100 116
133 100 116 133 100 116 133 99 116 132 99 116 132 99 116 132 99 116
132 99 116 132 99 116 132 99 115 132 99 115 132 99 115 132 99 115 132
99 115 131 99 115 131 99 115 131 99 115 131 98 115 131 98 115 131 98
115 131 98 115 131 98 114 131 98 114 131 98 114 130 98 114 130 98 114
130 98 114 130 98 114 130 98 114 130 98 114 130 97 114 130 97 114 130
97 113 130 97 113 130 97 113 129 97 113 129 97 113 129 97 113 129 97
113 129 97 113 129 97 113 129 97 113 129 97 113 129 97 113 129 96 112
128 96 112 128 96 112 128 96 112 128 96 112 128 96 112 128 96 112 128
96 112 128 96 112 128 96 112 128 96 112 127 96 112 127 96 111 127 96
111 127 95 111 127 95 111 127 95 111 127 95 111 127 95 111 127 95 111
127 95 111 126 95 111 126 95 111 126 95 110 126 95 110 126 95 110 126
95 110 126 94 110 126 94 110 126 94 110 126 94 110 126 94 110 125 94
110 125 94 110 125 94 110 125 94 109 125 94 109 125 94 109 125 94 109
125 94 109 125 94 109 125 93 109 124 93 109 124 93 109 124 93 109 124
93 109 124 93 109 124 93 108 124 93 108 124 93 108 124 93 108 124 93
108 124 93 108 123 93 108 123 93 108 123 93 108 123 92 108 123 92 108
123 92 108 123 92 108 123 92 107 123 92 107 123 92 107 123 92 107 122
92 107 122 92 107 122 92 107 122 92 107 122 92 107 122 92 107 122 91
107 122 91 107 122 91 106 122 91 106 121 91 106 121 91 106 121 91 106
121 91 106 121 91 106 121 91 106 121 91 106 121 91 106 121 91 106 121
91 106 121 90 105 120 90 105 120 90 105 120 90 105 120 90 105 120 90
105 120 90 105 120 90 105 120 90 105 120 90 105 120 90 105 120 90 105
119 90 105 119 90 104 119
111 130 148 111 130 148 111 130 148 111 130 148 111 130 148 111 129
148 111 129 148 111 129 148 111 129 148 111 129 148 111 129 147 111
129 147 111 129 147 110 129 147 110 129 147 110 129 147 110 129 147
110 128 147 110 128 147 110 128 147 110 128 146 110 128 146 110 128
146 110 128 146 110 128 146 110 128 146 110 128 146 109 128 146 109
128 146 109 127 146 109 127 146 109 127 145 109 127 145 109 127 145
109 127 145 109 127 145 109 127 145 109 127 145 109 127 145 109 127
145 109 127 145 108 126 144 108 126 144 108 126 144 108 126 144 108
126 144 108 126 144 108 126 144 108 126 144 108 126 144 108 126 144
108 126 143 108 125 143 108 125 143 107 125 143 107 125 143 107 125
143 107 125 143 107 125 143 107 125 143 107 125 143 107 125 142 107
125 142 107 125 142 107 124 142 107 124 142 107 124 142 107 124 142
106 124 142 106 124 142 106 124 142 106 124 141 106 124 141 106 124
141 106 124 141 106 123 141 106 123 141 106 123 141 106 123 141 106
123 141 106 123 141 105 123 140 105 123 140 105 123 140 105 123 140
105 123 140 105 123 140 105 122 140 105 122 140 105 122 140 105 122
140 105 122 139 105 122 139 105 122 139 104 122 139 104 122 139 104
122 139 104 122 139 104 121 139 104 121 139 104 121 139 104 121 138
104 121 138 104 121 138 104 121 138 104 121 138 104 121 138 103 121
138 103 121 138 103 120 138 103 120 138 103 120 137 103 120 137 103
120 137 103 120 137 103 120 137 103 120 137 103 120 137 103 120 137
103 120 137 103 120 137 102 119 136 102 119 136 102 119 136 102 119
136 102 119 136 102 119 136 102 119 136 102 119 136 102 119 136 102
119 136 102 119 135 102 118 135 102 118 135 101 118 135 101 118 135
101 118 135 101 118 135 101 118 135 101 118 135 101 118 135 101 118
134 101 118 134 101 117 134 101 117 134 101 117 134 101 117 134 100
117 134 100 117 134 100 117 134 100 117 134 100 117 133 100 117 133
100 117 133 100 117 133 100 116 133 100 116 133 100 116 133 100 116
133 100 116 133 100 116 133 99 116 132 99 116 132 99 116 132 99 116
132 99 116 132 99 115 132 99 115 132 99 115 132 99 115 132 99 115 132
99 115 131 99 115 131 99 115 131 98 115 131 98 115 131 98 115 131 98
115 131 98 114 131 98 114 131 98 114 131 98 114 130 98 114 130 98 114
130 98 114 130 98 114 130 98 114 130 97 114 130 97 114 130 97 113 130
97 113 130 97 113 129 97 113 129 97 113 129 97 113 129 97 113 129 97
113 129 97 113 129 97 113 129 97 113 129 97 113 129 96 112 128 96 112
128 96 112 128 96 112 128 96 112 128 96 112 128 96 112 128 96 112 128
96 112 128 96 112 128 96 112 127 96 112 127 96 111 127 96 111 127 95
111 127 95 111 127 95 111 127 95 111 127 95 111 127 95 111 127 95 111
127 95 111 126 95 111 126 95 111 126 95 110 126 95 110 126 95 110 126
95 110 126 94 110 126 94 110 126 94 110 126 94 110 125 94 110 125 94
110 125 94 110 125 94 109 125 94 109 125 94 109 125 94 109 125 94 109
125 94 109 125 93 109 124 93 109 124 93 109 124 93 109 124 93 109 124
93 109 124 93 109 124 93 108 124 93 108 124 93 108 124 93 108 124 93
108 123 93 108 123 93 108 123 93 108 123 92 108 123 92 108 123 92 108
123 92 108 123 92 107 123 92 107 123 92 107 123 92 107 122 92 107 122
92 107 122 92 107 122 92 107 122 92 107 122 92 107 122 91 107 122 91
107 122 91 106 122 91 106 122 91 106 121 91 106 121 91 106 121 91 106
121 91 106 121 91 106 121 91 106 121 91 106 121 91 106 121 91 106 121
90 105 120 90 105 120 90 105 120 90 105 120 90 105 120 90 105 120 90
105 120 90 105 120 90 105 120 90 105 120 90 105 120 90 105 119 90 105
119 90 104 119 90 104 119
111 130 148 111 130 148 111 130 148 111 130 148 111 129 148 111 129
148 111 129 148 111 129 148 111 129 148 111 129 147 111 129 147 111
129 147 110 129 147 110 129 147 110 129 147 110 129 147 110 128 147
110 128 147 110 128 147 110 128 146 110 128 146 110 128 146 110 128
146 110 128 146 110 128 146 110 128 146 109 128 146 109 128 146 109
127 146 109 127 146 109 127 145 109 127 145 109 127 145 109 127 145
109 127 145 109 127 145 109 127 145 109 127 145 109 127 145 109 127
145 108 126 144 108 126 144 108 126 144 108 126 144 108 126 144 108
126 144 108 126 144 108 126 144 108 126 144 108 126 144 108 126 143
108 126 143 108 125 143 108 125 143 107 125 143 107 125 143 107 125
143 107 125 143 107 125 143 107 125 143 107 125 142 107 125 142 107
125 142 107 124 142 107 124 142 107 124 142 107 124 142 106 124 142
106 124 142 106 124 142 106 124 141 106 124 141 106 124 141 106 124
141 106 124 141 106 123 141 106 123 141 106 123 141 106 123 141 106
123 141 105 123 140 105 123 140 105 123 140 105 123 140 105 123 140
105 123 140 105 122 140 105 122 140 105 122 140 105 122 140 105 122
139 105 122 139 105 122 139 105 122 139 104 122 139 104 122 139 104
122 139 104 121 139 104 121 139 104 121 139 104 121 138 104 121 138
104 121 138 104 121 138 104 121 138 104 121 138 104 121 138 103 121
138 103 121 138 103 120 138 103 120 137 103 120 137 103 120 137 103
120 137 103 120 137 103 120 137 103 120 137 103 120 137 103 120 137
103 120 137 102 119 136 102 119 136 102 119 136 102 119 136 102 119
136 102 119 136 102 119 136 102 119 136 102 119 136 102 119 136 102
119 135 102 118 135 102 118 135 101 118 135 101 118 135 101 118 135
101 118 135 101 118 135 101 118 135 101 118 135 101 118 134 101 118
134 101 118 134 101 117 134 101 117 134 101 117 134 100 117 134 100
117 134 100 117 134 100 117 134 100 117 133 100 117 133 100 117 133
100 117 133 100 116 133 100 116 133 100 116 133 100 116 133 100 116
133 100 116 133 99 116 132 99 116 132 99 116 132 99 116 132 99 116 132
99 116 132 99 115 132 99 115 132 99 115 132 99 115 132 99 115 131 99
115 131 99 115 131 98 115 131 98 115 131 98 115 131 98 115 131 98 114
131 98 114 131 98 114 131 98 114 130 98 114 130 98 114 130 98 114 130
98 114 130 98 114 130 98 114 130 97 114 130 97 114 130 97 113 130 97
113 129 97 113 129 97 113 129 97 113 129 97 113 129 97 113 129 97 113
129 97 113 129 97 113 129 97 113 129 96 112 128 96 112 128 96 112 128
96 112 128 96 112 128 96 112 128 96 112 128 96 112 128 96 112 128 96
112 128 96 112 127 96 112 127 96 111 127 96 111 127 95 111 127 95 111
127 95 111 127 95 111 127 95 111 127 95 111 127 95 111 127 95 111 126
95 111 126 95 111 126 95 110 126 95 110 126 95 110 126 95 110 126 94
110 126 94 110 126 94 110 126 94 110 125 94 110 125 94 110 125 94 110
125 94 110 125 94 109 125 94 109 125 94 109 125 94 109 125 94 109 125
94 109 125 93 109 124 93 109 124 93 109 124 93 109 124 93 109 124 93
109 124 93 108 124 93 108 124 93 108 124 93 108 124 93 108 123 93 108
123 93 108 123 93 108 123 92 108 123 92 108 123 92 108 123 92 108 123
92 107 123 92 107 123 92 107 123 92 107 122 92 107 122 92 107 122 92
107 122 92 107 122 92 107 122 92 107 122 91 107 122 91 107 122 91 106
122 91 106 122 91 106 121 91 106 121 91 106 121 91 106 121 91 106 121
91 106 121 91 106 121 91 106 121 91 106 121 91 106 121 90 105 120 90
105 120 90 105 120 90 105 120 90 105 120 90 105 120 90 105 120 90 105
120 90 105 120 90 105 120 90 105 120 90 105 119 90 105 119 90 104 119
90 104 119 89 104 119
111 130 148 111 130 148 111 130 148 111 130 148 111 129 148 111 129
148 111 129 148 111 129 148 111 129 147 111 129 147 111 129 147 111
129 147 110 129 147 110 129 147 110 129 147 110 129 147 110 128 147
110 128 147 110 128 147 110 128 146 110 128 146 110 128 146 110 128
146 110 128 146 110 128 146 110 128 146 109 128 146 109 128 146 109
127 146 109 127 145 109 127 145 109 127 145 109 127 145 109 127 145
109 127 145 109 127 145 109 127 145 109 127 145 109 127 145 108 126
144 108 126 144 108 126 144 108 126 144 108 126 144 108 126 144 108
126 144 108 126 144 108 126 144 108 126 144 108 126 143 108 126 143
108 125 143 108 125 143 107 125 143 107 125 143 107 125 143 107 125
143 107 125 143 107 125 143 107 125 143 107 125 142 107 125 142 107
124 142 107 124 142 107 124 142 107 124 142 106 124 142 106 124 142
106 124 142 106 124 142 106 124 141 106 124 141 106 124 141 106 124
141 106 123 141 106 123 141 106 123 141 106 123 141 106 123 141 106
123 141 105 123 140 105 123 140 105 123 140 105 123 140 105 123 140
105 122 140 105 122 140 105 122 140 105 122 140 105 122 139 105 122
139 105 122 139 105 122 139 104 122 139 104 122 139 104 122 139 104
122 139 104 121 139 104 121 139 104 121 138 104 121 138 104 121 138
104 121 138 104 121 138 104 121 138 104 121 138 103 121 138 103 121
138 103 120 138 103 120 137 103 120 137 103 120 137 103 120 137 103
120 137 103 120 137 103 120 137 103 120 137 103 120 137 103 120 137
102 119 136 102 119 136 102 119 136 102 119 136 102 119 136 102 119
136 102 119 136 102 119 136 102 119 136 102 119 136 102 119 135 102
119 135 102 118 135 101 118 135 101 118 135 101 118 135 101 118 135
101 118 135 101 118 135 101 118 135 101 118 134 101 118 134 101 118
134 101 117 134 101 117 134 101 117 134 101 117 134 100 117 134 100
117 134 100 117 134 100 117 133 100 117 133 100 117 133 100 117 133
100 116 133 100 116 133 100 116 133 100 116 133 100 116 133 100 116
133 99 116 132 99 116 132 99 116 132 99 116 132 99 116 132 99 116 132
99 115 132 99 115 132 99 115 132 99 115 132 99 115 131 99 115 131 99
115 131 98 115 131 98 115 131 98 115 131 98 115 131 98 114 131 98 114
131 98 114 131 98 114 130 98 114 130 98 114 130 98 114 130 98 114 130
98 114 130 98 114 130 97 114 130 97 114 130 97 113 130 97 113 129 97
113 129 97 113 129 97 113 129 97 113 129 97 113 129 97 113 129 97 113
129 97 113 129 97 113 129 96 112 128 96 112 128 96 112 128 96 112 128
96 112 128 96 112 128 96 112 128 96 112 128 96 112 128 96 112 128 96
112 128 96 112 127 96 111 127 96 111 127 95 111 127 95 111 127 95 111
127 95 111 127 95 111 127 95 111 127 95 111 127 95 111 126 95 111 126
95 111 126 95 110 126 95 110 126 95 110 126 95 110 126 94 110 126 94
110 126 94 110 126 94 110 125 94 110 125 94 110 125 94 110 125 94 110
125 94 109 125 94 109 125 94 109 125 94 109 125 94 109 125 94 109 125
93 109 124 93 109 124 93 109 124 93 109 124 93 109 124 93 109 124 93
108 124 93 108 124 93 108 124 93 108 124 93 108 123 93 108 123 93 108
123 93 108 123 92 108 123 92 108 123 92 108 123 92 108 123 92 107 123
92 107 123 92 107 123 92 107 122 92 107 122 92 107 122 92 107 122 92
107 122 92 107 122 92 107 122 91 107 122 91 107 122 91 106 122 91 106
122 91 106 121 91 106 121 91 106 121 91 106 121 91 106 121 91 106 121
91 106 121 91 106 121 91 106 121 91 106 121 91 106 121 90 105 120 90
105 120 90 105 120 90 105 120 90 105 120 90 105 120 90 105 120 90 105
120 90 105 120 90 105 120 90 105 120 90 105 119 90 104 119 90 104 119
89 104 119 89 104 119
111 130 148 111 130 148 111 130 148 111 129 148 111 129 148 111 129
148 111 129 148 111 129 147 111 129 147 111 129 147 111 129 147 110
129 147 110 129 147 110 129 147 110 129 147 110 128 147 110 128 147
110 128 147 110 128 146 110 128 146 110 128 146 110 128 146 110 128
146 110 128 146 110 128 146 109 128 146 109 128 146 109 127 146 109
127 145 109 127 145 109 127 145 109 127 145 109 127 145 109 127 145
109 127 145 109 127 145 109 127 145 109 127 145 109 127 145 108 126
144 108 126 144 108 126 144 108 126 144 108 126 144 108 126 144 108
126 144 108 126 144 108 126 144 108 126 144 108 126 143 108 125 143
108 125 143 107 125 143 107 125 143 107 125 143 107 125 143 107 125
143 107 125 143 107 125 143 107 125 142 107 125 142 107 125 142 107
124 142 107 124 142 107 124 142 106 124 142 106 124 142 106 124 142
106 124 142 106 124 141 106 124 141 106 124 141 106 124 141 106 123
141 106 123 141 106 123 141 106 123 141 106 123 141 106 123 141 105
123 140 105 123 140 105 123 140 105 123 140 105 123 140 105 122 140
105 122 140 105 122 140 105 122 140 105 122 140 105 122 139 105 122
139 105 122 139 104 122 139 104 122 139 104 122 139 104 122 139 104
121 139 104 121 139 104 121 139 104 121 138 104 121 138 104 121 138
104 121 138 104 121 138 104 121 138 103 121 138 103 121 138 103 120
138 103 120 138 103 120 137 103 120 137 103 120 137 103 120 137 103
120 137 103 120 137 103 120 137 103 120 137 103 120 137 103 120 137
102 119 136 102 119 136 102 119 136 102 119 136 102 119 136 102 119
136 102 119 136 102 119 136 102 119 136 102 119 135 102 119 135 102
118 135 102 118 135 101 118 135 101 118 135 101 118 135 101 118 135
101 118 135 101 118 135 101 118 134 101 118 134 101 118 134 101 117
134 101 117 134 101 117 134 101 117 134 100 117 134 100 117 134 100
117 134 100 117 133 100 117 133 100 117 133 100 117 133 100 117 133
100 116 133 100 116 133 100 116 133 100 116 133 100 116 133 99 116 132
99 116 132 99 116 132 99 116 132 99 116 132 99 116 132 99 115 132 99
115 132 99 115 132 99 115 132 99 115 131 99 115 131 99 115 131 99 115
131 98 115 131 98 115 131 98 115 131 98 114 131 98 114 131 98 114 131
98 114 130 98 114 130 98 114 130 98 114 130 98 114 130 98 114 130 98
114 130 97 114 130 97 114 130 97 113 130 97 113 129 97 113 129 97 113
129 97 113 129 97 113 129 97 113 129 97 113 129 97 113 129 97 113 129
97 113 129 97 113 129 96 112 128 96 112 128 96 112 128 96 112 128 96
112 128 96 112 128 96 112 128 96 112 128 96 112 128 96 112 128 96 112
127 96 111 127 96 111 127 95 111 127 95 111 127 95 111 127 95 111 127
95 111 127 95 111 127 95 111 127 95 111 126 95 111 126 95 111 126 95
110 126 95 110 126 95 110 126 95 110 126 94 110 126 94 110 126 94 110
126 94 110 125 94 110 125 94 110 125 94 110 125 94 110 125 94 109 125
94 109 125 94 109 125 94 109 125 94 109 125 94 109 125 93 109 124 93
109 124 93 109 124 93 109 124 93 109 124 93 109 124 93 108 124 93 108
124 93 108 124 93 108 124 93 108 123 93 108 123 93 108 123 93 108 123
92 108 123 92 108 123 92 108 123 92 108 123 92 107 123 92 107 123 92
107 123 92 107 122 92 107 122 92 107 122 92 107 122 92 107 122 92 107
122 92 107 122 91 107 122 91 107 122 91 106 122 91 106 122 91 106 121
91 106 121 91 106 121 91 106 121 91 106 121 91 106 121 91 106 121 91
106 121 91 106 121 91 106 121 91 106 121 90 105 120 90 105 120 90 105
120 90 105 120 90 105 120 90 105 120 90 105 120 90 105 120 90 105 120
90 105 120 90 105 120 90 105 119 90 104 119 90 104 119 89 104 119 89
104 119 89 104 119
111 130 148 111 130 148 111 129 148 111 129 148 111 129 148 111 129
148 111 129 148 111 129 147 111 129 147 111 129 147 110 129 147 110
129 147 110 129 147 110 129 147 110 128 147 110 128 147 110 128 147
110 128 146 110 128 146 110 128 146 110 128 146 110 128 146 110 128
146 110 128 146 109 128 146 109 128 146 109 127 146 109 127 146 109
127 145 109 127 145 109 127 145 109 127 145 109 127 145 109 127 145
109 127 145 109 127 145 109 127 145 109 127 145 108 126 144 108 126
144 108 126 144 108 126 144 108 126 144 108 126 144 108 126 144 108
126 144 108 126 144 108 126 144 108 126 143 108 125 143 108 125 143
107 125 143 107 125 143 107 125 143 107 125 143 107 125 143 107 125
143 107 125 143 107 125 142 107 125 142 107 125 142 107 124 142 107
124 142 107 124 142 107 124 142 106 124 142 106 124 142 106 124 142
106 124 141 106 124 141 106 124 141 106 124 141 106 123 141 106 123
141 106 123 141 106 123 141 106 123 141 106 123 141 105 123 140 105
123 140 105 123 140 105 123 140 105 123 140 105 123 140 105 122 140
105 122 140 105 122 140 105 122 140 105 122 139 105 122 139 105 122
139 104 122 139 104 122 139 104 122 139 104 122 139 104 121 139 104
121 139 104 121 139 104 121 138 104 121 138 104 121 138 104 121 138
104 121 138 104 121 138 104 121 138 103 121 138 103 120 138 103 120
138 103 120 137 103 120 137 103 120 137 103 120 137 103 120 137 103
120 137 103 120 137 103 120 137 103 120 137 103 120 137 102 119 136
102 119 136 102 119 136 102 119 136 102 119 136 102 119 136 102 119
136 102 119 136 102 119 136 102 119 136 102 119 135 102 118 135 102
118 135 101 118 135 101 118 135 101 118 135 101 118 135 101 118 135
101 118 135 101 118 135 101 118 134 101 118 134 101 117 134 101 117
134 101 117 134 101 117 134 100 117 134 100 117 134 100 117 134 100
117 134 100 117 133 100 117 133 100 117 133 100 117 133 100 116 133
100 116 133 100 116 133 100 116 133 100 116 133 99 116 132 99 116 132
99 116 132 99 116 132 99 116 132 99 116 132 99 115 132 99 115 132 99
115 132 99 115 132 99 115 131 99 115 131 99 115 131 99 115 131 98 115
131 98 115 131 98 115 131 98 115 131 98 114 131 98 114 131 98 114 131
98 114 130 98 114 130 98 114 130 98 114 130 98 114 130 98 114 130 97
114 130 97 114 130 97 113 130 97 113 130 97 113 129 97 113 129 97 113
129 97 113 129 97 113 129 97 113 129 97 113 129 97 113 129 97 113 129
97 113 129 96 112 128 96 112 128 96 112 128 96 112 128 96 112 128 96
112 128 96 112 128 96 112 128 96 112 128 96 112 128 96 112 127 96 111
127 96 111 127 95 111 127 95 111 127 95 111 127 95 111 127 95 111 127
95 111 127 95 111 127 95 111 126 95 111 126 95 111 126 95 110 126 95
110 126 95 110 126 95 110 126 94 110 126 94 110 126 94 110 126 94 110
126 94 110 125 94 110 125 94 110 125 94 110 125 94 109 125 94 109 125
94 109 125 94 109 125 94 109 125 94 109 125 93 109 124 93 109 124 93
109 124 93 109 124 93 109 124 93 109 124 93 108 124 93 108 124 93 108
124 93 108 124 93 108 124 93 108 123 93 108 123 93 108 123 92 108 123
92 108 123 92 108 123 92 108 123 92 107 123 92 107 123 92 107 123 92
107 122 92 107 122 92 107 122 92 107 122 92 107 122 92 107 122 92 107
122 91 107 122 91 107 122 91 106 122 91 106 122 91 106 121 91 106 121
91 106 121 91 106 121 91 106 121 91 106 121 91 106 121 91 106 121 91
106 121 91 106 121 91 106 121 90 105 120 90 105 120 90 105 120 90 105
120 90 105 120 90 105 120 90 105 120 90 105 120 90 105 120 90 105 120
90 105 120 90 105 119 90 104 119 90 104 119 89 104 119 89 104 119 89
104 119 89 104 119
111 130 148 111 129 148 111 129 148 111 129 148 111 129 148 111 129
148 111 129 147 111 129 147 111 129 147 110 129 147 110 129 147 110
129 147 110 129 147 110 128 147 110 128 147 110 128 147 110 128 146
110 128 146 110 128 146 110 128 146 110 128 146 110 128 146 110 128
146 109 128 146 109 128 146 109 127 146 109 127 146 109 127 145 109
127 145 109 127 145 109 127 145 109 127 145 109 127 145 109 127 145
109 127 145 109 127 145 109 127 145 108 126 144 108 126 144 108 126
144 108 126 144 108 126 144 108 126 144 108 126 144 108 126 144 108
126 144 108 126 144 108 126 143 108 126 143 108 125 143 108 125 143
107 125 143 107 125 143 107 125 143 107 125 143 107 125 143 107 125
143 107 125 142 107 125 142 107 125 142 107 124 142 107 124 142 107
124 142 107 124 142 106 124 142 106 124 142 106 124 142 106 124 141
106 124 141 106 124 141 106 124 141 106 124 141 106 123 141 106 123
141 106 123 141 106 123 141 106 123 141 105 123 140 105 123 140 105
123 140 105 123 140 105 123 140 105 123 140 105 122 140 105 122 140
105 122 140 105 122 140 105 122 139 105 122 139 105 122 139 105 122
139 104 122 139 104 122 139 104 122 139 104 121 139 104 121 139 104
121 139 104 121 138 104 121 138 104 121 138 104 121 138 104 121 138
104 121 138 104 121 138 103 121 138 103 121 138 103 120 138 103 120
137 103 120 137 103 120 137 103 120 137 103 120 137 103 120 137 103
120 137 103 120 137 103 120 137 103 120 137 102 119 136 102 119 136
102 119 136 102 119 136 102 119 136 102 119 136 102 119 136 102 119
136 102 119 136 102 119 136 102 119 135 102 118 135 102 118 135 101
118 135 101 118 135 101 118 135 101 118 135 101 118 135 101 118 135
101 118 135 101 118 134 101 118 134 101 118 134 101 117 134 101 117
134 101 117 134 100 117 134 100 117 134 100 117 134 100 117 134 100
117 133 100 117 133 100 117 133 100 117 133 100 116 133 100 116 133
100 116 133 100 116 133 100 116 133 100 116 133 99 116 132 99 116 132
99 116 132 99 116 132 99 116 132 99 115 132 99 115 132 99 115 132 99
115 132 99 115 132 99 115 131 99 115 131 99 115 131 98 115 131 98 115
131 98 115 131 98 115 131 98 114 131 98 114 131 98 114 131 98 114 130
98 114 130 98 114 130 98 114 130 98 114 130 98 114 130 97 114 130 97
114 130 97 113 130 97 113 130 97 113 129 97 113 129 97 113 129 97 113
129 97 113 129 97 113 129 97 113 129 97 113 129 97 113 129 97 113 129
96 112 128 96 112 128 96 112 128 96 112 128 96 112 128 96 112 128 96
112 128 96 112 128 96 112 128 96 112 128 96 112 127 96 112 127 96 111
127 96 111 127 95 111 127 95 111 127 95 111 127 95 111 127 95 111 127
95 111 127 95 111 126 95 111 126 95 111 126 95 110 126 95 110 126 95
110 126 95 110 126 94 110 126 94 110 126 94 110 126 94 110 126 94 110
125 94 110 125 94 110 125 94 110 125 94 109 125 94 109 125 94 109 125
94 109 125 94 109 125 94 109 125 93 109 124 93 109 124 93 109 124 93
109 124 93 109 124 93 109 124 93 108 124 93 108 124 93 108 124 93 108
124 93 108 124 93 108 123 93 108 123 93 108 123 92 108 123 92 108 123
92 108 123 92 108 123 92 107 123 92 107 123 92 107 123 92 107 122 92
107 122 92 107 122 92 107 122 92 107 122 92 107 122 92 107 122 91 107
122 91 107 122 91 106 122 91 106 122 91 106 121 91 106 121 91 106 121
91 106 121 91 106 121 91 106 121 91 106 121 91 106 121 91 106 121 91
106 121 91 106 121 90 105 120 90 105 120 90 105 120 90 105 120 90 105
120 90 105 120 90 105 120 90 105 120 90 105 120 90 105 120 90 105 120
90 105 119 90 104 119 90 104 119 89 104 119 89 104 119 89 104 119 89
104 119 89 104 119
111 129 148 111 129 148 111 129 148 111 129 148 111 129 148 111 129
147 111 129 147 111 129 147 111 129 147 110 129 147 110 129 147 110
129 147 110 129 147 110 128 147 110 128 147 110 128 147 110 128 146
110 128 146 110 128 146 110 128 146 110 128 146 110 128 146 110 128
146 109 128 146 109 128 146 109 127 146 109 127 145 109 127 145 109
127 145 109 127 145 109 127 145 109 127 145 109 127 145 109 127 145
109 127 145 109 127 145 108 126 144 108 126 144 108 126 144 108 126
144 108 126 144 108 126 144 108 126 144 108 126 144 108 126 144 108
126 144 108 126 143 108 126 143 108 125 143 108 125 143 107 125 143
107 125 143 107 125 143 107 125 143 107 125 143 107 125 143 107 125
143 107 125 142 107 125 142 107 124 142 107 124 142 107 124 142 107
124 142 106 124 142 106 124 142 106 124 142 106 124 142 106 124 141
106 124 141 106 124 141 106 124 141 106 123 141 106 123 141 106 123
141 106 123 141 106 123 141 106 123 141 105 123 140 105 123 140 105
123 140 105 123 140 105 123 140 105 122 140 105 122 140 105 122 140
105 122 140 105 122 140 105 122 139 105 122 139 105 122 139 104 122
139 104 122 139 104 122 139 104 122 139 104 121 139 104 121 139 104
121 138 104 121 138 104 121 138 104 121 138 104 121 138 104 121 138
104 121 138 103 121 138 103 121 138 103 120 138 103 120 137 103 120
137 103 120 137 103 120 137 103 120 137 103 120 137 103 120 137 103
120 137 103 120 137 103 120 137 102 119 136 102 119 136 102 119 136
102 119 136 102 119 136 102 119 136 102 119 136 102 119 136 102 119
136 102 119 136 102 119 135 102 119 135 102 118 135 101 118 135 101
118 135 101 118 135 101 118 135 101 118 135 101 118 135 101 118 135
101 118 134 101 118 134 101 118 134 101 117 134 101 117 134 101 117
134 101 117 134 100 117 134 100 117 134 100 117 134 100 117 133 100
117 133 100 117 133 100 117 133 100 116 133 100 116 133 100 116 133
100 116 133 100 116 133 100 116 133 99 116 132 99 116 132 99 116 132
99 116 132 99 116 132 99 116 132 99 115 132 99 115 132 99 115 132 99
115 132 99 115 131 99 115 131 99 115 131 98 115 131 98 115 131 98 115
131 98 115 131 98 114 131 98 114 131 98 114 131 98 114 130 98 114 130
98 114 130 98 114 130 98 114 130 98 114 130 98 114 130 97 114 130 97
114 130 97 113 130 97 113 129 97 113 129 97 113 129 97 113 129 97 113
129 97 113 129 97 113 129 97 113 129 97 113 129 97 113 129 96 112 128
96 112 128 96 112 128 96 112 128 96 112 128 96 112 128 96 112 128 96
112 128 96 112 128 96 112 128 96 112 127 96 112 127 96 111 127 96 111
127 95 111 127 95 111 127 95 111 127 95 111 127 95 111 127 95 111 127
95 111 127 95 111 126 95 111 126 95 110 126 95 110 126 95 110 126 95
110 126 94 110 126 94 110 126 94 110 126 94 110 126 94 110 125 94 110
125 94 110 125 94 110 125 94 109 125 94 109 125 94 109 125 94 109 125
94 109 125 94 109 125 93 109 124 93 109 124 93 109 124 93 109 124 93
109 124 93 109 124 93 108 124 93 108 124 93 108 124 93 108 124 93 108
124 93 108 123 93 108 123 93 108 123 92 108 123 92 108 123 92 108 123
92 108 123 92 107 123 92 107 123 92 107 123 92 107 122 92 107 122 92
107 122 92 107 122 92 107 122 92 107 122 92 107 122 91 107 122 91 107
122 91 106 122 91 106 122 91 106 121 91 106 121 91 106 121 91 106 121
91 106 121 91 106 121 91 106 121 91 106 121 91 106 121 91 106 121 91
106 121 90 105 120 90 105 120 90 105 120 90 105 120 90 105 120 90 105
120 90 105 120 90 105 120 90 105 120 90 105 120 90 105 120 90 105 119
90 104 119 90 104 119 89 104 119 89 104 119 89 104 119 89 104 119 89
104 119 89 104 119
111 129 148 111 129 148 111 129 148 111 129 148 111 129 147 111 129
147 111 129 147 111 129 147 110 129 147 110 129 147 110 129 147 110
129 147 110 128 147 110 128 147 110 128 147 110 128 146 110 128 146
110 128 146 110 128 146 110 128 146 110 128 146 110 128 146 109 128
146 109 128 146 109 127 146 109 127 145 109 127 145 109 127 145 109
127 145 109 127 145 109 127 145 109 127 145 109 127 145 109 127 145
109 127 145 109 127 145 108 126 144 108 126 144 108 126 144 108 126
144 108 126 144 108 126 144 108 126 144 108 126 144 108 126 144 108
126 144 108 126 143 108 125 143 108 125 143 107 125 143 107 125 143
107 125 143 107 125 143 107 125 143 107 125 143 107 125 143 107 125
142 107 125 142 107 125 142 107 124 142 107 124 142 107 124 142 107
124 142 106 124 142 106 124 142 106 124 142 106 124 141 106 124 141
106 124 141 106 124 141 106 123 141 106 123 141 106 123 141 106 123
141 106 123 141 106 123 141 105 123 140 105 123 140 105 123 140 105
123 140 105 123 140 105 123 140 105 122 140 105 122 140 105 122 140
105 122 140 105 122 139 105 122 139 105 122 139 104 122 139 104 122
139 104 122 139 104 122 139 104 121 139 104 121 139 104 121 139 104
121 138 104 121 138 104 121 138 104 121 138 104 121 138 104 121 138
103 121 138 103 121 138 103 120 138 103 120 138 103 120 137 103 120
137 103 120 137 103 120 137 103 120 137 103 120 137 103 120 137 103
120 137 103 120 137 102 119 136 102 119 136 102 119 136 102 119 136
102 119 136 102 119 136 102 119 136 102 119 136 102 119 136 102 119
136 102 119 135 102 119 135 102 118 135 102 118 135 101 118 135 101
118 135 101 118 135 101 118 135 101 118 135 101 118 135 101 118 134
101 118 134 101 118 134 101 117 134 101 117 134 101 117 134 101 117
134 100 117 134 100 117 134 100 117 134 100 117 133 100 117 133 100
117 133 100 117 133 100 116 133 100 116 133 100 116 133 100 116 133
100 116 133 100 116 133 99 116 132 99 116 132 99 116 132 99 116 132 99
116 132 99 116 132 99 115 132 99 115 132 99 115 132 99 115 132 99 115
131 99 115 131 99 115 131 98 115 131 98 115 131 98 115 131 98 115 131
98 114 131 98 114 131 98 114 131 98 114 130 98 114 130 98 114 130 98
114 130 98 114 130 98 114 130 98 114 130 97 114 130 97 114 130 97 113
130 97 113 129 97 113 129 97 113 129 97 113 129 97 113 129 97 113 129
97 113 129 97 113 129 97 113 129 97 113 129 96 112 128 96 112 128 96
112 128 96 112 128 96 112 128 96 112 128 96 112 128 96 112 128 96 112
128 96 112 128 96 112 127 96 112 127 96 111 127 96 111 127 95 111 127
95 111 127 95 111 127 95 111 127 95 111 127 95 111 127 95 111 127 95
111 126 95 111 126 95 111 126 95 110 126 95 110 126 95 110 126 95 110
126 94 110 126 94 110 126 94 110 126 94 110 125 94 110 125 94 110 125
94 110 125 94 109 125 94 109 125 94 109 125 94 109 125 94 109 125 94
109 125 93 109 124 93 109 124 93 109 124 93 109 124 93 109 124 93 109
124 93 108 124 93 108 124 93 108 124 93 108 124 93 108 124 93 108 123
93 108 123 93 108 123 92 108 123 92 108 123 92 108 123 92 108 123 92
107 123 92 107 123 92 107 123 92 107 122 92 107 122 92 107 122 92 107
122 92 107 122 92 107 122 92 107 122 92 107 122 91 107 122 91 107 122
91 106 122 91 106 121 91 106 121 91 106 121 91 106 121 91 106 121 91
106 121 91 106 121 91 106 121 91 106 121 91 106 121 91 106 121 90 105
120 90 105 120 90 105 120 90 105 120 90 105 120 90 105 120 90 105 120
90 105 120 90 105 120 90 105 120 90 105 120 90 105 119 90 104 119 90
104 119 89 104 119 89 104 119 89 104 119 89 104 119 89 104 119 89 104
119 89 104 119
111 129 148 111 129 148 111 129 148 111 129 147 111 129 147 111 129
147 111 129 147 110 129 147 110 129 147 110 129 147 110 129 147 110
128 147 110 128 147 110 128 147 110 128 146 110 128 146 110 128 146
110 128 146 110 128 146 110 128 146 110 128 146 109 128 146 109 128
146 109 127 146 109 127 145 109 127 145 109 127 145 109 127 145 109
127 145 109 127 145 109 127 145 109 127 145 109 127 145 109 127 145
109 127 145 108 126 144 108 126 144 108 126 144 108 126 144 108 126
144 108 126 144 108 126 144 108 126 144 108 126 144 108 126 144 108
126 143 108 125 143 108 125 143 107 125 143 107 125 143 107 125 143
107 125 143 107 125 143 107 125 143 107 125 143 107 125 142 107 125
142 107 125 142 107 124 142 107 124 142 107 124 142 107 124 142 106
124 142 106 124 142 106 124 142 106 124 141 106 124 141 106 124 141
106 124 141 106 123 141 106 123 141 106 123 141 106 123 141 106 123
141 106 123 141 105 123 140 105 123 140 105 123 140 105 123 140 105
123 140 105 123 140 105 122 140 105 122 140 105 122 140 105 122 140
105 122 139 105 122 139 105 122 139 104 122 139 104 122 139 104 122
139 104 122 139 104 121 139 104 121 139 104 121 139 104 121 138 104
121 138 104 121 138 104 121 138 104 121 138 104 121 138 104 121 138
103 121 138 103 120 138 103 120 138 103 120 137 103 120 137 103 120
137 103 120 137 103 120 137 103 120 137 103 120 137 103 120 137 103
120 137 103 120 137 102 119 136 102 119 136 102 119 136 102 119 136
102 119 136 102 119 136 102 119 136 102 119 136 102 119 136 102 119
136 102 119 135 102 118 135 102 118 135 101 118 135 101 118 135 101
118 135 101 118 135 101 118 135 101 118 135 101 118 135 101 118 134
101 118 134 101 117 134 101 117 134 101 117 134 101 117 134 100 117
134 100 117 134 100 117 134 100 117 133 100 117 133 100 117 133 100
117 133 100 117 133 100 116 133 100 116 133 100 116 133 100 116 133
100 116 133 99 116 132 99 116 132 99 116 132 99 116 132 99 116 132 99
116 132 99 115 132 99 115 132 99 115 132 99 115 132 99 115 131 99 115
131 99 115 131 99 115 131 98 115 131 98 115 131 98 115 131 98 114 131
98 114 131 98 114 131 98 114 130 98 114 130 98 114 130 98 114 130 98
114 130 98 114 130 98 114 130 97 114 130 97 114 130 97 113 130 97 113
129 97 113 129 97 113 129 97 113 129 97 113 129 97 113 129 97 113 129
97 113 129 97 113 129 97 113 129 96 112 128 96 112 128 96 112 128 96
112 128 96 112 128 96 112 128 96 112 128 96 112 128 96 112 128 96 112
128 96 112 128 96 112 127 96 111 127 96 111 127 95 111 127 95 111 127
95 111 127 95 111 127 95 111 127 95 111 127 95 111 127 95 111 126 95
111 126 95 111 126 95 110 126 95 110 126 95 110 126 95 110 126 94 110
126 94 110 126 94 110 126 94 110 125 94 110 125 94 110 125 94 110 125
94 110 125 94 109 125 94 109 125 94 109 125 94 109 125 94 109 125 94
109 125 93 109 124 93 109 124 93 109 124 93 109 124 93 109 124 93 108
124 93 108 124 93 108 124 93 108 124 93 108 124 93 108 123 93 108 123
93 108 123 92 108 123 92 108 123 92 108 123 92 108 123 92 107 123 92
107 123 92 107 123 92 107 123 92 107 122 92 107 122 92 107 122 92 107
122 92 107 122 92 107 122 92 107 122 91 107 122 91 107 122 91 106 122
91 106 121 91 106 121 91 106 121 91 106 121 91 106 121 91 106 121 91
106 121 91 106 121 91 106 121 91 106 121 91 106 121 90 105 120 90 105
120 90 105 120 90 105 120 90 105 120 90 105 120 90 105 120 90 105 120
90 105 120 90 105 120 90 105 120 90 105 119 90 104 119 90 104 119 89
104 119 89 104 119 89 104 119 89 104 119 89 104 119 89 104 119 89 104
119 89 104 119
111 129 148 111 129 148 111 129 148 111 129 147 111 129 147 111 129
147 110 129 147 110 129 147 110 129 147 110 129 147 110 128 147 110
128 147 110 128 147 110 128 146 110 128 146 110 128 146 110 128 146
110 128 146 110 128 146 110 128 146 109 128 146 109 128 146 109 127
146 109 127 146 109 127 145 109 127 145 109 127 145 109 127 145 109
127 145 109 127 145 109 127 145 109 127 145 109 127 145 109 127 145
108 126 144 108 126 144 108 126 144 108 126 144 108 126 144 108 126
144 108 126 144 108 126 144 108 126 144 108 126 144 108 126 143 108
126 143 108 125 143 108 125 143 107 125 143 107 125 143 107 125 143
107 125 143 107 125 143 107 125 143 107 125 142 107 125 142 107 125
142 107 124 142 107 124 142 107 124 142 107 124 142 106 124 142 106
124 142 106 124 142 106 124 141 106 124 141 106 124 141 106 124 141
106 124 141 106 123 141 106 123 141 106 123 141 106 123 141 106 123
141 105 123 140 105 123 140 105 123 140 105 123 140 105 123 140 105
123 140 105 122 140 105 122 140 105 122 140 105 122 140 105 122 139
105 122 139 105 122 139 105 122 139 104 122 139 104 122 139 104 122
139 104 121 139 104 121 139 104 121 139 104 121 138 104 121 138 104
121 138 104 121 138 104 121 138 104 121 138 104 121 138 103 121 138
103 121 138 103 120 138 103 120 137 103 120 137 103 120 137 103 120
137 103 120 137 103 120 137 103 120 137 103 120 137 103 120 137 103
120 137 102 119 136 102 119 136 102 119 136 102 119 136 102 119 136
102 119 136 102 119 136 102 119 136 102 119 136 102 119 136 102 119
135 102 118 135 102 118 135 101 118 135 101 118 135 101 118 135 101
118 135 101 118 135 101 118 135 101 118 135 101 118 134 101 118 134
101 118 134 101 117 134 101 117 134 101 117 134 100 117 134 100 117
134 100 117 134 100 117 134 100 117 133 100 117 133 100 117 133 100
117 133 100 116 133 100 116 133 100 116 133 100 116 133 100 116 133
100 116 133 99 116 132 99 116 132 99 116 132 99 116 132 99 116 132 99
115 132 99 115 132 99 115 132 99 115 132 99 115 132 99 115 131 99 115
131 99 115 131 98 115 131 98 115 131 98 115 131 98 115 131 98 114 131
98 114 131 98 114 131 98 114 130 98 114 130 98 114 130 98 114 130 98
114 130 98 114 130 97 114 130 97 114 130 97 113 130 97 113 130 97 113
129 97 113 129 97 113 129 97 113 129 97 113 129 97 113 129 97 113 129
97 113 129 97 113 129 97 113 129 96 112 128 96 112 128 96 112 128 96
112 128 96 112 128 96 112 128 96 112 128 96 112 128 96 112 128 96 112
128 96 112 127 96 111 127 96 111 127 95 111 127 95 111 127 95 111 127
95 111 127 95 111 127 95 111 127 95 111 127 95 111 126 95 111 126 95
111 126 95 110 126 95 110 126 95 110 126 95 110 126 94 110 126 94 110
126 94 110 126 94 110 125 94 110 125 94 110 125 94 110 125 94 110 125
94 109 125 94 109 125 94 109 125 94 109 125 94 109 125 94 109 125 93
109 124 93 109 124 93 109 124 93 109 124 93 109 124 93 109 124 93 108
124 93 108 124 93 108 124 93 108 124 93 108 123 93 108 123 93 108 123
93 108 123 92 108 123 92 108 123 92 108 123 92 108 123 92 107 123 92
107 123 92 107 123 92 107 122 92 107 122 92 107 122 92 107 122 92 107
122 92 107 122 92 107 122 91 107 122 91 107 122 91 106 122 91 106 121
91 106 121 91 106 121 91 106 121 91 106 121 91 106 121 91 106 121 91
106 121 91 106 121 91 106 121 91 106 121 90 105 120 90 105 120 90 105
120 90 105 120 90 105 120 90 105 120 90 105 120 90 105 120 90 105 120
90 105 120 90 105 120 90 105 119 90 104 119 90 104 119 89 104 119 89
104 119 89 104 119 89 104 119 89 104 119 89 104 119 89 104 119 89 104
119 89 104 118
111 129 148 111 129 148 111 129 147 111 129 147 111 129 147 110 129
147 110 129 147 110 129 147 110 129 147 110 128 147 110 128 147 110
128 147 110 128 146 110 128 146 110 128 146 110 128 146 110 128 146
110 128 146 110 128 146 109 128 146 109 128 146 109 127 146 109 127
146 109 127 145 109 127 145 109 127 145 109 127 145 109 127 145 109
127 145 109 127 145 109 127 145 109 127 145 109 127 145 108 126 144
108 126 144 108 126 144 108 126 144 108 126 144 108 126 144 108 126
144 108 126 144 108 126 144 108 126 144 108 126 143 108 126 143 108
125 143 108 125 143 107 125 143 107 125 143 107 125 143 107 125 143
107 125 143 107 125 143 107 125 143 107 125 142 107 125 142 107 124
142 107 124 142 107 124 142 107 124 142 106 124 142 106 124 142 106
124 142 106 124 142 106 124 141 106 124 141 106 124 141 106 124 141
106 123 141 106 123 141 106 123 141 106 123 141 106 123 141 106 123
141 105 123 140 105 123 140 105 123 140 105 123 140 105 123 140 105
122 140 105 122 140 105 122 140 105 122 140 105 122 140 105 122 139
105 122 139 105 122 139 104 122 139 104 122 139 104 122 139 104 122
139 104 121 139 104 121 139 104 121 138 104 121 138 104 121 138 104
121 138 104 121 138 104 121 138 104 121 138 103 121 138 103 121 138
103 120 138 103 120 137 103 120 137 103 120 137 103 120 137 103 120
137 103 120 137 103 120 137 103 120 137 103 120 137 103 120 137 102
119 136 102 119 136 102 119 136 102 119 136 102 119 136 102 119 136
102 119 136 102 119 136 102 119 136 102 119 136 102 119 135 102 118
135 102 118 135 101 118 135 101 118 135 101 118 135 101 118 135 101
118 135 101 118 135 101 118 135 101 118 134 101 118 134 101 118 134
101 117 134 101 117 134 101 117 134 101 117 134 100 117 134 100 117
134 100 117 134 100 117 133 100 117 133 100 117 133 100 117 133 100
116 133 100 116 133 100 116 133 100 116 133 100 116 133 100 116 133 99
116 132 99 116 132 99 116 132 99 116 132 99 116 132 99 115 132 99 115
132 99 115 132 99 115 132 99 115 132 99 115 131 99 115 131 99 115 131
98 115 131 98 115 131 98 115 131 98 115 131 98 114 131 98 114 131 98
114 131 98 114 130 98 114 130 98 114 130 98 114 130 98 114 130 98 114
130 97 114 130 97 114 130 97 113 130 97 113 130 97 113 129 97 113 129
97 113 129 97 113 129 97 113 129 97 113 129 97 113 129 97 113 129 97
113 129 97 113 129 96 112 128 96 112 128 96 112 128 96 112 128 96 112
128 96 112 128 96 112 128 96 112 128 96 112 128 96 112 128 96 112 127
96 111 127 96 111 127 95 111 127 95 111 127 95 111 127 95 111 127 95
111 127 95 111 127 95 111 127 95 111 126 95 111 126 95 111 126 95 110
126 95 110 126 95 110 126 95 110 126 94 110 126 94 110 126 94 110 126
94 110 125 94 110 125 94 110 125 94 110 125 94 110 125 94 109 125 94
109 125 94 109 125 94 109 125 94 109 125 94 109 125 93 109 124 93 109
124 93 109 124 93 109 124 93 109 124 93 109 124 93 108 124 93 108 124
93 108 124 93 108 124 93 108 123 93 108 123 93 108 123 93 108 123 92
108 123 92 108 123 92 108 123 92 108 123 92 107 123 92 107 123 92 107
123 92 107 122 92 107 122 92 107 122 92 107 122 92 107 122 92 107 122
92 107 122 91 107 122 91 107 122 91 106 122 91 106 121 91 106 121 91
106 121 91 106 121 91 106 121 91 106 121 91 106 121 91 106 121 91 106
121 91 106 121 91 106 121 90 105 120 90 105 120 90 105 120 90 105 120
90 105 120 90 105 120 90 105 120 90 105 120 90 105 120 90 105 120 90
105 120 90 105 119 90 104 119 90 104 119 89 104 119 89 104 119 89 104
119 89 104 119 89 104 119 89 104 119 89 104 119 89 104 119 89 104 118
89 104 118
111 129 148 111 129 147 111 129 147 111 129 147 110 129 147 110 129
147 110 129 147 110 129 147 110 129 147 110 128 147 110 128 147 110
128 147 110 128 146 110 128 146 110 128 146 110 128 146 110 128 146
110 128 146 110 128 146 109 128 146 109 128 146 109 127 146 109 127
145 109 127 145 109 127 145 109 127 145 109 127 145 109 127 145 109
127 145 109 127 145 109 127 145 109 127 145 108 126 144 108 126 144
108 126 144 108 126 144 108 126 144 108 126 144 108 126 144 108 126
144 108 126 144 108 126 144 108 126 144 108 126 143 108 125 143 108
125 143 107 125 143 107 125 143 107 125 143 107 125 143 107 125 143
107 125 143 107 125 143 107 125 142 107 125 142 107 125 142 107 124
142 107 124 142 107 124 142 106 124 142 106 124 142 106 124 142 106
124 142 106 124 141 106 124 141 106 124 141 106 124 141 106 123 141
106 123 141 106 123 141 106 123 141 106 123 141 106 123 141 105 123
140 105 123 140 105 123 140 105 123 140 105 123 140 105 122 140 105
122 140 105 122 140 105 122 140 105 122 140 105 122 139 105 122 139
105 122 139 104 122 139 104 122 139 104 122 139 104 122 139 104 121
139 104 121 139 104 121 139 104 121 138 104 121 138 104 121 138 104
121 138 104 121 138 104 121 138 103 121 138 103 121 138 103 120 138
103 120 138 103 120 137 103 120 137 103 120 137 103 120 137 103 120
137 103 120 137 103 120 137 103 120 137 103 120 137 102 119 136 102
119 136 102 119 136 102 119 136 102 119 136 102 119 136 102 119 136
102 119 136 102 119 136 102 119 136 102 119 135 102 119 135 102 118
135 102 118 135 101 118 135 101 118 135 101 118 135 101 118 135 101
118 135 101 118 135 101 118 134 101 118 134 101 118 134 101 117 134
101 117 134 101 117 134 101 117 134 100 117 134 100 117 134 100 117
134 100 117 133 100 117 133 100 117 133 100 117 133 100 116 133 100
116 133 100 116 133 100 116 133 100 116 133 100 116 133 99 116 132 99
116 132 99 116 132 99 116 132 99 116 132 99 116 132 99 115 132 99 115
132 99 115 132 99 115 132 99 115 131 99 115 131 99 115 131 98 115 131
98 115 131 98 115 131 98 115 131 98 114 131 98 114 131 98 114 131 98
114 130 98 114 130 98 114 130 98 114 130 98 114 130 98 114 130 98 114
130 97 114 130 97 113 130 97 113 130 97 113 129 97 113 129 97 113 129
97 113 129 97 113 129 97 113 129 97 113 129 97 113 129 97 113 129 97
113 129 96 112 128 96 112 128 96 112 128 96 112 128 96 112 128 96 112
128 96 112 128 96 112 128 96 112 128 96 112 128 96 112 127 96 112 127
96 111 127 95 111 127 95 111 127 95 111 127 95 111 127 95 111 127 95
111 127 95 111 127 95 111 126 95 111 126 95 111 126 95 110 126 95 110
126 95 110 126 95 110 126 94 110 126 94 110 126 94 110 126 94 110 126
94 110 125 94 110 125 94 110 125 94 110 125 94 109 125 94 109 125 94
109 125 94 109 125 94 109 125 94 109 125 93 109 124 93 109 124 93 109
124 93 109 124 93 109 124 93 109 124 93 108 124 93 108 124 93 108 124
93 108 124 93 108 123 93 108 123 93 108 123 93 108 123 92 108 123 92
108 123 92 108 123 92 108 123 92 107 123 92 107 123 92 107 123 92 107
122 92 107 122 92 107 122 92 107 122 92 107 122 92 107 122 92 107 122
91 107 122 91 107 122 91 106 122 91 106 121 91 106 121 91 106 121 91
106 121 91 106 121 91 106 121 91 106 121 91 106 121 91 106 121 91 106
121 91 106 121 90 105 120 90 105 120 90 105 120 90 105 120 90 105 120
90 105 120 90 105 120 90 105 120 90 105 120 90 105 120 90 105 120 90
105 119 90 104 119 90 104 119 89 104 119 89 104 119 89 104 119 89 104
119 89 104 119 89 104 119 89 104 119 89 104 119 89 104 118 89 104 118
89 104 118
111 129 147 111 129 147 111 129 147 111 129 147 110 129 147 110 129
147 110 129 147 110 129 147 110 128 147 110 128 147 110 128 147 110
128 146 110 128 146 110 128 146 110 128 146 110 128 146 110 128 146
110 128 146 109 128 146 109 128 146 109 127 146 109 127 145 109 127
145 109 127 145 109 127 145 109 127 145 109 127 145 109 127 145 109
127 145 109 127 145 109 127 145 109 127 145 108 126 144 108 126 144
108 126 144 108 126 144 108 126 144 108 126 144 108 126 144 108 126
144 108 126 144 108 126 144 108 126 143 108 125 143 108 125 143 107
125 143 107 125 143 107 125 143 107 125 143 107 125 143 107 125 143
107 125 143 107 125 142 107 125 142 107 125 142 107 124 142 107 124
142 107 124 142 107 124 142 106 124 142 106 124 142 106 124 142 106
124 141 106 124 141 106 124 141 106 124 141 106 123 141 106 123 141
106 123 141 106 123 141 106 123 141 106 123 141 105 123 140 105 123
140 105 123 140 105 123 140 105 123 140 105 123 140 105 122 140 105
122 140 105 122 140 105 122 140 105 122 139 105 122 139 105 122 139
104 122 139 104 122 139 104 122 139 104 122 139 104 121 139 104 121
139 104 121 139 104 121 138 104 121 138 104 121 138 104 121 138 104
121 138 104 121 138 103 121 138 103 121 138 103 120 138 103 120 138
103 120 137 103 120 137 103 120 137 103 120 137 103 120 137 103 120
137 103 120 137 103 120 137 103 120 137 103 120 137 102 119 136 102
119 136 102 119 136 102 119 136 102 119 136 102 119 136 102 119 136
102 119 136 102 119 136 102 119 136 102 119 135 102 118 135 102 118
135 101 118 135 101 118 135 101 118 135 101 118 135 101 118 135 101
118 135 101 118 134 101 118 134 101 118 134 101 117 134 101 117 134
101 117 134 101 117 134 100 117 134 100 117 134 100 117 134 100 117
133 100 117 133 100 117 133 100 117 133 100 116 133 100 116 133 100
116 133 100 116 133 100 116 133 100 116 133 99 116 132 99 116 132 99
116 132 99 116 132 99 116 132 99 116 132 99 115 132 99 115 132 99 115
132 99 115 132 99 115 131 99 115 131 99 115 131 98 115 131 98 115 131
98 115 131 98 115 131 98 114 131 98 114 131 98 114 131 98 114 130 98
114 130 98 114 130 98 114 130 98 114 130 98 114 130 98 114 130 97 114
130 97 114 130 97 113 130 97 113 129 97 113 129 97 113 129 97 113 129
97 113 129 97 113 129 97 113 129 97 113 129 97 113 129 97 113 129 96
112 128 96 112 128 96 112 128 96 112 128 96 112 128 96 112 128 96 112
128 96 112 128 96 112 128 96 112 128 96 112 127 96 112 127 96 111 127
96 111 127 95 111 127 95 111 127 95 111 127 95 111 127 95 111 127 95
111 127 95 111 126 95 111 126 95 111 126 95 110 126 95 110 126 95 110
126 95 110 126 94 110 126 94 110 126 94 110 126 94 110 126 94 110 125
94 110 125 94 110 125 94 110 125 94 109 125 94 109 125 94 109 125 94
109 125 94 109 125 94 109 125 93 109 124 93 109 124 93 109 124 93 109
124 93 109 124 93 109 124 93 108 124 93 108 124 93 108 124 93 108 124
93 108 123 93 108 123 93 108 123 93 108 123 92 108 123 92 108 123 92
108 123 92 108 123 92 107 123 92 107 123 92 107 123 92 107 122 92 107
122 92 107 122 92 107 122 92 107 122 92 107 122 92 107 122 91 107 122
91 107 122 91 106 122 91 106 121 91 106 121 91 106 121 91 106 121 91
106 121 91 106 121 91 106 121 91 106 121 91 106 121 91 106 121 91 106
121 90 105 120 90 105 120 90 105 120 90 105 120 90 105 120 90 105 120
90 105 120 90 105 120 90 105 120 90 105 120 90 105 120 90 105 119 90
104 119 90 104 119 90 104 119 89 104 119 89 104 119 89 104 119 89 104
119 89 104 119 89 104 119 89 104 119 89 104 118 89 104 118 89 104 118
89 103 118
111 129 147 111 129 147 111 129 147 110 129 147 110 129 147 110 129
147 110 129 147 110 128 147 110 128 147 110 128 147 110 128 146 110
128 146 110 128 146 110 128 146 110 128 146 110 128 146 110 128 146
109 128 146 109 128 146 109 127 146 109 127 145 109 127 145 109 127
145 109 127 145 109 127 145 109 127 145 109 127 145 109 127 145 109
127 145 109 127 145 109 127 145 108 126 144 108 126 144 108 126 144
108 126 144 108 126 144 108 126 144 108 126 144 108 126 144 108 126
144 108 126 144 108 126 143 108 125 143 108 125 143 107 125 143 107
125 143 107 125 143 107 125 143 107 125 143 107 125 143 107 125 143
107 125 142 107 125 142 107 125 142 107 124 142 107 124 142 107 124
142 107 124 142 106 124 142 106 124 142 106 124 142 106 124 141 106
124 141 106 124 141 106 124 141 106 124 141 106 123 141 106 123 141
106 123 141 106 123 141 106 123 141 105 123 140 105 123 140 105 123
140 105 123 140 105 123 140 105 123 140 105 122 140 105 122 140 105
122 140 105 122 140 105 122 139 105 122 139 105 122 139 104 122 139
104 122 139 104 122 139 104 122 139 104 121 139 104 121 139 104 121
139 104 121 138 104 121 138 104 121 138 104 121 138 104 121 138 104
121 138 104 121 138 103 121 138 103 121 138 103 120 138 103 120 137
103 120 137 103 120 137 103 120 137 103 120 137 103 120 137 103 120
137 103 120 137 103 120 137 103 120 137 102 119 136 102 119 136 102
119 136 102 119 136 102 119 136 102 119 136 102 119 136 102 119 136
102 119 136 102 119 136 102 119 135 102 118 135 102 118 135 101 118
135 101 118 135 101 118 135 101 118 135 101 118 135 101 118 135 101
118 135 101 118 134 101 118 134 101 117 134 101 117 134 101 117 134
101 117 134 100 117 134 100 117 134 100 117 134 100 117 133 100 117
133 100 117 133 100 117 133 100 117 133 100 116 133 100 116 133 100
116 133 100 116 133 100 116 133 99 116 132 99 116 132 99 116 132 99
116 132 99 116 132 99 116 132 99 115 132 99 115 132 99 115 132 99 115
132 99 115 131 99 115 131 99 115 131 99 115 131 98 115 131 98 115 131
98 115 131 98 114 131 98 114 131 98 114 131 98 114 130 98 114 130 98
114 130 98 114 130 98 114 130 98 114 130 98 114 130 97 114 130 97 114
130 97 113 130 97 113 129 97 113 129 97 113 129 97 113 129 97 113 129
97 113 129 97 113 129 97 113 129 97 113 129 97 113 129 96 112 128 96
112 128 96 112 128 96 112 128 96 112 128 96 112 128 96 112 128 96 112
128 96 112 128 96 112 128 96 112 127 96 112 127 96 111 127 96 111 127
95 111 127 95 111 127 95 111 127 95 111 127 95 111 127 95 111 127 95
111 127 95 111 126 95 111 126 95 110 126 95 110 126 95 110 126 95 110
126 94 110 126 94 110 126 94 110 126 94 110 126 94 110 125 94 110 125
94 110 125 94 110 125 94 109 125 94 109 125 94 109 125 94 109 125 94
109 125 94 109 125 93 109 124 93 109 124 93 109 124 93 109 124 93 109
124 93 109 124 93 108 124 93 108 124 93 108 124 93 108 124 93 108 123
93 108 123 93 108 123 93 108 123 92 108 123 92 108 123 92 108 123 92
108 123 92 107 123 92 107 123 92 107 123 92 107 122 92 107 122 92 107
122 92 107 122 92 107 122 92 107 122 92 107 122 91 107 122 91 107 122
91 106 122 91 106 121 91 106 121 91 106 121 91 106 121 91 106 121 91
106 121 91 106 121 91 106 121 91 106 121 91 106 121 91 106 121 90 105
120 90 105 120 90 105 120 90 105 120 90 105 120 90 105 120 90 105 120
90 105 120 90 105 120 90 105 120 90 105 120 90 105 119 90 104 119 90
104 119 90 104 119 89 104 119 89 104 119 89 104 119 89 104 119 89 104
119 89 104 119 89 104 119 89 104 118 89 104 118 89 104 118 89 103 118
89 103 118
111 129 147 111 129 147 110 129 147 110 129 147 110 129 147 110 129
147 110 128 147 110 128 147 110 128 147 110 128 146 110 128 146 110
128 146 110 128 146 110 128 146 110 128 146 110 128 146 109 128 146
109 128 146 109 127 146 109 127 146 109 127 145 109 127 145 109 127
145 109 127 145 109 127 145 109 127 145 109 127 145 109 127 145 109
127 145 109 127 145 108 126 144 108 126 144 108 126 144 108 126 144
108 126 144 108 126 144 108 126 144 108 126 144 108 126 144 108 126
144 108 126 143 108 126 143 108 125 143 108 125 143 107 125 143 107
125 143 107 125 143 107 125 143 107 125 143 107 125 143 107 125 142
107 125 142 107 125 142 107 124 142 107 124 142 107 124 142 107 124
142 106 124 142 106 124 142 106 124 142 106 124 141 106 124 141 106
124 141 106 124 141 106 124 141 106 123 141 106 123 141 106 123 141
106 123 141 106 123 141 105 123 140 105 123 140 105 123 140 105 123
140 105 123 140 105 123 140 105 122 140 105 122 140 105 122 140 105
122 140 105 122 139 105 122 139 105 122 139 105 122 139 104 122 139
104 122 139 104 122 139 104 121 139 104 121 139 104 121 139 104 121
138 104 121 138 104 121 138 104 121 138 104 121 138 104 121 138 104
121 138 103 121 138 103 121 138 103 120 138 103 120 137 103 120 137
103 120 137 103 120 137 103 120 137 103 120 137 103 120 137 103 120
137 103 120 137 103 120 137 102 119 136 102 119 136 102 119 136 102
119 136 102 119 136 102 119 136 102 119 136 102 119 136 102 119 136
102 119 136 102 119 135 102 118 135 102 118 135 101 118 135 101 118
135 101 118 135 101 118 135 101 118 135 101 118 135 101 118 135 101
118 134 101 118 134 101 118 134 101 117 134 101 117 134 101 117 134
100 117 134 100 117 134 100 117 134 100 117 134 100 117 133 100 117
133 100 117 133 100 117 133 100 116 133 100 116 133 100 116 133 100
116 133 100 116 133 100 116 133 99 116 132 99 116 132 99 116 132 99
116 132 99 116 132 99 115 132 99 115 132 99 115 132 99 115 132 99 115
131 99 115 131 99 115 131 99 115 131 98 115 131 98 115 131 98 115 131
98 115 131 98 114 131 98 114 131 98 114 130 98 114 130 98 114 130 98
114 130 98 114 130 98 114 130 98 114 130 97 114 130 97 114 130 97 113
130 97 113 129 97 113 129 97 113 129 97 113 129 97 113 129 97 113 129
97 113 129 97 113 129 97 113 129 97 113 129 96 112 128 96 112 128 96
112 128 96 112 128 96 112 128 96 112 128 96 112 128 96 112 128 96 112
128 96 112 128 96 112 127 96 112 127 96 111 127 96 111 127 95 111 127
95 111 127 95 111 127 95 111 127 95 111 127 95 111 127 95 111 127 95
111 126 95 111 126 95 111 126 95 110 126 95 110 126 95 110 126 94 110
126 94 110 126 94 110 126 94 110 126 94 110 125 94 110 125 94 110 125
94 110 125 94 109 125 94 109 125 94 109 125 94 109 125 94 109 125 94
109 125 93 109 124 93 109 124 93 109 124 93 109 124 93 109 124 93 109
124 93 108 124 93 108 124 93 108 124 93 108 124 93 108 124 93 108 123
93 108 123 93 108 123 92 108 123 92 108 123 92 108 123 92 108 123 92
107 123 92 107 123 92 107 123 92 107 122 92 107 122 92 107 122 92 107
122 92 107 122 92 107 122 92 107 122 91 107 122 91 107 122 91 106 122
91 106 122 91 106 121 91 106 121 91 106 121 91 106 121 91 106 121 91
106 121 91 106 121 91 106 121 91 106 121 91 106 121 90 105 120 90 105
120 90 105 120 90 105 120 90 105 120 90 105 120 90 105 120 90 105 120
90 105 120 90 105 120 90 105 120 90 105 119 90 104 119 90 104 119 90
104 119 89 104 119 89 104 119 89 104 119 89 104 119 89 104 119 89 104
119 89 104 119 89 104 118 89 104 118 89 104 118 89 103 118 89 103 118
89 103 118
111 129 147 110 129 147 110 129 147 110 129 147 110 129 147 110 128
147 110 128 147 110 128 147 110 128 146 110 128 146 110 128 146 110
128 146 110 128 146 110 128 146 110 128 146 109 128 146 109 128 146
109 127 146 109 127 146 109 127 145 109 127 145 109 127 145 109 127
145 109 127 145 109 127 145 109 127 145 109 127 145 109 127 145 109
127 145 108 126 144 108 126 144 108 126 144 108 126 144 108 126 144
108 126 144 108 126 144 108 126 144 108 126 144 108 126 144 108 126
143 108 126 143 108 125 143 108 125 143 107 125 143 107 125 143 107
125 143 107 125 143 107 125 143 107 125 143 107 125 143 107 125 142
107 125 142 107 124 142 107 124 142 107 124 142 107 124 142 106 124
142 106 124 142 106 124 142 106 124 142 106 124 141 106 124 141 106
124 141 106 124 141 106 123 141 106 123 141 106 123 141 106 123 141
106 123 141 106 123 141 105 123 140 105 123 140 105 123 140 105 123
140 105 123 140 105 122 140 105 122 140 105 122 140 105 122 140 105
122 140 105 122 139 105 122 139 105 122 139 104 122 139 104 122 139
104 122 139 104 122 139 104 121 139 104 121 139 104 121 139 104 121
138 104 121 138 104 121 138 104 121 138 104 121 138 104 121 138 103
121 138 103 121 138 103 120 138 103 120 137 103 120 137 103 120 137
103 120 137 103 120 137 103 120 137 103 120 137 103 120 137 103 120
137 103 120 137 102 119 136 102 119 136 102 119 136 102 119 136 102
119 136 102 119 136 102 119 136 102 119 136 102 119 136 102 119 136
102 119 135 102 119 135 102 118 135 101 118 135 101 118 135 101 118
135 101 118 135 101 118 135 101 118 135 101 118 135 101 118 134 101
118 134 101 118 134 101 117 134 101 117 134 101 117 134 101 117 134
100 117 134 100 117 134 100 117 134 100 117 133 100 117 133 100 117
133 100 117 133 100 116 133 100 116 133 100 116 133 100 116 133 100
116 133 100 116 133 99 116 132 99 116 132 99 116 132 99 116 132 99 116
132 99 115 132 99 115 132 99 115 132 99 115 132 99 115 132 99 115 131
99 115 131 99 115 131 98 115 131 98 115 131 98 115 131 98 115 131 98
114 131 98 114 131 98 114 131 98 114 130 98 114 130 98 114 130 98 114
130 98 114 130 98 114 130 97 114 130 97 114 130 97 113 130 97 113 130
97 113 129 97 113 129 97 113 129 97 113 129 97 113 129 97 113 129 97
113 129 97 113 129 97 113 129 97 113 129 96 112 128 96 112 128 96 112
128 96 112 128 96 112 128 96 112 128 96 112 128 96 112 128 96 112 128
96 112 128 96 112 127 96 111 127 96 111 127 95 111 127 95 111 127 95
111 127 95 111 127 95 111 127 95 111 127 95 111 127 95 111 126 95 111
126 95 111 126 95 110 126 95 110 126 95 110 126 95 110 126 94 110 126
94 110 126 94 110 126 94 110 125 94 110 125 94 110 125 94 110 125 94
109 125 94 109 125 94 109 125 94 109 125 94 109 125 94 109 125 93 109
124 93 109 124 93 109 124 93 109 124 93 109 124 93 109 124 93 108 124
93 108 124 93 108 124 93 108 124 93 108 124 93 108 123 93 108 123 93
108 123 92 108 123 92 108 123 92 108 123 92 108 123 92 107 123 92 107
123 92 107 123 92 107 122 92 107 122 92 107 122 92 107 122 92 107 122
92 107 122 92 107 122 91 107 122 91 107 122 91 106 122 91 106 122 91
106 121 91 106 121 91 106 121 91 106 121 91 106 121 91 106 121 91 106
121 91 106 121 91 106 121 91 106 121 90 105 120 90 105 120 90 105 120
90 105 120 90 105 120 90 105 120 90 105 120 90 105 120 90 105 120 90
105 120 90 105 120 90 105 119 90 104 119 90 104 119 90 104 119 89 104
119 89 104 119 89 104 119 89 104 119 89 104 119 89 104 119 89 104 119
89 104 118 89 104 118 89 104 118 89 103 118 89 103 118 89 103 118 89
103 118
110 129 147 110 129 147 110 129 147 110 129 147 110 128 147 110 128
147 110 128 147 110 128 146 110 128 146 110 128 146 110 128 146 110
128 146 110 128 146 110 128 146 109 128 146 109 128 146 109 127 146
109 127 146 109 127 145 109 127 145 109 127 145 109 127 145 109 127
145 109 127 145 109 127 145 109 127 145 109 127 145 109 127 145 108
126 144 108 126 144 108 126 144 108 126 144 108 126 144 108 126 144
108 126 144 108 126 144 108 126 144 108 126 144 108 126 144 108 126
143 108 125 143 108 125 143 107 125 143 107 125 143 107 125 143 107
125 143 107 125 143 107 125 143 107 125 143 107 125 142 107 125 142
107 125 142 107 124 142 107 124 142 107 124 142 106 124 142 106 124
142 106 124 142 106 124 142 106 124 141 106 124 141 106 124 141 106
124 141 106 123 141 106 123 141 106 123 141 106 123 141 106 123 141
106 123 141 105 123 140 105 123 140 105 123 140 105 123 140 105 123
140 105 123 140 105 122 140 105 122 140 105 122 140 105 122 140 105
122 139 105 122 139 105 122 139 104 122 139 104 122 139 104 122 139
104 122 139 104 121 139 104 121 139 104 121 139 104 121 138 104 121
138 104 121 138 104 121 138 104 121 138 104 121 138 103 121 138 103
121 138 103 120 138 103 120 138 103 120 137 103 120 137 103 120 137
103 120 137 103 120 137 103 120 137 103 120 137 103 120 137 103 120
137 102 119 136 102 119 136 102 119 136 102 119 136 102 119 136 102
119 136 102 119 136 102 119 136 102 119 136 102 119 136 102 119 135
102 119 135 102 118 135 102 118 135 101 118 135 101 118 135 101 118
135 101 118 135 101 118 135 101 118 135 101 118 134 101 118 134 101
118 134 101 117 134 101 117 134 101 117 134 101 117 134 100 117 134
100 117 134 100 117 134 100 117 133 100 117 133 100 117 133 100 117
133 100 116 133 100 116 133 100 116 133 100 116 133 100 116 133 100
116 133 99 116 132 99 116 132 99 116 132 99 116 132 99 116 132 99 116
132 99 115 132 99 115 132 99 115 132 99 115 132 99 115 131 99 115 131
99 115 131 98 115 131 98 115 131 98 115 131 98 115 131 98 114 131 98
114 131 98 114 131 98 114 130 98 114 130 98 114 130 98 114 130 98 114
130 98 114 130 97 114 130 97 114 130 97 113 130 97 113 130 97 113 129
97 113 129 97 113 129 97 113 129 97 113 129 97 113 129 97 113 129 97
113 129 97 113 129 97 113 129 96 112 128 96 112 128 96 112 128 96 112
128 96 112 128 96 112 128 96 112 128 96 112 128 96 112 128 96 112 128
96 112 127 96 111 127 96 111 127 95 111 127 95 111 127 95 111 127 95
111 127 95 111 127 95 111 127 95 111 127 95 111 126 95 111 126 95 111
126 95 110 126 95 110 126 95 110 126 95 110 126 94 110 126 94 110 126
94 110 126 94 110 125 94 110 125 94 110 125 94 110 125 94 109 125 94
109 125 94 109 125 94 109 125 94 109 125 94 109 125 93 109 124 93 109
124 93 109 124 93 109 124 93 109 124 93 109 124 93 108 124 93 108 124
93 108 124 93 108 124 93 108 124 93 108 123 93 108 123 93 108 123 92
108 123 92 108 123 92 108 123 92 108 123 92 107 123 92 107 123 92 107
123 92 107 122 92 107 122 92 107 122 92 107 122 92 107 122 92 107 122
92 107 122 91 107 122 91 107 122 91 106 122 91 106 122 91 106 121 91
106 121 91 106 121 91 106 121 91 106 121 91 106 121 91 106 121 91 106
121 91 106 121 91 106 121 90 105 120 90 105 120 90 105 120 90 105 120
90 105 120 90 105 120 90 105 120 90 105 120 90 105 120 90 105 120 90
105 120 90 105 119 90 105 119 90 104 119 90 104 119 89 104 119 89 104
119 89 104 119 89 104 119 89 104 119 89 104 119 89 104 119 89 104 118
89 104 118 89 104 118 89 103 118 89 103 118 89 103 118 89 103 118 88
103 118
110 129 147 110 129 147 110 129 147 110 128 147 110 128 147 110 128
147 110 128 146 110 128 146 110 128 146 110 128 146 110 128 146 110
128 146 110 128 146 110 128 146 109 128 146 109 128 146 109 127 146
109 127 145 109 127 145 109 127 145 109 127 145 109 127 145 109 127
145 109 127 145 109 127 145 109 127 145 109 127 145 108 126 144 108
126 144 108 126 144 108 126 144 108 126 144 108 126 144 108 126 144
108 126 144 108 126 144 108 126 144 108 126 144 108 126 143 108 125
143 108 125 143 107 125 143 107 125 143 107 125 143 107 125 143 107
125 143 107 125 143 107 125 143 107 125 142 107 125 142 107 125 142
107 124 142 107 124 142 107 124 142 107 124 142 106 124 142 106 124
142 106 124 142 106 124 141 106 124 141 106 124 141 106 124 141 106
123 141 106 123 141 106 123 141 106 123 141 106 123 141 106 123 141
105 123 140 105 123 140 105 123 140 105 123 140 105 123 140 105 123
140 105 122 140 105 122 140 105 122 140 105 122 140 105 122 139 105
122 139 105 122 139 104 122 139 104 122 139 104 122 139 104 122 139
104 121 139 104 121 139 104 121 139 104 121 138 104 121 138 104 121
138 104 121 138 104 121 138 104 121 138 104 121 138 103 121 138 103
120 138 103 120 138 103 120 137 103 120 137 103 120 137 103 120 137
103 120 137 103 120 137 103 120 137 103 120 137 103 120 137 103 120
137 102 119 136 102 119 136 102 119 136 102 119 136 102 119 136 102
119 136 102 119 136 102 119 136 102 119 136 102 119 136 102 119 135
102 118 135 102 118 135 101 118 135 101 118 135 101 118 135 101 118
135 101 118 135 101 118 135 101 118 134 101 118 134 101 118 134 101
117 134 101 117 134 101 117 134 101 117 134 100 117 134 100 117 134
100 117 134 100 117 133 100 117 133 100 117 133 100 117 133 100 116
133 100 116 133 100 116 133 100 116 133 100 116 133 100 116 133 99 116
132 99 116 132 99 116 132 99 116 132 99 116 132 99 116 132 99 115 132
99 115 132 99 115 132 99 115 132 99 115 131 99 115 131 99 115 131 98
115 131 98 115 131 98 115 131 98 115 131 98 114 131 98 114 131 98 114
131 98 114 130 98 114 130 98 114 130 98 114 130 98 114 130 98 114 130
98 114 130 97 114 130 97 113 130 97 113 130 97 113 129 97 113 129 97
113 129 97 113 129 97 113 129 97 113 129 97 113 129 97 113 129 97 113
129 97 113 129 96 112 128 96 112 128 96 112 128 96 112 128 96 112 128
96 112 128 96 112 128 96 112 128 96 112 128 96 112 128 96 112 127 96
111 127 96 111 127 95 111 127 95 111 127 95 111 127 95 111 127 95 111
127 95 111 127 95 111 127 95 111 126 95 111 126 95 111 126 95 110 126
95 110 126 95 110 126 95 110 126 94 110 126 94 110 126 94 110 126 94
110 125 94 110 125 94 110 125 94 110 125 94 110 125 94 109 125 94 109
125 94 109 125 94 109 125 94 109 125 93 109 124 93 109 124 93 109 124
93 109 124 93 109 124 93 109 124 93 108 124 93 108 124 93 108 124 93
108 124 93 108 124 93 108 123 93 108 123 93 108 123 92 108 123 92 108
123 92 108 123 92 108 123 92 107 123 92 107 123 92 107 123 92 107 122
92 107 122 92 107 122 92 107 122 92 107 122 92 107 122 92 107 122 91
107 122 91 107 122 91 106 122 91 106 122 91 106 121 91 106 121 91 106
121 91 106 121 91 106 121 91 106 121 91 106 121 91 106 121 91 106 121
91 106 121 90 105 120 90 105 120 90 105 120 90 105 120 90 105 120 90
105 120 90 105 120 90 105 120 90 105 120 90 105 120 90 105 120 90 105
119 90 105 119 90 104 119 90 104 119 89 104 119 89 104 119 89 104 119
89 104 119 89 104 119 89 104 119 89 104 119 89 104 118 89 104 118 89
104 118 89 103 118 89 103 118 89 103 118 89 103 118 88 103 118 88 103
118
110 129 147 110 129 147 110 128 147 110 128 147 110 128 147 110 128
147 110 128 146 110 128 146 110 128 146 110 128 146 110 128 146 110
128 146 110 128 146 109 128 146 109 128 146 109 127 146 109 127 145
109 127 145 109 127 145 109 127 145 109 127 145 109 127 145 109 127
145 109 127 145 109 127 145 109 127 145 109 127 145 108 126 144 108
126 144 108 126 144 108 126 144 108 126 144 108 126 144 108 126 144
108 126 144 108 126 144 108 126 144 108 126 143 108 125 143 108 125
143 107 125 143 107 125 143 107 125 143 107 125 143 107 125 143 107
125 143 107 125 143 107 125 142 107 125 142 107 125 142 107 124 142
107 124 142 107 124 142 107 124 142 106 124 142 106 124 142 106 124
142 106 124 141 106 124 141 106 124 141 106 124 141 106 124 141 106
123 141 106 123 141 106 123 141 106 123 141 106 123 141 105 123 140
105 123 140 105 123 140 105 123 140 105 123 140 105 123 140 105 122
140 105 122 140 105 122 140 105 122 140 105 122 139 105 122 139 105
122 139 105 122 139 104 122 139 104 122 139 104 122 139 104 121 139
104 121 139 104 121 139 104 121 138 104 121 138 104 121 138 104 121
138 104 121 138 104 121 138 104 121 138 103 121 138 103 121 138 103
120 138 103 120 137 103 120 137 103 120 137 103 120 137 103 120 137
103 120 137 103 120 137 103 120 137 103 120 137 103 120 137 102 119
136 102 119 136 102 119 136 102 119 136 102 119 136 102 119 136 102
119 136 102 119 136 102 119 136 102 119 136 102 119 135 102 118 135
102 118 135 101 118 135 101 118 135 101 118 135 101 118 135 101 118
135 101 118 135 101 118 135 101 118 134 101 118 134 101 117 134 101
117 134 101 117 134 101 117 134 100 117 134 100 117 134 100 117 134
100 117 133 100 117 133 100 117 133 100 117 133 100 117 133 100 116
133 100 116 133 100 116 133 100 116 133 100 116 133 99 116 132 99 116
132 99 116 132 99 116 132 99 116 132 99 116 132 99 115 132 99 115 132
99 115 132 99 115 132 99 115 131 99 115 131 99 115 131 98 115 131 98
115 131 98 115 131 98 115 131 98 114 131 98 114 131 98 114 131 98 114
130 98 114 130 98 114 130 98 114 130 98 114 130 98 114 130 98 114 130
97 114 130 97 114 130 97 113 130 97 113 129 97 113 129 97 113 129 97
113 129 97 113 129 97 113 129 97 113 129 97 113 129 97 113 129 97 113
129 96 112 128 96 112 128 96 112 128 96 112 128 96 112 128 96 112 128
96 112 128 96 112 128 96 112 128 96 112 128 96 112 127 96 111 127 96
111 127 95 111 127 95 111 127 95 111 127 95 111 127 95 111 127 95 111
127 95 111 127 95 111 126 95 111 126 95 111 126 95 110 126 95 110 126
95 110 126 95 110 126 94 110 126 94 110 126 94 110 126 94 110 125 94
110 125 94 110 125 94 110 125 94 110 125 94 109 125 94 109 125 94 109
125 94 109 125 94 109 125 94 109 125 93 109 124 93 109 124 93 109 124
93 109 124 93 109 124 93 108 124 93 108 124 93 108 124 93 108 124 93
108 124 93 108 123 93 108 123 93 108 123 92 108 123 92 108 123 92 108
123 92 108 123 92 107 123 92 107 123 92 107 123 92 107 122 92 107 122
92 107 122 92 107 122 92 107 122 92 107 122 92 107 122 91 107 122 91
107 122 91 106 122 91 106 122 91 106 121 91 106 121 91 106 121 91 106
121 91 106 121 91 106 121 91 106 121 91 106 121 91 106 121 91 106 121
90 105 120 90 105 120 90 105 120 90 105 120 90 105 120 90 105 120 90
105 120 90 105 120 90 105 120 90 105 120 90 105 120 90 105 119 90 105
119 90 104 119 90 104 119 89 104 119 89 104 119 89 104 119 89 104 119
89 104 119 89 104 119 89 104 119 89 104 118 89 104 118 89 104 118 89
103 118 89 103 118 89 103 118 89 103 118 88 103 118 88 103 118 88 103
118
110 129 147 110 129 147 110 128 147 110 128 147 110 128 147 110 128
146 110 128 146 110 128 146 110 128 146 110 128 146 110 128 146 110
128 146 109 128 146 109 128 146 109 127 146 109 127 145 109 127 145
109 127 145 109 127 145 109 127 145 109 127 145 109 127 145 109 127
145 109 127 145 109 127 145 109 127 145 108 126 144 108 126 144 108
126 144 108 126 144 108 126 144 108 126 144 108 126 144 108 126 144
108 126 144 108 126 144 108 126 143 108 126 143 108 125 143 107 125
143 107 125 143 107 125 143 107 125 143 107 125 143 107 125 143 107
125 143 107 125 142 107 125 142 107 125 142 107 124 142 107 124 142
107 124 142 107 124 142 106 124 142 106 124 142 106 124 142 106 124
141 106 124 141 106 124 141 106 124 141 106 124 141 106 123 141 106
123 141 106 123 141 106 123 141 106 123 141 105 123 140 105 123 140
105 123 140 105 123 140 105 123 140 105 123 140 105 122 140 105 122
140 105 122 140 105 122 140 105 122 139 105 122 139 105 122 139 105
122 139 104 122 139 104 122 139 104 122 139 104 121 139 104 121 139
104 121 139 104 121 138 104 121 138 104 121 138 104 121 138 104 121
138 104 121 138 104 121 138 103 121 138 103 121 138 103 120 138 103
120 137 103 120 137 103 120 137 103 120 137 103 120 137 103 120 137
103 120 137 103 120 137 103 120 137 103 120 137 102 119 136 102 119
136 102 119 136 102 119 136 102 119 136 102 119 136 102 119 136 102
119 136 102 119 136 102 119 136 102 119 135 102 118 135 102 118 135
101 118 135 101 118 135 101 118 135 101 118 135 101 118 135 101 118
135 101 118 135 101 118 134 101 118 134 101 118 134 101 117 134 101
117 134 101 117 134 100 117 134 100 117 134 100 117 134 100 117 134
100 117 133 100 117 133 100 117 133 100 117 133 100 116 133 100 116
133 100 116 133 100 116 133 100 116 133 99 116 132 99 116 132 99 116
132 99 116 132 99 116 132 99 116 132 99 115 132 99 115 132 99 115 132
99 115 132 99 115 131 99 115 131 99 115 131 99 115 131 98 115 131 98
115 131 98 115 131 98 114 131 98 114 131 98 114 131 98 114 130 98 114
130 98 114 130 98 114 130 98 114 130 98 114 130 98 114 130 97 114 130
97 114 130 97 113 130 97 113 129 97 113 129 97 113 129 97 113 129 97
113 129 97 113 129 97 113 129 97 113 129 97 113 129 97 113 129 96 112
128 96 112 128 96 112 128 96 112 128 96 112 128 96 112 128 96 112 128
96 112 128 96 112 128 96 112 128 96 112 127 96 112 127 96 111 127 96
111 127 95 111 127 95 111 127 95 111 127 95 111 127 95 111 127 95 111
127 95 111 126 95 111 126 95 111 126 95 110 126 95 110 126 95 110 126
95 110 126 94 110 126 94 110 126 94 110 126 94 110 125 94 110 125 94
110 125 94 110 125 94 110 125 94 109 125 94 109 125 94 109 125 94 109
125 94 109 125 94 109 125 93 109 124 93 109 124 93 109 124 93 109 124
93 109 124 93 108 124 93 108 124 93 108 124 93 108 124 93 108 124 93
108 123 93 108 123 93 108 123 92 108 123 92 108 123 92 108 123 92 108
123 92 107 123 92 107 123 92 107 123 92 107 122 92 107 122 92 107 122
92 107 122 92 107 122 92 107 122 92 107 122 91 107 122 91 107 122 91
106 122 91 106 122 91 106 121 91 106 121 91 106 121 91 106 121 91 106
121 91 106 121 91 106 121 91 106 121 91 106 121 91 106 121 90 105 120
90 105 120 90 105 120 90 105 120 90 105 120 90 105 120 90 105 120 90
105 120 90 105 120 90 105 120 90 105 120 90 105 119 90 105 119 90 104
119 90 104 119 89 104 119 89 104 119 89 104 119 89 104 119 89 104 119
89 104 119 89 104 119 89 104 118 89 104 118 89 104 118 89 103 118 89
103 118 89 103 118 89 103 118 88 103 118 88 103 118 88 103 118 88 103
118
110 129 147 110 128 147 110 128 147 110 128 147 110 128 146 110 128
146 110 128 146 110 128 146 110 128 146 110 128 146 110 128 146 109
128 146 109 128 146 109 127 146 109 127 145 109 127 145 109 127 145
109 127 145 109 127 145 109 127 145 109 127 145 109 127 145 109 127
145 109 127 145 109 127 145 108 126 144 108 126 144 108 126 144 108
126 144 108 126 144 108 126 144 108 126 144 108 126 144 108 126 144
108 126 144 108 126 143 108 126 143 108 125 143 108 125 143 107 125
143 107 125 143 107 125 143 107 125 143 107 125 143 107 125 143 107
125 142 107 125 142 107 125 142 107 124 142 107 124 142 107 124 142
107 124 142 106 124 142 106 124 142 106 124 142 106 124 142 106 124
141 106 124 141 106 124 141 106 124 141 106 123 141 106 123 141 106
123 141 106 123 141 106 123 141 106 123 141 105 123 140 105 123 140
105 123 140 105 123 140 105 123 140 105 122 140 105 122 140 105 122
140 105 122 140 105 122 140 105 122 139 105 122 139 105 122 139 104
122 139 104 122 139 104 122 139 104 122 139 104 121 139 104 121 139
104 121 138 104 121 138 104 121 138 104 121 138 104 121 138 104 121
138 104 121 138 103 121 138 103 121 138 103 120 138 103 120 137 103
120 137 103 120 137 103 120 137 103 120 137 103 120 137 103 120 137
103 120 137 103 120 137 103 120 137 102 119 136 102 119 136 102 119
136 102 119 136 102 119 136 102 119 136 102 119 136 102 119 136 102
119 136 102 119 136 102 119 135 102 118 135 102 118 135 101 118 135
101 118 135 101 118 135 101 118 135 101 118 135 101 118 135 101 118
135 101 118 134 101 118 134 101 118 134 101 117 134 101 117 134 101
117 134 100 117 134 100 117 134 100 117 134 100 117 134 100 117 133
100 117 133 100 117 133 100 117 133 100 116 133 100 116 133 100 116
133 100 116 133 100 116 133 100 116 133 99 116 132 99 116 132 99 116
132 99 116 132 99 116 132 99 115 132 99 115 132 99 115 132 99 115 132
99 115 131 99 115 131 99 115 131 99 115 131 98 115 131 98 115 131 98
115 131 98 115 131 98 114 131 98 114 131 98 114 130 98 114 130 98 114
130 98 114 130 98 114 130 98 114 130 98 114 130 97 114 130 97 114 130
97 113 130 97 113 129 97 113 129 97 113 129 97 113 129 97 113 129 97
113 129 97 113 129 97 113 129 97 113 129 97 113 129 96 112 128 96 112
128 96 112 128 96 112 128 96 112 128 96 112 128 96 112 128 96 112 128
96 112 128 96 112 128 96 112 127 96 112 127 96 111 127 96 111 127 95
111 127 95 111 127 95 111 127 95 111 127 95 111 127 95 111 127 95 111
126 95 111 126 95 111 126 95 110 126 95 110 126 95 110 126 95 110 126
94 110 126 94 110 126 94 110 126 94 110 125 94 110 125 94 110 125 94
110 125 94 110 125 94 109 125 94 109 125 94 109 125 94 109 125 94 109
125 94 109 125 93 109 124 93 109 124 93 109 124 93 109 124 93 109 124
93 109 124 93 108 124 93 108 124 93 108 124 93 108 124 93 108 123 93
108 123 93 108 123 92 108 123 92 108 123 92 108 123 92 108 123 92 107
123 92 107 123 92 107 123 92 107 122 92 107 122 92 107 122 92 107 122
92 107 122 92 107 122 92 107 122 91 107 122 91 107 122 91 106 122 91
106 122 91 106 121 91 106 121 91 106 121 91 106 121 91 106 121 91 106
121 91 106 121 91 106 121 91 106 121 91 106 121 90 105 120 90 105 120
90 105 120 90 105 120 90 105 120 90 105 120 90 105 120 90 105 120 90
105 120 90 105 120 90 105 120 90 105 119 90 105 119 90 104 119 90 104
119 89 104 119 89 104 119 89 104 119 89 104 119 89 104 119 89 104 119
89 104 119 89 104 118 89 104 118 89 104 118 89 103 118 89 103 118 89
103 118 89 103 118 88 103 118 88 103 118 88 103 118 88 103 118 88 103
117
110 128 147 110 128 147 110 128 147 110 128 146 110 128 146 110 128
146 110 128 146 110 128 146 110 128 146 110 128 146 109 128 146 109
128 146 109 127 146 109 127 145 109 127 145 109 127 145 109 127 145
109 127 145 109 127 145 109 127 145 109 127 145 109 127 145 109 127
145 109 127 145 108 126 144 108 126 144 108 126 144 108 126 144 108
126 144 108 126 144 108 126 144 108 126 144 108 126 144 108 126 144
108 126 143 108 126 143 108 125 143 108 125 143 107 125 143 107 125
143 107 125 143 107 125 143 107 125 143 107 125 143 107 125 143 107
125 142 107 125 142 107 124 142 107 124 142 107 124 142 107 124 142
106 124 142 106 124 142 106 124 142 106 124 142 106 124 141 106 124
141 106 124 141 106 124 141 106 123 141 106 123 141 106 123 141 106
123 141 106 123 141 106 123 141 105 123 140 105 123 140 105 123 140
105 123 140 105 123 140 105 122 140 105 122 140 105 122 140 105 122
140 105 122 140 105 122 139 105 122 139 105 122 139 104 122 139 104
122 139 104 122 139 104 122 139 104 121 139 104 121 139 104 121 139
104 121 138 104 121 138 104 121 138 104 121 138 104 121 138 104 121
138 103 121 138 103 121 138 103 120 138 103 120 138 103 120 137 103
120 137 103 120 137 103 120 137 103 120 137 103 120 137 103 120 137
103 120 137 103 120 137 102 119 136 102 119 136 102 119 136 102 119
136 102 119 136 102 119 136 102 119 136 102 119 136 102 119 136 102
119 136 102 119 135 102 119 135 102 118 135 102 118 135 101 118 135
101 118 135 101 118 135 101 118 135 101 118 135 101 118 135 101 118
134 101 118 134 101 118 134 101 117 134 101 117 134 101 117 134 101
117 134 100 117 134 100 117 134 100 117 134 100 117 133 100 117 133
100 117 133 100 117 133 100 116 133 100 116 133 100 116 133 100 116
133 100 116 133 100 116 133 99 116 132 99 116 132 99 116 132 99 116
132 99 116 132 99 115 132 99 115 132 99 115 132 99 115 132 99 115 132
99 115 131 99 115 131 99 115 131 98 115 131 98 115 131 98 115 131 98
115 131 98 114 131 98 114 131 98 114 130 98 114 130 98 114 130 98 114
130 98 114 130 98 114 130 98 114 130 97 114 130 97 114 130 97 113 130
97 113 129 97 113 129 97 113 129 97 113 129 97 113 129 97 113 129 97
113 129 97 113 129 97 113 129 97 113 129 96 112 128 96 112 128 96 112
128 96 112 128 96 112 128 96 112 128 96 112 128 96 112 128 96 112 128
96 112 128 96 112 127 96 112 127 96 111 127 96 111 127 95 111 127 95
111 127 95 111 127 95 111 127 95 111 127 95 111 127 95 111 126 95 111
126 95 111 126 95 110 126 95 110 126 95 110 126 95 110 126 94 110 126
94 110 126 94 110 126 94 110 126 94 110 125 94 110 125 94 110 125 94
110 125 94 109 125 94 109 125 94 109 125 94 109 125 94 109 125 94 109
125 93 109 124 93 109 124 93 109 124 93 109 124 93 109 124 93 109 124
93 108 124 93 108 124 93 108 124 93 108 124 93 108 123 93 108 123 93
108 123 92 108 123 92 108 123 92 108 123 92 108 123 92 107 123 92 107
123 92 107 123 92 107 122 92 107 122 92 107 122 92 107 122 92 107 122
92 107 122 92 107 122 91 107 122 91 107 122 91 106 122 91 106 122 91
106 121 91 106 121 91 106 121 91 106 121 91 106 121 91 106 121 91 106
121 91 106 121 91 106 121 91 106 121 90 105 120 90 105 120 90 105 120
90 105 120 90 105 120 90 105 120 90 105 120 90 105 120 90 105 120 90
105 120 90 105 120 90 105 119 90 105 119 90 104 119 90 104 119 89 104
119 89 104 119 89 104 119 89 104 119 89 104 119 89 104 119 89 104 119
89 104 118 89 104 118 89 104 118 89 103 118 89 103 118 89 103 118 89
103 118 88 103 118 88 103 118 88 103 118 88 103 118 88 103 117 88 103
117
110 128 147 110 128 147 110 128 146 110 128 146 110 128 146 110 128
146 110 128 146 110 128 146 110 128 146 109 128 146 109 128 146 109
127 146 109 127 146 109 127 145 109 127 145 109 127 145 109 127 145
109 127 145 109 127 145 109 127 145 109 127 145 109 127 145 109 127
145 108 126 144 108 126 144 108 126 144 108 126 144 108 126 144 108
126 144 108 126 144 108 126 144 108 126 144 108 126 144 108 126 143
108 126 143 108 125 143 108 125 143 107 125 143 107 125 143 107 125
143 107 125 143 107 125 143 107 125 143 107 125 143 107 125 142 107
125 142 107 125 142 107 124 142 107 124 142 107 124 142 106 124 142
106 124 142 106 124 142 106 124 142 106 124 141 106 124 141 106 124
141 106 124 141 106 123 141 106 123 141 106 123 141 106 123 141 106
123 141 106 123 141 105 123 140 105 123 140 105 123 140 105 123 140
105 123 140 105 123 140 105 122 140 105 122 140 105 122 140 105 122
140 105 122 139 105 122 139 105 122 139 104 122 139 104 122 139 104
122 139 104 122 139 104 121 139 104 121 139 104 121 139 104 121 138
104 121 138 104 121 138 104 121 138 104 121 138 104 121 138 103 121
138 103 121 138 103 120 138 103 120 138 103 120 137 103 120 137 103
120 137 103 120 137 103 120 137 103 120 137 103 120 137 103 120 137
103 120 137 103 120 137 102 119 136 102 119 136 102 119 136 102 119
136 102 119 136 102 119 136 102 119 136 102 119 136 102 119 136 102
119 135 102 119 135 102 118 135 102 118 135 101 118 135 101 118 135
101 118 135 101 118 135 101 118 135 101 118 135 101 118 134 101 118
134 101 118 134 101 117 134 101 117 134 101 117 134 101 117 134 100
117 134 100 117 134 100 117 134 100 117 133 100 117 133 100 117 133
100 117 133 100 116 133 100 116 133 100 116 133 100 116 133 100 116
133 100 116 133 99 116 132 99 116 132 99 116 132 99 116 132 99 116 132
99 116 132 99 115 132 99 115 132 99 115 132 99 115 132 99 115 131 99
115 131 99 115 131 98 115 131 98 115 131 98 115 131 98 115 131 98 114
131 98 114 131 98 114 131 98 114 130 98 114 130 98 114 130 98 114 130
98 114 130 98 114 130 97 114 130 97 114 130 97 113 130 97 113 130 97
113 129 97 113 129 97 113 129 97 113 129 97 113 129 97 113 129 97 113
129 97 113 129 97 113 129 96 112 128 96 112 128 96 112 128 96 112 128
96 112 128 96 112 128 96 112 128 96 112 128 96 112 128 96 112 128 96
112 127 96 112 127 96 111 127 96 111 127 95 111 127 95 111 127 95 111
127 95 111 127 95 111 127 95 111 127 95 111 127 95 111 126 95 111 126
95 110 126 95 110 126 95 110 126 95 110 126 94 110 126 94 110 126 94
110 126 94 110 126 94 110 125 94 110 125 94 110 125 94 110 125 94 109
125 94 109 125 94 109 125 94 109 125 94 109 125 94 109 125 93 109 124
93 109 124 93 109 124 93 109 124 93 109 124 93 109 124 93 108 124 93
108 124 93 108 124 93 108 124 93 108 123 93 108 123 93 108 123 93 108
123 92 108 123 92 108 123 92 108 123 92 107 123 92 107 123 92 107 123
92 107 122 92 107 122 92 107 122 92 107 122 92 107 122 92 107 122 92
107 122 91 107 122 91 107 122 91 106 122 91 106 122 91 106 121 91 106
121 91 106 121 91 106 121 91 106 121 91 106 121 91 106 121 91 106 121
91 106 121 91 106 121 90 105 120 90 105 120 90 105 120 90 105 120 90
105 120 90 105 120 90 105 120 90 105 120 90 105 120 90 105 120 90 105
120 90 105 119 90 105 119 90 104 119 90 104 119 89 104 119 89 104 119
89 104 119 89 104 119 89 104 119 89 104 119 89 104 119 89 104 118 89
104 118 89 104 118 89 103 118 89 103 118 89 103 118 89 103 118 88 103
118 88 103 118 88 103 118 88 103 118 88 103 117 88 103 117 88 103 117
110 128 147 110 128 146 110 128 146 110 128 146 110 128 146 110 128
146 110 128 146 110 128 146 109 128 146 109 128 146 109 127 146 109
127 146 109 127 145 109 127 145 109 127 145 109 127 145 109 127 145
109 127 145 109 127 145 109 127 145 109 127 145 109 127 145 108 126
144 108 126 144 108 126 144 108 126 144 108 126 144 108 126 144 108
126 144 108 126 144 108 126 144 108 126 144 108 126 144 108 126 143
108 125 143 108 125 143 107 125 143 107 125 143 107 125 143 107 125
143 107 125 143 107 125 143 107 125 143 107 125 142 107 125 142 107
125 142 107 124 142 107 124 142 107 124 142 107 124 142 106 124 142
106 124 142 106 124 142 106 124 141 106 124 141 106 124 141 106 124
141 106 123 141 106 123 141 106 123 141 106 123 141 106 123 141 106
123 141 105 123 140 105 123 140 105 123 140 105 123 140 105 123 140
105 123 140 105 122 140 105 122 140 105 122 140 105 122 140 105 122
139 105 122 139 105 122 139 104 122 139 104 122 139 104 122 139 104
122 139 104 121 139 104 121 139 104 121 139 104 121 138 104 121 138
104 121 138 104 121 138 104 121 138 104 121 138 104 121 138 103 121
138 103 120 138 103 120 138 103 120 137 103 120 137 103 120 137 103
120 137 103 120 137 103 120 137 103 120 137 103 120 137 103 120 137
103 120 137 102 119 136 102 119 136 102 119 136 102 119 136 102 119
136 102 119 136 102 119 136 102 119 136 102 119 136 102 119 136 102
119 135 102 118 135 102 118 135 101 118 135 101 118 135 101 118 135
101 118 135 101 118 135 101 118 135 101 118 134 101 118 134 101 118
134 101 117 134 101 117 134 101 117 134 101 117 134 100 117 134 100
117 134 100 117 134 100 117 133 100 117 133 100 117 133 100 117 133
100 116 133 100 116 133 100 116 133 100 116 133 100 116 133 100 116
133 99 116 132 99 116 132 99 116 132 99 116 132 99 116 132 99 116 132
99 115 132 99 115 132 99 115 132 99 115 132 99 115 131 99 115 131 99
115 131 98 115 131 98 115 131 98 115 131 98 115 131 98 114 131 98 114
131 98 114 131 98 114 130 98 114 130 98 114 130 98 114 130 98 114 130
98 114 130 97 114 130 97 114 130 97 113 130 97 113 130 97 113 129 97
113 129 97 113 129 97 113 129 97 113 129 97 113 129 97 113 129 97 113
129 97 113 129 97 113 129 96 112 128 96 112 128 96 112 128 96 112 128
96 112 128 96 112 128 96 112 128 96 112 128 96 112 128 96 112 128 96
112 127 96 111 127 96 111 127 95 111 127 95 111 127 95 111 127 95 111
127 95 111 127 95 111 127 95 111 127 95 111 126 95 111 126 95 111 126
95 110 126 95 110 126 95 110 126 94 110 126 94 110 126 94 110 126 94
110 126 94 110 125 94 110 125 94 110 125 94 110 125 94 109 125 94 109
125 94 109 125 94 109 125 94 109 125 94 109 125 93 109 124 93 109 124
93 109 124 93 109 124 93 109 124 93 109 124 93 108 124 93 108 124 93
108 124 93 108 124 93 108 123 93 108 123 93 108 123 93 108 123 92 108
123 92 108 123 92 108 123 92 108 123 92 107 123 92 107 123 92 107 122
92 107 122 92 107 122 92 107 122 92 107 122 92 107 122 92 107 122 91
107 122 91 107 122 91 106 122 91 106 122 91 106 121 91 106 121 91 106
121 91 106 121 91 106 121 91 106 121 91 106 121 91 106 121 91 106 121
91 106 121 90 105 120 90 105 120 90 105 120 90 105 120 90 105 120 90
105 120 90 105 120 90 105 120 90 105 120 90 105 120 90 105 120 90 105
119 90 105 119 90 104 119 90 104 119 89 104 119 89 104 119 89 104 119
89 104 119 89 104 119 89 104 119 89 104 119 89 104 118 89 104 118 89
104 118 89 103 118 89 103 118 89 103 118 89 103 118 88 103 118 88 103
118 88 103 118 88 103 118 88 103 117 88 103 117 88 103 117 88 103 117
110 128 146 110 128 146 110 128 146 110 128 146 110 128 146 110 128
146 110 128 146 109 128 146 109 128 146 109 127 146 109 127 146 109
127 145 109 127 145 109 127 145 109 127 145 109 127 145 109 127 145
109 127 145 109 127 145 109 127 145 109 127 145 108 126 144 108 126
144 108 126 144 108 126 144 108 126 144 108 126 144 108 126 144 108
126 144 108 126 144 108 126 144 108 126 144 108 126 143 108 125 143
108 125 143 107 125 143 107 125 143 107 125 143 107 125 143 107 125
143 107 125 143 107 125 143 107 125 142 107 125 142 107 125 142 107
124 142 107 124 142 107 124 142 107 124 142 106 124 142 106 124 142
106 124 142 106 124 141 106 124 141 106 124 141 106 124 141 106 123
141 106 123 141 106 123 141 106 123 141 106 123 141 106 123 141 105
123 140 105 123 140 105 123 140 105 123 140 105 123 140 105 123 140
105 122 140 105 122 140 105 122 140 105 122 140 105 122 139 105 122
139 105 122 139 105 122 139 104 122 139 104 122 139 104 122 139 104
121 139 104 121 139 104 121 139 104 121 138 104 121 138 104 121 138
104 121 138 104 121 138 104 121 138 104 121 138 103 121 138 103 121
138 103 120 138 103 120 137 103 120 137 103 120 137 103 120 137 103
120 137 103 120 137 103 120 137 103 120 137 103 120 137 103 120 137
102 119 136 102 119 136 102 119 136 102 119 136 102 119 136 102 119
136 102 119 136 102 119 136 102 119 136 102 119 136 102 119 135 102
118 135 102 118 135 101 118 135 101 118 135 101 118 135 101 118 135
101 118 135 101 118 135 101 118 135 101 118 134 101 118 134 101 117
134 101 117 134 101 117 134 101 117 134 100 117 134 100 117 134 100
117 134 100 117 133 100 117 133 100 117 133 100 117 133 100 117 133
100 116 133 100 116 133 100 116 133 100 116 133 100 116 133 99 116 132
99 116 132 99 116 132 99 116 132 99 116 132 99 116 132 99 115 132 99
115 132 99 115 132 99 115 132 99 115 131 99 115 131 99 115 131 98 115
131 98 115 131 98 115 131 98 115 131 98 114 131 98 114 131 98 114 131
98 114 130 98 114 130 98 114 130 98 114 130 98 114 130 98 114 130 97
114 130 97 114 130 97 113 130 97 113 130 97 113 129 97 113 129 97 113
129 97 113 129 97 113 129 97 113 129 97 113 129 97 113 129 97 113 129
97 113 129 96 112 128 96 112 128 96 112 128 96 112 128 96 112 128 96
112 128 96 112 128 96 112 128 96 112 128 96 112 128 96 112 127 96 111
127 96 111 127 95 111 127 95 111 127 95 111 127 95 111 127 95 111 127
95 111 127 95 111 127 95 111 126 95 111 126 95 111 126 95 110 126 95
110 126 95 110 126 94 110 126 94 110 126 94 110 126 94 110 126 94 110
125 94 110 125 94 110 125 94 110 125 94 109 125 94 109 125 94 109 125
94 109 125 94 109 125 94 109 125 93 109 124 93 109 124 93 109 124 93
109 124 93 109 124 93 109 124 93 108 124 93 108 124 93 108 124 93 108
124 93 108 123 93 108 123 93 108 123 93 108 123 92 108 123 92 108 123
92 108 123 92 108 123 92 107 123 92 107 123 92 107 123 92 107 122 92
107 122 92 107 122 92 107 122 92 107 122 92 107 122 91 107 122 91 107
122 91 106 122 91 106 122 91 106 121 91 106 121 91 106 121 91 106 121
91 106 121 91 106 121 91 106 121 91 106 121 91 106 121 91 106 121 90
105 120 90 105 120 90 105 120 90 105 120 90 105 120 90 105 120 90 105
120 90 105 120 90 105 120 90 105 120 90 105 120 90 105 119 90 105 119
90 104 119 90 104 119 89 104 119 89 104 119 89 104 119 89 104 119 89
104 119 89 104 119 89 104 119 89 104 118 89 104 118 89 104 118 89 103
118 89 103 118 89 103 118 89 103 118 88 103 118 88 103 118 88 103 118
88 103 117 88 103 117 88 103 117 88 103 117 88 103 117 88 102 117
110 128 146 110 128 146 110 128 146 110 128 146 110 128 146 110 128
146 109 128 146 109 128 146 109 127 146 109 127 146 109 127 145 109
127 145 109 127 145 109 127 145 109 127 145 109 127 145 109 127 145
109 127 145 109 127 145 109 127 145 108 126 144 108 126 144 108 126
144 108 126 144 108 126 144 108 126 144 108 126 144 108 126 144 108
126 144 108 126 144 108 126 144 108 126 143 108 125 143 108 125 143
107 125 143 107 125 143 107 125 143 107 125 143 107 125 143 107 125
143 107 125 143 107 125 142 107 125 142 107 125 142 107 124 142 107
124 142 107 124 142 107 124 142 106 124 142 106 124 142 106 124 142
106 124 141 106 124 141 106 124 141 106 124 141 106 124 141 106 123
141 106 123 141 106 123 141 106 123 141 106 123 141 105 123 140 105
123 140 105 123 140 105 123 140 105 123 140 105 123 140 105 122 140
105 122 140 105 122 140 105 122 140 105 122 139 105 122 139 105 122
139 105 122 139 104 122 139 104 122 139 104 122 139 104 121 139 104
121 139 104 121 139 104 121 138 104 121 138 104 121 138 104 121 138
104 121 138 104 121 138 104 121 138 103 121 138 103 121 138 103 120
138 103 120 137 103 120 137 103 120 137 103 120 137 103 120 137 103
120 137 103 120 137 103 120 137 103 120 137 103 120 137 102 119 136
102 119 136 102 119 136 102 119 136 102 119 136 102 119 136 102 119
136 102 119 136 102 119 136 102 119 136 102 119 135 102 118 135 102
118 135 101 118 135 101 118 135 101 118 135 101 118 135 101 118 135
101 118 135 101 118 135 101 118 134 101 118 134 101 118 134 101 117
134 101 117 134 101 117 134 100 117 134 100 117 134 100 117 134 100
117 134 100 117 133 100 117 133 100 117 133 100 117 133 100 116 133
100 116 133 100 116 133 100 116 133 100 116 133 99 116 132 99 116 132
99 116 132 99 116 132 99 116 132 99 116 132 99 115 132 99 115 132 99
115 132 99 115 132 99 115 131 99 115 131 99 115 131 98 115 131 98 115
131 98 115 131 98 115 131 98 114 131 98 114 131 98 114 131 98 114 130
98 114 130 98 114 130 98 114 130 98 114 130 98 114 130 98 114 130 97
114 130 97 114 130 97 113 130 97 113 129 97 113 129 97 113 129 97 113
129 97 113 129 97 113 129 97 113 129 97 113 129 97 113 129 97 113 129
96 112 128 96 112 128 96 112 128 96 112 128 96 112 128 96 112 128 96
112 128 96 112 128 96 112 128 96 112 128 96 112 127 96 111 127 96 111
127 95 111 127 95 111 127 95 111 127 95 111 127 95 111 127 95 111 127
95 111 127 95 111 126 95 111 126 95 111 126 95 110 126 95 110 126 95
110 126 95 110 126 94 110 126 94 110 126 94 110 126 94 110 125 94 110
125 94 110 125 94 110 125 94 109 125 94 109 125 94 109 125 94 109 125
94 109 125 94 109 125 93 109 124 93 109 124 93 109 124 93 109 124 93
109 124 93 109 124 93 108 124 93 108 124 93 108 124 93 108 124 93 108
123 93 108 123 93 108 123 93 108 123 92 108 123 92 108 123 92 108 123
92 108 123 92 107 123 92 107 123 92 107 123 92 107 122 92 107 122 92
107 122 92 107 122 92 107 122 92 107 122 91 107 122 91 107 122 91 106
122 91 106 122 91 106 121 91 106 121 91 106 121 91 106 121 91 106 121
91 106 121 91 106 121 91 106 121 91 106 121 91 106 121 90 105 120 90
105 120 90 105 120 90 105 120 90 105 120 90 105 120 90 105 120 90 105
120 90 105 120 90 105 120 90 105 120 90 105 119 90 105 119 90 104 119
90 104 119 89 104 119 89 104 119 89 104 119 89 104 119 89 104 119 89
104 119 89 104 119 89 104 118 89 104 118 89 104 118 89 103 118 89 103
118 89 103 118 89 103 118 88 103 118 88 103 118 88 103 118 88 103 117
88 103 117 88 103 117 88 103 117 88 103 117 88 102 117 88 102 117
110 128 146 110 128 146 110 128 146 110 128 146 110 128 146 109 128
146 109 128 146 109 127 146 109 127 146 109 127 145 109 127 145 109
127 145 109 127 145 109 127 145 109 127 145 109 127 145 109 127 145
109 127 145 109 127 145 108 126 144 108 126 144 108 126 144 108 126
144 108 126 144 108 126 144 108 126 144 108 126 144 108 126 144 108
126 144 108 126 144 108 126 143 108 125 143 108 125 143 107 125 143
107 125 143 107 125 143 107 125 143 107 125 143 107 125 143 107 125
143 107 125 142 107 125 142 107 125 142 107 124 142 107 124 142 107
124 142 107 124 142 106 124 142 106 124 142 106 124 142 106 124 141
106 124 141 106 124 141 106 124 141 106 124 141 106 123 141 106 123
141 106 123 141 106 123 141 106 123 141 105 123 140 105 123 140 105
123 140 105 123 140 105 123 140 105 123 140 105 122 140 105 122 140
105 122 140 105 122 140 105 122 139 105 122 139 105 122 139 105 122
139 104 122 139 104 122 139 104 122 139 104 122 139 104 121 139 104
121 139 104 121 138 104 121 138 104 121 138 104 121 138 104 121 138
104 121 138 104 121 138 103 121 138 103 121 138 103 120 138 103 120
137 103 120 137 103 120 137 103 120 137 103 120 137 103 120 137 103
120 137 103 120 137 103 120 137 103 120 137 102 119 136 102 119 136
102 119 136 102 119 136 102 119 136 102 119 136 102 119 136 102 119
136 102 119 136 102 119 136 102 119 135 102 118 135 102 118 135 101
118 135 101 118 135 101 118 135 101 118 135 101 118 135 101 118 135
101 118 135 101 118 134 101 118 134 101 118 134 101 117 134 101 117
134 101 117 134 100 117 134 100 117 134 100 117 134 100 117 134 100
117 133 100 117 133 100 117 133 100 117 133 100 116 133 100 116 133
100 116 133 100 116 133 100 116 133 99 116 132 99 116 132 99 116 132
99 116 132 99 116 132 99 116 132 99 115 132 99 115 132 99 115 132 99
115 132 99 115 131 99 115 131 99 115 131 99 115 131 98 115 131 98 115
131 98 115 131 98 114 131 98 114 131 98 114 131 98 114 130 98 114 130
98 114 130 98 114 130 98 114 130 98 114 130 98 114 130 97 114 130 97
114 130 97 113 130 97 113 129 97 113 129 97 113 129 97 113 129 97 113
129 97 113 129 97 113 129 97 113 129 97 113 129 97 113 129 96 112 128
96 112 128 96 112 128 96 112 128 96 112 128 96 112 128 96 112 128 96
112 128 96 112 128 96 112 128 96 112 127 96 111 127 96 111 127 95 111
127 95 111 127 95 111 127 95 111 127 95 111 127 95 111 127 95 111 127
95 111 126 95 111 126 95 111 126 95 110 126 95 110 126 95 110 126 95
110 126 94 110 126 94 110 126 94 110 126 94 110 125 94 110 125 94 110
125 94 110 125 94 109 125 94 109 125 94 109 125 94 109 125 94 109 125
94 109 125 93 109 124 93 109 124 93 109 124 93 109 124 93 109 124 93
109 124 93 108 124 93 108 124 93 108 124 93 108 124 93 108 123 93 108
123 93 108 123 93 108 123 92 108 123 92 108 123 92 108 123 92 108 123
92 107 123 92 107 123 92 107 123 92 107 122 92 107 122 92 107 122 92
107 122 92 107 122 92 107 122 92 107 122 91 107 122 91 106 122 91 106
122 91 106 121 91 106 121 91 106 121 91 106 121 91 106 121 91 106 121
91 106 121 91 106 121 91 106 121 91 106 121 90 105 120 90 105 120 90
105 120 90 105 120 90 105 120 90 105 120 90 105 120 90 105 120 90 105
120 90 105 120 90 105 120 90 105 119 90 104 119 90 104 119 90 104 119
89 104 119 89 104 119 89 104 119 89 104 119 89 104 119 89 104 119 89
104 119 89 104 118 89 104 118 89 104 118 89 103 118 89 103 118 89 103
118 89 103 118 88 103 118 88 103 118 88 103 118 88 103 117 88 103 117
88 103 117 88 103 117 88 103 117 88 102 117 88 102 117 88 102 117
110 128 146 110 128 146 110 128 146 110 128 146 109 128 146 109 128
146 109 127 146 109 127 146 109 127 145 109 127 145 109 127 145 109
127 145 109 127 145 109 127 145 109 127 145 109 127 145 109 127 145
109 127 145 109 127 145 108 126 144 108 126 144 108 126 144 108 126
144 108 126 144 108 126 144 108 126 144 108 126 144 108 126 144 108
126 144 108 126 143 108 125 143 108 125 143 107 125 143 107 125 143
107 125 143 107 125 143 107 125 143 107 125 143 107 125 143 107 125
142 107 125 142 107 125 142 107 124 142 107 124 142 107 124 142 107
124 142 106 124 142 106 124 142 106 124 142 106 124 142 106 124 141
106 124 141 106 124 141 106 124 141 106 123 141 106 123 141 106 123
141 106 123 141 106 123 141 106 123 141 105 123 140 105 123 140 105
123 140 105 123 140 105 123 140 105 122 140 105 122 140 105 122 140
105 122 140 105 122 140 105 122 139 105 122 139 105 122 139 104 122
139 104 122 139 104 122 139 104 122 139 104 121 139 104 121 139 104
121 139 104 121 138 104 121 138 104 121 138 104 121 138 104 121 138
104 121 138 103 121 138 103 121 138 103 120 138 103 120 137 103 120
137 103 120 137 103 120 137 103 120 137 103 120 137 103 120 137 103
120 137 103 120 137 103 120 137 102 119 136 102 119 136 102 119 136
102 119 136 102 119 136 102 119 136 102 119 136 102 119 136 102 119
136 102 119 136 102 119 135 102 119 135 102 118 135 101 118 135 101
118 135 101 118 135 101 118 135 101 118 135 101 118 135 101 118 135
101 118 134 101 118 134 101 118 134 101 117 134 101 117 134 101 117
134 101 117 134 100 117 134 100 117 134 100 117 134 100 117 133 100
117 133 100 117 133 100 117 133 100 116 133 100 116 133 100 116 133
100 116 133 100 116 133 100 116 133 99 116 132 99 116 132 99 116 132
99 116 132 99 116 132 99 115 132 99 115 132 99 115 132 99 115 132 99
115 131 99 115 131 99 115 131 99 115 131 98 115 131 98 115 131 98 115
131 98 114 131 98 114 131 98 114 131 98 114 130 98 114 130 98 114 130
98 114 130 98 114 130 98 114 130 98 114 130 97 114 130 97 114 130 97
113 130 97 113 129 97 113 129 97 113 129 97 113 129 97 113 129 97 113
129 97 113 129 97 113 129 97 113 129 97 113 129 96 112 128 96 112 128
96 112 128 96 112 128 96 112 128 96 112 128 96 112 128 96 112 128 96
112 128 96 112 128 96 112 127 96 111 127 96 111 127 95 111 127 95 111
127 95 111 127 95 111 127 95 111 127 95 111 127 95 111 127 95 111 126
95 111 126 95 111 126 95 110 126 95 110 126 95 110 126 95 110 126 94
110 126 94 110 126 94 110 126 94 110 125 94 110 125 94 110 125 94 110
125 94 109 125 94 109 125 94 109 125 94 109 125 94 109 125 94 109 125
93 109 124 93 109 124 93 109 124 93 109 124 93 109 124 93 109 124 93
108 124 93 108 124 93 108 124 93 108 124 93 108 123 93 108 123 93 108
123 93 108 123 92 108 123 92 108 123 92 108 123 92 108 123 92 107 123
92 107 123 92 107 123 92 107 122 92 107 122 92 107 122 92 107 122 92
107 122 92 107 122 92 107 122 91 107 122 91 107 122 91 106 122 91 106
121 91 106 121 91 106 121 91 106 121 91 106 121 91 106 121 91 106 121
91 106 121 91 106 121 91 106 121 90 105 120 90 105 120 90 105 120 90
105 120 90 105 120 90 105 120 90 105 120 90 105 120 90 105 120 90 105
120 90 105 120 90 105 119 90 104 119 90 104 119 89 104 119 89 104 119
89 104 119 89 104 119 89 104 119 89 104 119 89 104 119 89 104 119 89
104 118 89 104 118 89 104 118 89 103 118 89 103 118 89 103 118 89 103
118 88 103 118 88 103 118 88 103 118 88 103 117 88 103 117 88 103 117
88 103 117 88 103 117 88 102 117 88 102 117 88 102 117 88 102 117
110 128 146 110 128 146 110 128 146 109 128 146 109 128 146 109 127
146 109 127 146 109 127 145 109 127 145 109 127 145 109 127 145 109
127 145 109 127 145 109 127 145 109 127 145 109 127 145 109 127 145
109 127 145 108 126 144 108 126 144 108 126 144 108 126 144 108 126
144 108 126 144 108 126 144 108 126 144 108 126 144 108 126 144 108
126 143 108 126 143 108 125 143 108 125 143 107 125 143 107 125 143
107 125 143 107 125 143 107 125 143 107 125 143 107 125 142 107 125
142 107 125 142 107 124 142 107 124 142 107 124 142 107 124 142 106
124 142 106 124 142 106 124 142 106 124 142 106 124 141 106 124 141
106 124 141 106 124 141 106 123 141 106 123 141 106 123 141 106 123
141 106 123 141 106 123 141 105 123 140 105 123 140 105 123 140 105
123 140 105 123 140 105 122 140 105 122 140 105 122 140 105 122 140
105 122 140 105 122 139 105 122 139 105 122 139 104 122 139 104 122
139 104 122 139 104 122 139 104 121 139 104 121 139 104 121 139 104
121 138 104 121 138 104 121 138 104 121 138 104 121 138 104 121 138
103 121 138 103 121 138 103 120 138 103 120 138 103 120 137 103 120
137 103 120 137 103 120 137 103 120 137 103 120 137 103 120 137 103
120 137 103 120 137 102 119 136 102 119 136 102 119 136 102 119 136
102 119 136 102 119 136 102 119 136 102 119 136 102 119 136 102 119
136 102 119 135 102 119 135 102 118 135 102 118 135 101 118 135 101
118 135 101 118 135 101 118 135 101 118 135 101 118 135 101 118 134
101 118 134 101 118 134 101 117 134 101 117 134 101 117 134 101 117
134 100 117 134 100 117 134 100 117 134 100 117 133 100 117 133 100
117 133 100 117 133 100 116 133 100 116 133 100 116 133 100 116 133
100 116 133 100 116 133 99 116 132 99 116 132 99 116 132 99 116 132 99
116 132 99 115 132 99 115 132 99 115 132 99 115 132 99 115 132 99 115
131 99 115 131 99 115 131 98 115 131 98 115 131 98 115 131 98 115 131
98 114 131 98 114 131 98 114 130 98 114 130 98 114 130 98 114 130 98
114 130 98 114 130 98 114 130 97 114 130 97 114 130 97 113 130 97 113
129 97 113 129 97 113 129 97 113 129 97 113 129 97 113 129 97 113 129
97 113 129 97 113 129 97 113 129 96 112 128 96 112 128 96 112 128 96
112 128 96 112 128 96 112 128 96 112 128 96 112 128 96 112 128 96 112
128 96 112 127 96 112 127 96 111 127 95 111 127 95 111 127 95 111 127
95 111 127 95 111 127 95 111 127 95 111 127 95 111 126 95 111 126 95
111 126 95 110 126 95 110 126 95 110 126 95 110 126 94 110 126 94 110
126 94 110 126 94 110 125 94 110 125 94 110 125 94 110 125 94 109 125
94 109 125 94 109 125 94 109 125 94 109 125 94 109 125 93 109 124 93
109 124 93 109 124 93 109 124 93 109 124 93 109 124 93 108 124 93 108
124 93 108 124 93 108 124 93 108 123 93 108 123 93 108 123 93 108 123
92 108 123 92 108 123 92 108 123 92 108 123 92 107 123 92 107 123 92
107 123 92 107 122 92 107 122 92 107 122 92 107 122 92 107 122 92 107
122 92 107 122 91 107 122 91 107 122 91 106 122 91 106 121 91 106 121
91 106 121 91 106 121 91 106 121 91 106 121 91 106 121 91 106 121 91
106 121 91 106 121 90 105 120 90 105 120 90 105 120 90 105 120 90 105
120 90 105 120 90 105 120 90 105 120 90 105 120 90 105 120 90 105 120
90 105 119 90 104 119 90 104 119 89 104 119 89 104 119 89 104 119 89
104 119 89 104 119 89 104 119 89 104 119 89 104 119 89 104 118 89 104
118 89 104 118 89 103 118 89 103 118 89 103 118 89 103 118 88 103 118
88 103 118 88 103 118 88 103 117 88 103 117 88 103 117 88 103 117 88
103 117 88 102 117 88 102 117 88 102 117 88 102 117 88 102 117
110 128 146 110 128 146 109 128 146 109 128 146 109 127 146 109 127
146 109 127 145 109 127 145 109 127 145 109 127 145 109 127 145 109
127 145 109 127 145 109 127 145 109 127 145 109 127 145 109 127 145
108 126 144 108 126 144 108 126 144 108 126 144 108 126 144 108 126
144 108 126 144 108 126 144 108 126 144 108 126 144 108 126 143 108
126 143 108 125 143 108 125 143 107 125 143 107 125 143 107 125 143
107 125 143 107 125 143 107 125 143 107 125 142 107 125 142 107 125
142 107 124 142 107 124 142 107 124 142 107 124 142 106 124 142 106
124 142 106 124 142 106 124 142 106 124 141 106 124 141 106 124 141
106 124 141 106 123 141 106 123 141 106 123 141 106 123 141 106 123
141 106 123 141 105 123 140 105 123 140 105 123 140 105 123 140 105
123 140 105 123 140 105 122 140 105 122 140 105 122 140 105 122 140
105 122 139 105 122 139 105 122 139 104 122 139 104 122 139 104 122
139 104 122 139 104 121 139 104 121 139 104 121 139 104 121 138 104
121 138 104 121 138 104 121 138 104 121 138 104 121 138 103 121 138
103 121 138 103 120 138 103 120 138 103 120 137 103 120 137 103 120
137 103 120 137 103 120 137 103 120 137 103 120 137 103 120 137 103
120 137 103 120 137 102 119 136 102 119 136 102 119 136 102 119 136
102 119 136 102 119 136 102 119 136 102 119 136 102 119 136 102 119
135 102 119 135 102 118 135 102 118 135 101 118 135 101 118 135 101
118 135 101 118 135 101 118 135 101 118 135 101 118 134 101 118 134
101 118 134 101 117 134 101 117 134 101 117 134 101 117 134 100 117
134 100 117 134 100 117 134 100 117 133 100 117 133 100 117 133 100
117 133 100 116 133 100 116 133 100 116 133 100 116 133 100 116 133
100 116 133 99 116 132 99 116 132 99 116 132 99 116 132 99 116 132 99
115 132 99 115 132 99 115 132 99 115 132 99 115 132 99 115 131 99 115
131 99 115 131 98 115 131 98 115 131 98 115 131 98 115 131 98 114 131
98 114 131 98 114 131 98 114 130 98 114 130 98 114 130 98 114 130 98
114 130 98 114 130 97 114 130 97 114 130 97 113 130 97 113 129 97 113
129 97 113 129 97 113 129 97 113 129 97 113 129 97 113 129 97 113 129
97 113 129 97 113 129 96 112 128 96 112 128 96 112 128 96 112 128 96
112 128 96 112 128 96 112 128 96 112 128 96 112 128 96 112 128 96 112
127 96 112 127 96 111 127 96 111 127 95 111 127 95 111 127 95 111 127
95 111 127 95 111 127 95 111 127 95 111 126 95 111 126 95 111 126 95
110 126 95 110 126 95 110 126 95 110 126 94 110 126 94 110 126 94 110
126 94 110 125 94 110 125 94 110 125 94 110 125 94 110 125 94 109 125
94 109 125 94 109 125 94 109 125 94 109 125 93 109 124 93 109 124 93
109 124 93 109 124 93 109 124 93 109 124 93 108 124 93 108 124 93 108
124 93 108 124 93 108 123 93 108 123 93 108 123 93 108 123 92 108 123
92 108 123 92 108 123 92 108 123 92 107 123 92 107 123 92 107 123 92
107 122 92 107 122 92 107 122 92 107 122 92 107 122 92 107 122 92 107
122 91 107 122 91 107 122 91 106 122 91 106 121 91 106 121 91 106 121
91 106 121 91 106 121 91 106 121 91 106 121 91 106 121 91 106 121 91
106 121 90 105 120 90 105 120 90 105 120 90 105 120 90 105 120 90 105
120 90 105 120 90 105 120 90 105 120 90 105 120 90 105 120 90 105 119
90 104 119 90 104 119 89 104 119 89 104 119 89 104 119 89 104 119 89
104 119 89 104 119 89 104 119 89 104 119 89 104 118 89 104 118 89 104
118 89 103 118 89 103 118 89 103 118 89 103 118 88 103 118 88 103 118
88 103 118 88 103 117 88 103 117 88 103 117 88 103 117 88 103 117 88
102 117 88 102 117 88 102 117 88 102 117 88 102 117 88 102 117
110 128 146 109 128 146 109 128 146 109 127 146 109 127 146 109 127
145 109 127 145 109 127 145 109 127 145 109 127 145 109 127 145 109
127 145 109 127 145 109 127 145 109 127 145 109 127 145 108 126 144
108 126 144 108 126 144 108 126 144 108 126 144 108 126 144 108 126
144 108 126 144 108 126 144 108 126 144 108 126 143 108 126 143 108
125 143 108 125 143 107 125 143 107 125 143 107 125 143 107 125 143
107 125 143 107 125 143 107 125 143 107 125 142 107 125 142 107 125
142 107 124 142 107 124 142 107 124 142 106 124 142 106 124 142 106
124 142 106 124 142 106 124 141 106 124 141 106 124 141 106 124 141
106 123 141 106 123 141 106 123 141 106 123 141 106 123 141 106 123
141 105 123 140 105 123 140 105 123 140 105 123 140 105 123 140 105
123 140 105 122 140 105 122 140 105 122 140 105 122 140 105 122 139
105 122 139 105 122 139 104 122 139 104 122 139 104 122 139 104 122
139 104 121 139 104 121 139 104 121 139 104 121 138 104 121 138 104
121 138 104 121 138 104 121 138 104 121 138 104 121 138 103 121 138
103 120 138 103 120 138 103 120 137 103 120 137 103 120 137 103 120
137 103 120 137 103 120 137 103 120 137 103 120 137 103 120 137 103
120 137 102 119 136 102 119 136 102 119 136 102 119 136 102 119 136
102 119 136 102 119 136 102 119 136 102 119 136 102 119 136 102 119
135 102 118 135 102 118 135 101 118 135 101 118 135 101 118 135 101
118 135 101 118 135 101 118 135 101 118 134 101 118 134 101 118 134
101 117 134 101 117 134 101 117 134 101 117 134 100 117 134 100 117
134 100 117 134 100 117 133 100 117 133 100 117 133 100 117 133 100
116 133 100 116 133 100 116 133 100 116 133 100 116 133 100 116 133 99
116 132 99 116 132 99 116 132 99 116 132 99 116 132 99 116 132 99 115
132 99 115 132 99 115 132 99 115 132 99 115 131 99 115 131 99 115 131
98 115 131 98 115 131 98 115 131 98 115 131 98 114 131 98 114 131 98
114 131 98 114 130 98 114 130 98 114 130 98 114 130 98 114 130 98 114
130 97 114 130 97 114 130 97 113 130 97 113 129 97 113 129 97 113 129
97 113 129 97 113 129 97 113 129 97 113 129 97 113 129 97 113 129 97
113 129 96 112 128 96 112 128 96 112 128 96 112 128 96 112 128 96 112
128 96 112 128 96 112 128 96 112 128 96 112 128 96 112 127 96 112 127
96 111 127 96 111 127 95 111 127 95 111 127 95 111 127 95 111 127 95
111 127 95 111 127 95 111 126 95 111 126 95 111 126 95 110 126 95 110
126 95 110 126 95 110 126 94 110 126 94 110 126 94 110 126 94 110 125
94 110 125 94 110 125 94 110 125 94 110 125 94 109 125 94 109 125 94
109 125 94 109 125 94 109 125 93 109 124 93 109 124 93 109 124 93 109
124 93 109 124 93 109 124 93 108 124 93 108 124 93 108 124 93 108 124
93 108 123 93 108 123 93 108 123 93 108 123 92 108 123 92 108 123 92
108 123 92 108 123 92 107 123 92 107 123 92 107 123 92 107 122 92 107
122 92 107 122 92 107 122 92 107 122 92 107 122 92 107 122 91 107 122
91 107 122 91 106 122 91 106 121 91 106 121 91 106 121 91 106 121 91
106 121 91 106 121 91 106 121 91 106 121 91 106 121 91 106 121 90 105
120 90 105 120 90 105 120 90 105 120 90 105 120 90 105 120 90 105 120
90 105 120 90 105 120 90 105 120 90 105 120 90 105 119 90 104 119 90
104 119 89 104 119 89 104 119 89 104 119 89 104 119 89 104 119 89 104
119 89 104 119 89 104 118 89 104 118 89 104 118 89 104 118 89 103 118
89 103 118 89 103 118 89 103 118 88 103 118 88 103 118 88 103 118 88
103 117 88 103 117 88 103 117 88 103 117 88 103 117 88 102 117 88 102
117 88 102 117 88 102 117 88 102 117 88 102 117 87 102 116
109 128 146 109 128 146 109 127 146 109 127 146 109 127 145 109 127
145 109 127 145 109 127 145 109 127 145 109 127 145 109 127 145 109
127 145 109 127 145 109 127 145 109 127 145 108 126 144 108 126 144
108 126 144 108 126 144 108 126 144 108 126 144 108 126 144 108 126
144 108 126 144 108 126 144 108 126 143 108 126 143 108 125 143 108
125 143 107 125 143 107 125 143 107 125 143 107 125 143 107 125 143
107 125 143 107 125 143 107 125 142 107 125 142 107 125 142 107 124
142 107 124 142 107 124 142 106 124 142 106 124 142 106 124 142 106
124 142 106 124 141 106 124 141 106 124 141 106 124 141 106 123 141
106 123 141 106 123 141 106 123 141 106 123 141 106 123 141 105 123
140 105 123 140 105 123 140 105 123 140 105 123 140 105 123 140 105
122 140 105 122 140 105 122 140 105 122 140 105 122 139 105 122 139
105 122 139 104 122 139 104 122 139 104 122 139 104 122 139 104 121
139 104 121 139 104 121 139 104 121 138 104 121 138 104 121 138 104
121 138 104 121 138 104 121 138 104 121 138 103 121 138 103 121 138
103 120 138 103 120 137 103 120 137 103 120 137 103 120 137 103 120
137 103 120 137 103 120 137 103 120 137 103 120 137 103 120 137 102
119 136 102 119 136 102 119 136 102 119 136 102 119 136 102 119 136
102 119 136 102 119 136 102 119 136 102 119 136 102 119 135 102 118
135 102 118 135 101 118 135 101 118 135 101 118 135 101 118 135 101
118 135 101 118 135 101 118 135 101 118 134 101 118 134 101 117 134
101 117 134 101 117 134 101 117 134 100 117 134 100 117 134 100 117
134 100 117 133 100 117 133 100 117 133 100 117 133 100 116 133 100
116 133 100 116 133 100 116 133 100 116 133 100 116 133 99 116 132 99
116 132 99 116 132 99 116 132 99 116 132 99 116 132 99 115 132 99 115
132 99 115 132 99 115 132 99 115 131 99 115 131 99 115 131 98 115 131
98 115 131 98 115 131 98 115 131 98 114 131 98 114 131 98 114 131 98
114 130 98 114 130 98 114 130 98 114 130 98 114 130 98 114 130 97 114
130 97 114 130 97 113 130 97 113 130 97 113 129 97 113 129 97 113 129
97 113 129 97 113 129 97 113 129 97 113 129 97 113 129 97 113 129 96
112 128 96 112 128 96 112 128 96 112 128 96 112 128 96 112 128 96 112
128 96 112 128 96 112 128 96 112 128 96 112 127 96 112 127 96 111 127
96 111 127 95 111 127 95 111 127 95 111 127 95 111 127 95 111 127 95
111 127 95 111 126 95 111 126 95 111 126 95 110 126 95 110 126 95 110
126 95 110 126 94 110 126 94 110 126 94 110 126 94 110 125 94 110 125
94 110 125 94 110 125 94 110 125 94 109 125 94 109 125 94 109 125 94
109 125 94 109 125 93 109 124 93 109 124 93 109 124 93 109 124 93 109
124 93 109 124 93 108 124 93 108 124 93 108 124 93 108 124 93 108 124
93 108 123 93 108 123 93 108 123 92 108 123 92 108 123 92 108 123 92
108 123 92 107 123 92 107 123 92 107 123 92 107 122 92 107 122 92 107
122 92 107 122 92 107 122 92 107 122 92 107 122 91 107 122 91 107 122
91 106 122 91 106 121 91 106 121 91 106 121 91 106 121 91 106 121 91
106 121 91 106 121 91 106 121 91 106 121 91 106 121 90 105 120 90 105
120 90 105 120 90 105 120 90 105 120 90 105 120 90 105 120 90 105 120
90 105 120 90 105 120 90 105 120 90 105 119 90 104 119 90 104 119 89
104 119 89 104 119 89 104 119 89 104 119 89 104 119 89 104 119 89 104
119 89 104 118 89 104 118 89 104 118 89 103 118 89 103 118 89 103 118
89 103 118 89 103 118 88 103 118 88 103 118 88 103 118 88 103 117 88
103 117 88 103 117 88 103 117 88 103 117 88 102 117 88 102 117 88 102
117 88 102 117 88 102 117 88 102 117 87 102 116 87 102 116
109 128 146 109 127 146 109 127 146 109 127 145 109 127 145 109 127
145 109 127 145 109 127 145 109 127 145 109 127 145 109 127 145 109
127 145 109 127 145 109 127 145 108 126 144 108 126 144 108 126 144
108 126 144 108 126 144 108 126 144 108 126 144 108 126 144 108 126
144 108 126 144 108 126 143 108 126 143 108 125 143 108 125 143 107
125 143 107 125 143 107 125 143 107 125 143 107 125 143 107 125 143
107 125 143 107 125 142 107 125 142 107 125 142 107 124 142 107 124
142 107 124 142 107 124 142 106 124 142 106 124 142 106 124 142 106
124 141 106 124 141 106 124 141 106 124 141 106 123 141 106 123 141
106 123 141 106 123 141 106 123 141 106 123 141 105 123 140 105 123
140 105 123 140 105 123 140 105 123 140 105 123 140 105 122 140 105
122 140 105 122 140 105 122 140 105 122 139 105 122 139 105 122 139
105 122 139 104 122 139 104 122 139 104 122 139 104 121 139 104 121
139 104 121 139 104 121 138 104 121 138 104 121 138 104 121 138 104
121 138 104 121 138 104 121 138 103 121 138 103 121 138 103 120 138
103 120 137 103 120 137 103 120 137 103 120 137 103 120 137 103 120
137 103 120 137 103 120 137 103 120 137 103 120 137 102 119 136 102
119 136 102 119 136 102 119 136 102 119 136 102 119 136 102 119 136
102 119 136 102 119 136 102 119 136 102 119 135 102 118 135 102 118
135 101 118 135 101 118 135 101 118 135 101 118 135 101 118 135 101
118 135 101 118 135 101 118 134 101 118 134 101 117 134 101 117 134
101 117 134 101 117 134 100 117 134 100 117 134 100 117 134 100 117
133 100 117 133 100 117 133 100 117 133 100 117 133 100 116 133 100
116 133 100 116 133 100 116 133 100 116 133 99 116 132 99 116 132 99
116 132 99 116 132 99 116 132 99 116 132 99 115 132 99 115 132 99 115
132 99 115 132 99 115 131 99 115 131 99 115 131 98 115 131 98 115 131
98 115 131 98 115 131 98 114 131 98 114 131 98 114 131 98 114 130 98
114 130 98 114 130 98 114 130 98 114 130 98 114 130 97 114 130 97 114
130 97 113 130 97 113 130 97 113 129 97 113 129 97 113 129 97 113 129
97 113 129 97 113 129 97 113 129 97 113 129 97 113 129 97 113 129 96
112 128 96 112 128 96 112 128 96 112 128 96 112 128 96 112 128 96 112
128 96 112 128 96 112 128 96 112 127 96 112 127 96 111 127 96 111 127
95 111 127 95 111 127 95 111 127 95 111 127 95 111 127 95 111 127 95
111 126 95 111 126 95 111 126 95 110 126 95 110 126 95 110 126 95 110
126 94 110 126 94 110 126 94 110 126 94 110 125 94 110 125 94 110 125
94 110 125 94 110 125 94 109 125 94 109 125 94 109 125 94 109 125 94
109 125 93 109 124 93 109 124 93 109 124 93 109 124 93 109 124 93 109
124 93 108 124 93 108 124 93 108 124 93 108 124 93 108 124 93 108 123
93 108 123 93 108 123 92 108 123 92 108 123 92 108 123 92 108 123 92
107 123 92 107 123 92 107 123 92 107 122 92 107 122 92 107 122 92 107
122 92 107 122 92 107 122 92 107 122 91 107 122 91 107 122 91 106 122
91 106 121 91 106 121 91 106 121 91 106 121 91 106 121 91 106 121 91
106 121 91 106 121 91 106 121 91 106 121 90 105 120 90 105 120 90 105
120 90 105 120 90 105 120 90 105 120 90 105 120 90 105 120 90 105 120
90 105 120 90 105 120 90 105 119 90 104 119 90 104 119 89 104 119 89
104 119 89 104 119 89 104 119 89 104 119 89 104 119 89 104 119 89 104
118 89 104 118 89 104 118 89 103 118 89 103 118 89 103 118 89 103 118
89 103 118 88 103 118 88 103 118 88 103 118 88 103 117 88 103 117 88
103 117 88 103 117 88 103 117 88 102 117 88 102 117 88 102 117 88 102
117 88 102 117 88 102 117 87 102 116 87 102 116 87 102 116
109 127 146 109 127 146 109 127 145 109 127 145 109 127 145 109 127
145 109 127 145 109 127 145 109 127 145 109 127 145 109 127 145 109
127 145 109 127 145 108 126 144 108 126 144 108 126 144 108 126 144
108 126 144 108 126 144 108 126 144 108 126 144 108 126 144 108 126
144 108 126 143 108 126 143 108 125 143 108 125 143 107 125 143 107
125 143 107 125 143 107 125 143 107 125 143 107 125 143 107 125 143
107 125 142 107 125 142 107 125 142 107 124 142 107 124 142 107 124
142 107 124 142 106 124 142 106 124 142 106 124 142 106 124 141 106
124 141 106 124 141 106 124 141 106 123 141 106 123 141 106 123 141
106 123 141 106 123 141 106 123 141 105 123 140 105 123 140 105 123
140 105 123 140 105 123 140 105 123 140 105 122 140 105 122 140 105
122 140 105 122 140 105 122 139 105 122 139 105 122 139 105 122 139
104 122 139 104 122 139 104 122 139 104 121 139 104 121 139 104 121
139 104 121 138 104 121 138 104 121 138 104 121 138 104 121 138 104
121 138 104 121 138 103 121 138 103 121 138 103 120 138 103 120 137
103 120 137 103 120 137 103 120 137 103 120 137 103 120 137 103 120
137 103 120 137 103 120 137 103 120 137 102 119 136 102 119 136 102
119 136 102 119 136 102 119 136 102 119 136 102 119 136 102 119 136
102 119 136 102 119 136 102 119 135 102 118 135 102 118 135 101 118
135 101 118 135 101 118 135 101 118 135 101 118 135 101 118 135 101
118 135 101 118 134 101 118 134 101 118 134 101 117 134 101 117 134
101 117 134 100 117 134 100 117 134 100 117 134 100 117 134 100 117
133 100 117 133 100 117 133 100 117 133 100 116 133 100 116 133 100
116 133 100 116 133 100 116 133 99 116 132 99 116 132 99 116 132 99
116 132 99 116 132 99 116 132 99 115 132 99 115 132 99 115 132 99 115
132 99 115 131 99 115 131 99 115 131 98 115 131 98 115 131 98 115 131
98 115 131 98 114 131 98 114 131 98 114 131 98 114 130 98 114 130 98
114 130 98 114 130 98 114 130 98 114 130 97 114 130 97 114 130 97 113
130 97 113 130 97 113 129 97 113 129 97 113 129 97 113 129 97 113 129
97 113 129 97 113 129 97 113 129 97 113 129 97 113 129 96 112 128 96
112 128 96 112 128 96 112 128 96 112 128 96 112 128 96 112 128 96 112
128 96 112 128 96 112 127 96 112 127 96 111 127 96 111 127 95 111 127
95 111 127 95 111 127 95 111 127 95 111 127 95 111 127 95 111 126 95
111 126 95 111 126 95 110 126 95 110 126 95 110 126 95 110 126 94 110
126 94 110 126 94 110 126 94 110 125 94 110 125 94 110 125 94 110 125
94 110 125 94 109 125 94 109 125 94 109 125 94 109 125 94 109 125 93
109 124 93 109 124 93 109 124 93 109 124 93 109 124 93 109 124 93 108
124 93 108 124 93 108 124 93 108 124 93 108 124 93 108 123 93 108 123
93 108 123 92 108 123 92 108 123 92 108 123 92 108 123 92 107 123 92
107 123 92 107 123 92 107 122 92 107 122 92 107 122 92 107 122 92 107
122 92 107 122 92 107 122 91 107 122 91 107 122 91 106 122 91 106 121
91 106 121 91 106 121 91 106 121 91 106 121 91 106 121 91 106 121 91
106 121 91 106 121 91 106 121 90 105 120 90 105 120 90 105 120 90 105
120 90 105 120 90 105 120 90 105 120 90 105 120 90 105 120 90 105 120
90 105 120 90 105 119 90 104 119 90 104 119 89 104 119 89 104 119 89
104 119 89 104 119 89 104 119 89 104 119 89 104 119 89 104 118 89 104
118 89 104 118 89 103 118 89 103 118 89 103 118 89 103 118 88 103 118
88 103 118 88 103 118 88 103 118 88 103 117 88 103 117 88 103 117 88
103 117 88 103 117 88 102 117 88 102 117 88 102 117 88 102 117 88 102
117 88 102 117 87 102 116 87 102 116 87 102 116 87 102 116
109 127 146 109 127 145 109 127 145 109 127 145 109 127 145 109 127
145 109 127 145 109 127 145 109 127 145 109 127 145 109 127 145 109
127 145 108 126 144 108 126 144 108 126 144 108 126 144 108 126 144
108 126 144 108 126 144 108 126 144 108 126 144 108 126 144 108 126
143 108 126 143 108 125 143 108 125 143 107 125 143 107 125 143 107
125 143 107 125 143 107 125 143 107 125 143 107 125 143 107 125 142
107 125 142 107 125 142 107 124 142 107 124 142 107 124 142 107 124
142 106 124 142 106 124 142 106 124 142 106 124 141 106 124 141 106
124 141 106 124 141 106 123 141 106 123 141 106 123 141 106 123 141
106 123 141 106 123 141 105 123 140 105 123 140 105 123 140 105 123
140 105 123 140 105 123 140 105 122 140 105 122 140 105 122 140 105
122 140 105 122 139 105 122 139 105 122 139 105 122 139 104 122 139
104 122 139 104 122 139 104 122 139 104 121 139 104 121 139 104 121
138 104 121 138 104 121 138 104 121 138 104 121 138 104 121 138 104
121 138 103 121 138 103 121 138 103 120 138 103 120 137 103 120 137
103 120 137 103 120 137 103 120 137 103 120 137 103 120 137 103 120
137 103 120 137 103 120 137 102 119 136 102 119 136 102 119 136 102
119 136 102 119 136 102 119 136 102 119 136 102 119 136 102 119 136
102 119 136 102 119 135 102 118 135 102 118 135 101 118 135 101 118
135 101 118 135 101 118 135 101 118 135 101 118 135 101 118 135 101
118 134 101 118 134 101 118 134 101 117 134 101 117 134 101 117 134
100 117 134 100 117 134 100 117 134 100 117 134 100 117 133 100 117
133 100 117 133 100 117 133 100 116 133 100 116 133 100 116 133 100
116 133 100 116 133 99 116 132 99 116 132 99 116 132 99 116 132 99 116
132 99 116 132 99 115 132 99 115 132 99 115 132 99 115 132 99 115 131
99 115 131 99 115 131 98 115 131 98 115 131 98 115 131 98 115 131 98
114 131 98 114 131 98 114 131 98 114 130 98 114 130 98 114 130 98 114
130 98 114 130 98 114 130 98 114 130 97 114 130 97 113 130 97 113 130
97 113 129 97 113 129 97 113 129 97 113 129 97 113 129 97 113 129 97
113 129 97 113 129 97 113 129 97 113 129 96 112 128 96 112 128 96 112
128 96 112 128 96 112 128 96 112 128 96 112 128 96 112 128 96 112 128
96 112 128 96 112 127 96 111 127 96 111 127 95 111 127 95 111 127 95
111 127 95 111 127 95 111 127 95 111 127 95 111 126 95 111 126 95 111
126 95 110 126 95 110 126 95 110 126 95 110 126 94 110 126 94 110 126
94 110 126 94 110 125 94 110 125 94 110 125 94 110 125 94 110 125 94
109 125 94 109 125 94 109 125 94 109 125 94 109 125 94 109 125 93 109
124 93 109 124 93 109 124 93 109 124 93 109 124 93 108 124 93 108 124
93 108 124 93 108 124 93 108 124 93 108 123 93 108 123 93 108 123 92
108 123 92 108 123 92 108 123 92 108 123 92 107 123 92 107 123 92 107
123 92 107 122 92 107 122 92 107 122 92 107 122 92 107 122 92 107 122
92 107 122 91 107 122 91 107 122 91 106 122 91 106 121 91 106 121 91
106 121 91 106 121 91 106 121 91 106 121 91 106 121 91 106 121 91 106
121 91 106 121 90 105 120 90 105 120 90 105 120 90 105 120 90 105 120
90 105 120 90 105 120 90 105 120 90 105 120 90 105 120 90 105 120 90
105 119 90 104 119 90 104 119 89 104 119 89 104 119 89 104 119 89 104
119 89 104 119 89 104 119 89 104 119 89 104 118 89 104 118 89 104 118
89 103 118 89 103 118 89 103 118 89 103 118 88 103 118 88 103 118 88
103 118 88 103 118 88 103 117 88 103 117 88 103 117 88 103 117 88 103
117 88 102 117 88 102 117 88 102 117 88 102 117 88 102 117 88 102 117
87 102 116 87 102 116 87 102 116 87 102 116 87 102 116
109 127 145 109 127 145 109 127 145 109 127 145 109 127 145 109 127
145 109 127 145 109 127 145 109 127 145 109 127 145 109 127 145 108
126 144 108 126 144 108 126 144 108 126 144 108 126 144 108 126 144
108 126 144 108 126 144 108 126 144 108 126 144 108 126 143 108 126
143 108 125 143 108 125 143 107 125 143 107 125 143 107 125 143 107
125 143 107 125 143 107 125 143 107 125 143 107 125 142 107 125 142
107 125 142 107 124 142 107 124 142 107 124 142 107 124 142 106 124
142 106 124 142 106 124 142 106 124 141 106 124 141 106 124 141 106
124 141 106 124 141 106 123 141 106 123 141 106 123 141 106 123 141
106 123 141 105 123 140 105 123 140 105 123 140 105 123 140 105 123
140 105 123 140 105 122 140 105 122 140 105 122 140 105 122 140 105
122 139 105 122 139 105 122 139 105 122 139 104 122 139 104 122 139
104 122 139 104 122 139 104 121 139 104 121 139 104 121 138 104 121
138 104 121 138 104 121 138 104 121 138 104 121 138 104 121 138 103
121 138 103 121 138 103 120 138 103 120 137 103 120 137 103 120 137
103 120 137 103 120 137 103 120 137 103 120 137 103 120 137 103 120
137 103 120 137 102 119 136 102 119 136 102 119 136 102 119 136 102
119 136 102 119 136 102 119 136 102 119 136 102 119 136 102 119 136
102 119 135 102 119 135 102 118 135 101 118 135 101 118 135 101 118
135 101 118 135 101 118 135 101 118 135 101 118 135 101 118 134 101
118 134 101 118 134 101 117 134 101 117 134 101 117 134 100 117 134
100 117 134 100 117 134 100 117 134 100 117 133 100 117 133 100 117
133 100 117 133 100 116 133 100 116 133 100 116 133 100 116 133 100
116 133 99 116 132 99 116 132 99 116 132 99 116 132 99 116 132 99 116
132 99 115 132 99 115 132 99 115 132 99 115 132 99 115 131 99 115 131
99 115 131 99 115 131 98 115 131 98 115 131 98 115 131 98 114 131 98
114 131 98 114 131 98 114 130 98 114 130 98 114 130 98 114 130 98 114
130 98 114 130 98 114 130 97 114 130 97 113 130 97 113 130 97 113 129
97 113 129 97 113 129 97 113 129 97 113 129 97 113 129 97 113 129 97
113 129 97 113 129 97 113 129 96 112 128 96 112 128 96 112 128 96 112
128 96 112 128 96 112 128 96 112 128 96 112 128 96 112 128 96 112 128
96 112 127 96 111 127 96 111 127 95 111 127 95 111 127 95 111 127 95
111 127 95 111 127 95 111 127 95 111 127 95 111 126 95 111 126 95 110
126 95 110 126 95 110 126 95 110 126 94 110 126 94 110 126 94 110 126
94 110 126 94 110 125 94 110 125 94 110 125 94 110 125 94 109 125 94
109 125 94 109 125 94 109 125 94 109 125 94 109 125 93 109 124 93 109
124 93 109 124 93 109 124 93 109 124 93 108 124 93 108 124 93 108 124
93 108 124 93 108 124 93 108 123 93 108 123 93 108 123 92 108 123 92
108 123 92 108 123 92 108 123 92 107 123 92 107 123 92 107 123 92 107
122 92 107 122 92 107 122 92 107 122 92 107 122 92 107 122 92 107 122
91 107 122 91 107 122 91 106 122 91 106 121 91 106 121 91 106 121 91
106 121 91 106 121 91 106 121 91 106 121 91 106 121 91 106 121 91 106
121 90 105 120 90 105 120 90 105 120 90 105 120 90 105 120 90 105 120
90 105 120 90 105 120 90 105 120 90 105 120 90 105 120 90 105 119 90
104 119 90 104 119 89 104 119 89 104 119 89 104 119 89 104 119 89 104
119 89 104 119 89 104 119 89 104 118 89 104 118 89 104 118 89 103 118
89 103 118 89 103 118 89 103 118 88 103 118 88 103 118 88 103 118 88
103 118 88 103 117 88 103 117 88 103 117 88 103 117 88 102 117 88 102
117 88 102 117 88 102 117 88 102 117 88 102 117 88 102 117 87 102 116
87 102 116 87 102 116 87 102 116 87 102 116 87 102 116
109 127 145 109 127 145 109 127 145 109 127 145 109 127 145 109 127
145 109 127 145 109 127 145 109 127 145 109 127 145 108 126 144 108
126 144 108 126 144 108 126 144 108 126 144 108 126 144 108 126 144
108 126 144 108 126 144 108 126 144 108 126 143 108 126 143 108 125
143 108 125 143 107 125 143 107 125 143 107 125 143 107 125 143 107
125 143 107 125 143 107 125 143 107 125 142 107 125 142 107 125 142
107 124 142 107 124 142 107 124 142 107 124 142 106 124 142 106 124
142 106 124 142 106 124 141 106 124 141 106 124 141 106 124 141 106
124 141 106 123 141 106 123 141 106 123 141 106 123 141 106 123 141
105 123 140 105 123 140 105 123 140 105 123 140 105 123 140 105 123
140 105 122 140 105 122 140 105 122 140 105 122 140 105 122 139 105
122 139 105 122 139 105 122 139 104 122 139 104 122 139 104 122 139
104 122 139 104 121 139 104 121 139 104 121 139 104 121 138 104 121
138 104 121 138 104 121 138 104 121 138 104 121 138 103 121 138 103
121 138 103 120 138 103 120 137 103 120 137 103 120 137 103 120 137
103 120 137 103 120 137 103 120 137 103 120 137 103 120 137 103 120
137 102 119 136 102 119 136 102 119 136 102 119 136 102 119 136 102
119 136 102 119 136 102 119 136 102 119 136 102 119 136 102 119 135
102 119 135 102 118 135 101 118 135 101 118 135 101 118 135 101 118
135 101 118 135 101 118 135 101 118 135 101 118 134 101 118 134 101
118 134 101 117 134 101 117 134 101 117 134 101 117 134 100 117 134
100 117 134 100 117 134 100 117 133 100 117 133 100 117 133 100 117
133 100 116 133 100 116 133 100 116 133 100 116 133 100 116 133 100
116 133 99 116 132 99 116 132 99 116 132 99 116 132 99 116 132 99 115
132 99 115 132 99 115 132 99 115 132 99 115 131 99 115 131 99 115 131
99 115 131 98 115 131 98 115 131 98 115 131 98 114 131 98 114 131 98
114 131 98 114 130 98 114 130 98 114 130 98 114 130 98 114 130 98 114
130 98 114 130 97 114 130 97 114 130 97 113 130 97 113 129 97 113 129
97 113 129 97 113 129 97 113 129 97 113 129 97 113 129 97 113 129 97
113 129 97 113 129 96 112 128 96 112 128 96 112 128 96 112 128 96 112
128 96 112 128 96 112 128 96 112 128 96 112 128 96 112 128 96 112 127
96 111 127 96 111 127 95 111 127 95 111 127 95 111 127 95 111 127 95
111 127 95 111 127 95 111 127 95 111 126 95 111 126 95 110 126 95 110
126 95 110 126 95 110 126 94 110 126 94 110 126 94 110 126 94 110 126
94 110 125 94 110 125 94 110 125 94 110 125 94 109 125 94 109 125 94
109 125 94 109 125 94 109 125 94 109 125 93 109 124 93 109 124 93 109
124 93 109 124 93 109 124 93 108 124 93 108 124 93 108 124 93 108 124
93 108 124 93 108 123 93 108 123 93 108 123 92 108 123 92 108 123 92
108 123 92 108 123 92 107 123 92 107 123 92 107 123 92 107 122 92 107
122 92 107 122 92 107 122 92 107 122 92 107 122 92 107 122 91 107 122
91 107 122 91 106 122 91 106 121 91 106 121 91 106 121 91 106 121 91
106 121 91 106 121 91 106 121 91 106 121 91 106 121 91 106 121 90 105
120 90 105 120 90 105 120 90 105 120 90 105 120 90 105 120 90 105 120
90 105 120 90 105 120 90 105 120 90 105 120 90 105 119 90 104 119 90
104 119 89 104 119 89 104 119 89 104 119 89 104 119 89 104 119 89 104
119 89 104 119 89 104 118 89 104 118 89 104 118 89 103 118 89 103 118
89 103 118 89 103 118 88 103 118 88 103 118 88 103 118 88 103 118 88
103 117 88 103 117 88 103 117 88 103 117 88 102 117 88 102 117 88 102
117 88 102 117 88 102 117 88 102 117 88 102 117 87 102 116 87 102 116
87 102 116 87 102 116 87 102 116 87 102 116 87 101 116
109 127 145 109 127 145 109 127 145 109 127 145 109 127 145 109 127
145 109 127 145 109 127 145 109 127 145 108 126 144 108 126 144 108
126 144 108 126 144 108 126 144 108 126 144 108 126 144 108 126 144
108 126 144 108 126 144 108 126 143 108 126 143 108 125 143 108 125
143 107 125 143 107 125 143 107 125 143 107 125 143 107 125 143 107
125 143 107 125 143 107 125 142 107 125 142 107 125 142 107 124 142
107 124 142 107 124 142 107 124 142 106 124 142 106 124 142 106 124
142 106 124 141 106 124 141 106 124 141 106 124 141 106 124 141 106
123 141 106 123 141 106 123 141 106 123 141 106 123 141 105 123 140
105 123 140 105 123 140 105 123 140 105 123 140 105 123 140 105 122
140 105 122 140 105 122 140 105 122 140 105 122 140 105 122 139 105
122 139 105 122 139 104 122 139 104 122 139 104 122 139 104 122 139
104 121 139 104 121 139 104 121 139 104 121 138 104 121 138 104 121
138 104 121 138 104 121 138 104 121 138 103 121 138 103 121 138 103
120 138 103 120 138 103 120 137 103 120 137 103 120 137 103 120 137
103 120 137 103 120 137 103 120 137 103 120 137 103 120 137 102 119
136 102 119 136 102 119 136 102 119 136 102 119 136 102 119 136 102
119 136 102 119 136 102 119 136 102 119 136 102 119 135 102 119 135
102 118 135 102 118 135 101 118 135 101 118 135 101 118 135 101 118
135 101 118 135 101 118 135 101 118 134 101 118 134 101 118 134 101
117 134 101 117 134 101 117 134 101 117 134 100 117 134 100 117 134
100 117 134 100 117 133 100 117 133 100 117 133 100 117 133 100 116
133 100 116 133 100 116 133 100 116 133 100 116 133 100 116 133 99 116
132 99 116 132 99 116 132 99 116 132 99 116 132 99 115 132 99 115 132
99 115 132 99 115 132 99 115 131 99 115 131 99 115 131 99 115 131 98
115 131 98 115 131 98 115 131 98 114 131 98 114 131 170 173 175 167
169 172 163 166 168 159 162 164 98 114 130 98 114 130 98 114 130 98
114 130 97 114 130 97 114 130 97 113 130 97 113 129 97 113 129 97 113
129 97 113 129 97 113 129 97 113 129 97 113 129 97 113 129 97 113 129
97 113 129 96 112 128 96 112 128 96 112 128 96 112 128 96 112 128 96
112 128 167 169 172 163 166 168 159 162 164 155 157 160 96 112 127 96
111 127 96 111 127 95 111 127 95 111 127 95 111 127 95 111 127 95 111
127 95 111 127 95 111 127 95 111 126 95 111 126 95 110 126 95 110 126
95 110 126 95 110 126 94 110 126 94 110 126 94 110 126 94 110 126 94
110 125 94 110 125 94 110 125 94 110 125 94 109 125 94 109 125 94 109
125 94 109 125 94 109 125 94 109 125 93 109 124 93 109 124 93 109 124
93 109 124 93 109 124 93 108 124 93 108 124 93 108 124 93 108 124 93
108 124 93 108 123 93 108 123 93 108 123 92 108 123 92 108 123 92 108
123 92 108 123 92 107 123 92 107 123 92 107 123 92 107 122 92 107 122
92 107 122 92 107 122 92 107 122 92 107 122 92 107 122 91 107 122 91
107 122 91 106 122 91 106 121 91 106 121 91 106 121 91 106 121 91 106
121 91 106 121 91 106 121 91 106 121 91 106 121 91 106 121 90 105 120
90 105 120 90 105 120 90 105 120 90 105 120 90 105 120 90 105 120 90
105 120 90 105 120 90 105 120 90 105 120 90 105 119 90 104 119 90 104
119 89 104 119 89 104 119 89 104 119 89 104 119 89 104 119 89 104 119
89 104 119 89 104 118 89 104 118 89 104 118 89 103 118 89 103 118 89
103 118 89 103 118 88 103 118 88 103 118 88 103 118 88 103 118 88 103
117 88 103 117 88 103 117 88 103 117 88 102 117 88 102 117 88 102 117
88 102 117 88 102 117 88 102 117 87 102 116 87 102 116 87 102 116 87
102 116 87 102 116 87 102 116 87 102 116 87 101 116 87 101 116
109 127 145 109 127 145 109 127 145 109 127 145 109 127 145 109 127
145 109 127 145 108 126 144 108 126 144 108 126 144 108 126 144 108
126 144 108 126 144 108 126 144 108 126 144 108 126 144 108 126 144
108 126 144 108 126 143 108 126 143 108 125 143 108 125 143 107 125
143 107 125 143 107 125 143 107 125 143 107 125 143 107 125 143 107
125 143 107 125 142 107 125 142 107 125 142 107 124 142 107 124 142
107 124 142 107 124 142 106 124 142 106 124 142 106 124 142 106 124
141 106 124 141 106 124 141 106 124 141 106 124 141 106 123 141 106
123 141 106 123 141 106 123 141 106 123 141 105 123 140 105 123 140
105 123 140 105 123 140 105 123 140 105 123 140 105 122 140 105 122
140 105 122 140 105 122 140 105 122 140 105 122 139 105 122 139 105
122 139 104 122 139 104 122 139 104 122 139 104 122 139 104 121 139
104 121 139 104 121 139 104 121 138 104 121 138 104 121 138 104 121
138 104 121 138 104 121 138 103 121 138 103 121 138 103 120 138 103
120 138 103 120 137 103 120 137 103 120 137 103 120 137 103 120 137
103 120 137 103 120 137 103 120 137 103 120 137 102 119 136 102 119
136 102 119 136 102 119 136 102 119 136 102 119 136 102 119 136 102
119 136 102 119 136 102 119 136 102 119 135 102 119 135 102 118 135
102 118 135 101 118 135 101 118 135 101 118 135 101 118 135 101 118
135 101 118 135 101 118 134 101 118 134 101 118 134 101 117 134 101
117 134 101 117 134 101 117 134 100 117 134 100 117 134 100 117 134
100 117 133 100 117 133 100 117 133 100 117 133 100 116 133 100 116
133 100 116 133 100 116 133 100 116 133 100 116 133 99 116 132 99 116
132 99 116 132 99 116 132 99 116 132 99 115 132 99 115 132 99 115 132
99 115 132 99 115 132 99 115 131 99 115 131 194 197 199 194 196 199
193 195 198 191 194 196 189 192 194 187 189 192 184 187 189 181 184
186 178 180 183 174 177 179 170 173 175 166 168 171 161 164 166 156
159 161 151 153 156 145 147 150 138 141 144 131 134 136 97 113 129 97
113 129 97 113 129 97 113 129 97 113 129 97 113 129 97 113 129 97 113
129 97 113 129 192 195 198 192 194 197 190 193 196 189 191 194 187 189
192 185 187 190 182 184 187 179 181 184 176 178 181 172 174 177 168
170 173 163 166 168 159 161 164 153 156 158 147 150 152 141 143 146
133 136 138 125 127 130 95 111 127 95 111 127 95 111 126 95 111 126 95
111 126 95 110 126 95 110 126 95 110 126 94 110 126 94 110 126 94 110
126 94 110 126 94 110 125 94 110 125 94 110 125 94 110 125 94 109 125
94 109 125 94 109 125 94 109 125 94 109 125 94 109 125 93 109 124 93
109 124 93 109 124 93 109 124 93 109 124 93 108 124 93 108 124 93 108
124 93 108 124 93 108 124 93 108 123 93 108 123 93 108 123 92 108 123
92 108 123 92 108 123 92 108 123 92 107 123 92 107 123 92 107 123 92
107 122 92 107 122 92 107 122 92 107 122 92 107 122 92 107 122 92 107
122 91 107 122 91 107 122 91 106 122 91 106 121 91 106 121 91 106 121
91 106 121 91 106 121 91 106 121 91 106 121 91 106 121 91 106 121 91
106 121 90 105 120 90 105 120 90 105 120 90 105 120 90 105 120 90 105
120 90 105 120 90 105 120 90 105 120 90 105 120 90 105 120 90 105 119
90 104 119 90 104 119 89 104 119 89 104 119 89 104 119 89 104 119 89
104 119 89 104 119 89 104 119 89 104 118 89 104 118 89 104 118 89 103
118 89 103 118 89 103 118 89 103 118 88 103 118 88 103 118 88 103 118
88 103 118 88 103 117 88 103 117 88 103 117 88 103 117 88 102 117 88
102 117 88 102 117 88 102 117 88 102 117 88 102 117 87 102 116 87 102
116 87 102 116 87 102 116 87 102 116 87 102 116 87 101 116 87 101 116
87 101 116 87 101 116
109 127 145 109 127 145 109 127 145 109 127 145 109 127 145 109 127
145 108 126 144 108 126 144 108 126 144 108 126 144 108 126 144 108
126 144 108 126 144 108 126 144 108 126 144 108 126 144 108 126 144
108 126 143 108 126 143 108 125 143 108 125 143 107 125 143 107 125
143 107 125 143 107 125 143 107 125 143 107 125 143 107 125 143 107
125 142 107 125 142 107 125 142 107 124 142 107 124 142 107 124 142
107 124 142 106 124 142 106 124 142 106 124 142 106 124 141 106 124
141 106 124 141 106 124 141 106 124 141 106 123 141 106 123 141 106
123 141 106 123 141 106 123 141 105 123 140 105 123 140 105 123 140
105 123 140 105 123 140 105 123 140 105 122 140 105 122 140 105 122
140 105 122 140 105 122 140 105 122 139 105 122 139 105 122 139 104
122 139 104 122 139 104 122 139 104 122 139 104 121 139 104 121 139
104 121 139 104 121 138 104 121 138 104 121 138 104 121 138 104 121
138 104 121 138 103 121 138 103 121 138 103 120 138 103 120 138 103
120 137 103 120 137 103 120 137 103 120 137 103 120 137 103 120 137
103 120 137 103 120 137 103 120 137 103 120 137 102 119 136 102 119
136 102 119 136 102 119 136 102 119 136 102 119 136 102 119 136 102
119 136 102 119 136 102 119 135 102 119 135 102 118 135 102 118 135
101 118 135 101 118 135 101 118 135 101 118 135 101 118 135 101 118
135 101 118 134 101 118 134 101 118 134 101 117 134 101 117 134 101
117 134 101 117 134 100 117 134 100 117 134 100 117 134 100 117 133
100 117 133 100 117 133 100 117 133 100 116 133 100 116 133 100 116
133 100 116 133 100 116 133 100 116 133 99 116 132 99 116 132 99 116
132 99 116 132 99 116 132 99 115 132 99 115 132 99 115 132 99 115 132
99 115 132 205 208 210 206 208 211 205 208 210 205 207 210 203 206 208
202 204 207 200 202 205 198 200 203 195 198 200 192 195 197 189 192
194 186 188 191 182 185 187 178 181 183 174 177 179 170 172 175 165
168 170 160 163 165 155 157 160 149 151 154 143 145 148 136 138 141
128 131 134 120 123 125 97 113 129 97 113 129 203 206 208 204 206 209
204 207 209 204 206 209 203 205 208 202 204 207 200 203 205 198 201
203 196 199 201 194 196 199 191 194 196 188 191 193 185 187 190 181
184 186 177 180 183 173 176 178 169 171 174 164 167 169 159 161 164
153 156 158 147 149 152 140 143 145 132 135 137 124 126 129 113 116
118 95 111 126 95 110 126 95 110 126 95 110 126 94 110 126 94 110 126
94 110 126 94 110 126 94 110 125 94 110 125 94 110 125 94 110 125 94
109 125 94 109 125 94 109 125 94 109 125 94 109 125 94 109 125 93 109
124 93 109 124 93 109 124 93 109 124 93 109 124 93 108 124 93 108 124
93 108 124 93 108 124 93 108 124 93 108 123 93 108 123 93 108 123 92
108 123 92 108 123 92 108 123 92 108 123 92 107 123 92 107 123 92 107
123 92 107 122 92 107 122 92 107 122 92 107 122 92 107 122 92 107 122
92 107 122 91 107 122 91 106 122 91 106 122 91 106 121 91 106 121 91
106 121 91 106 121 91 106 121 91 106 121 91 106 121 91 106 121 91 106
121 91 106 121 90 105 120 90 105 120 90 105 120 90 105 120 90 105 120
90 105 120 90 105 120 90 105 120 90 105 120 90 105 120 90 105 120 90
105 119 90 104 119 90 104 119 89 104 119 89 104 119 89 104 119 89 104
119 89 104 119 89 104 119 89 104 119 89 104 118 89 104 118 89 104 118
89 103 118 89 103 118 89 103 118 89 103 118 88 103 118 88 103 118 88
103 118 88 103 118 88 103 117 88 103 117 88 103 117 88 103 117 88 102
117 88 102 117 88 102 117 88 102 117 88 102 117 88 102 117 87 102 116
87 102 116 87 102 116 87 102 116 87 102 116 87 102 116 87 101 116 87
101 116 87 101 116 87 101 116 87 101 116
109 127 145 109 127 145 109 127 145 109 127 145 109 127 145 108 126
144 108 126 144 108 126 144 108 126 144 108 126 144 108 126 144 108
126 144 108 126 144 108 126 144 108 126 144 108 126 144 108 126 143
108 126 143 108 125 143 108 125 143 107 125 143 107 125 143 107 125
143 107 125 143 107 125 143 107 125 143 107 125 143 107 125 142 107
125 142 107 125 142 107 124 142 107 124 142 107 124 142 107 124 142
106 124 142 106 124 142 106 124 142 106 124 141 106 124 141 106 124
141 106 124 141 106 124 141 106 123 141 106 123 141 106 123 141 106
123 141 106 123 141 105 123 140 105 123 140 105 123 140 105 123 140
105 123 140 105 123 140 105 122 140 105 122 140 105 122 140 105 122
140 105 122 140 105 122 139 105 122 139 105 122 139 104 122 139 104
122 139 104 122 139 104 122 139 104 121 139 104 121 139 104 121 139
104 121 138 104 121 138 104 121 138 104 121 138 104 121 138 104 121
138 103 121 138 103 121 138 103 120 138 103 120 138 103 120 137 103
120 137 103 120 137 103 120 137 103 120 137 103 120 137 103 120 137
103 120 137 103 120 137 103 120 137 102 119 136 102 119 136 102 119
136 102 119 136 102 119 136 102 119 136 102 119 136 102 119 136 102
119 136 102 119 135 102 119 135 102 118 135 102 118 135 101 118 135
101 118 135 101 118 135 101 118 135 101 118 135 101 118 135 101 118
134 101 118 134 101 118 134 101 117 134 101 117 134 101 117 134 101
117 134 100 117 134 100 117 134 100 117 134 100 117 133 100 117 133
100 117 133 100 117 133 100 116 133 100 116 133 100 116 133 100 116
133 100 116 133 100 116 133 99 116 132 99 116 132 99 116 132 99 116
132 99 116 132 99 115 132 99 115 132 99 115 132 212 214 217 214 216
219 214 217 220 215 217 220 214 217 219 213 216 218 212 215 217 211
213 216 209 211 214 207 209 212 204 207 209 201 204 207 199 201 204
195 198 201 192 195 197 188 191 194 185 187 190 181 183 186 176 179
182 172 174 177 167 170 172 162 165 167 157 159 162 151 153 156 145
147 150 138 141 143 131 134 136 123 126 128 213 215 218 213 216 218
213 216 218 213 215 218 212 215 217 211 213 216 209 212 215 208 210
213 206 208 211 204 206 209 201 204 206 198 201 203 195 198 201 192
195 197 189 191 194 185 188 190 181 184 186 177 179 182 172 175 178
168 170 173 162 165 167 157 159 162 151 153 156 144 147 149 137 139
142 129 131 134 120 122 125 108 111 114 94 97 99 94 110 126 94 110 126
94 110 126 94 110 126 94 110 125 94 110 125 94 110 125 94 110 125 94
109 125 94 109 125 94 109 125 94 109 125 94 109 125 94 109 125 93 109
124 93 109 124 93 109 124 93 109 124 93 109 124 93 108 124 93 108 124
93 108 124 93 108 124 93 108 124 93 108 123 93 108 123 93 108 123 92
108 123 92 108 123 92 108 123 92 108 123 92 107 123 92 107 123 92 107
123 92 107 122 92 107 122 92 107 122 92 107 122 92 107 122 92 107 122
92 107 122 91 107 122 91 106 122 91 106 122 91 106 121 91 106 121 91
106 121 91 106 121 91 106 121 91 106 121 91 106 121 91 106 121 91 106
121 91 106 121 90 105 120 90 105 120 90 105 120 90 105 120 90 105 120
90 105 120 90 105 120 90 105 120 90 105 120 90 105 120 90 105 120 90
105 119 90 104 119 90 104 119 89 104 119 89 104 119 89 104 119 89 104
119 89 104 119 89 104 119 89 104 119 89 104 118 89 104 118 89 104 118
89 103 118 89 103 118 89 103 118 89 103 118 88 103 118 88 103 118 88
103 118 88 103 117 88 103 117 88 103 117 88 103 117 88 103 117 88 102
117 88 102 117 88 102 117 88 102 117 88 102 117 88 102 117 87 102 116
87 102 116 87 102 116 87 102 116 87 102 116 87 102 116 87 101 116 87
101 116 87 101 116 87 101 116 87 101 116 87 101 115
109 127 145 109 127 145 109 127 145 109 127 145 108 126 144 108 126
144 108 126 144 108 126 144 108 126 144 108 126 144 108 126 144 108
126 144 108 126 144 108 126 144 108 126 144 108 126 143 108 126 143
108 125 143 108 125 143 107 125 143 107 125 143 107 125 143 107 125
143 107 125 143 107 125 143 107 125 143 107 125 142 107 125 142 107
125 142 107 124 142 107 124 142 107 124 142 107 124 142 106 124 142
106 124 142 106 124 142 106 124 141 106 124 141 106 124 141 106 124
141 106 124 141 106 123 141 106 123 141 106 123 141 106 123 141 106
123 141 105 123 140 105 123 140 105 123 140 105 123 140 105 123 140
105 123 140 105 122 140 105 122 140 105 122 140 105 122 140 105 122
140 105 122 139 105 122 139 105 122 139 104 122 139 104 122 139 104
122 139 104 122 139 104 121 139 104 121 139 104 121 139 104 121 138
104 121 138 104 121 138 104 121 138 104 121 138 104 121 138 103 121
138 103 121 138 103 120 138 103 120 138 103 120 137 103 120 137 103
120 137 103 120 137 103 120 137 103 120 137 103 120 137 103 120 137
103 120 137 103 120 137 102 119 136 102 119 136 102 119 136 102 119
136 102 119 136 102 119 136 102 119 136 102 119 136 102 119 136 102
119 136 102 119 135 102 118 135 102 118 135 101 118 135 101 118 135
101 118 135 101 118 135 101 118 135 101 118 135 101 118 134 101 118
134 101 118 134 101 117 134 101 117 134 101 117 134 101 117 134 100
117 134 100 117 134 100 117 134 100 117 133 100 117 133 100 117 133
100 117 133 100 116 133 100 116 133 100 116 133 100 116 133 100 116
133 100 116 133 99 116 132 99 116 132 99 116 132 99 116 132 99 116 132
99 116 132 99 115 132 217 220 223 220 223 225 222 224 227 222 225 227
222 225 227 222 224 227 221 223 226 220 222 225 218 221 223 216 219
221 214 217 219 212 214 217 209 212 215 207 209 212 204 206 209 201
203 206 197 200 202 194 196 199 190 193 195 186 189 191 182 184 187
178 180 183 173 175 178 168 171 173 163 165 168 158 160 163 152 154
157 146 148 151 139 142 144 132 135 137 124 127 129 221 224 226 221
223 226 220 222 225 219 221 224 217 220 223 216 218 221 214 217 219
212 214 217 210 212 215 207 210 212 204 207 210 201 204 207 198 201
203 195 198 200 191 194 196 188 190 193 184 186 189 179 182 184 175
177 180 170 172 175 165 167 170 159 162 164 153 156 158 147 149 152
140 142 145 132 134 137 123 126 128 113 116 118 101 103 106 84 87 89
94 110 126 94 110 125 94 110 125 94 110 125 94 110 125 94 109 125 94
109 125 94 109 125 94 109 125 94 109 125 94 109 125 93 109 124 93 109
124 93 109 124 93 109 124 93 109 124 93 108 124 93 108 124 93 108 124
93 108 124 93 108 124 93 108 123 93 108 123 93 108 123 92 108 123 92
108 123 92 108 123 92 108 123 92 107 123 92 107 123 92 107 123 92 107
122 92 107 122 92 107 122 92 107 122 92 107 122 92 107 122 92 107 122
91 107 122 91 106 122 91 106 122 91 106 121 91 106 121 91 106 121 91
106 121 91 106 121 91 106 121 91 106 121 91 106 121 91 106 121 91 106
121 90 105 120 90 105 120 90 105 120 90 105 120 90 105 120 90 105 120
90 105 120 90 105 120 90 105 120 90 105 120 90 105 119 90 105 119 90
104 119 90 104 119 89 104 119 89 104 119 89 104 119 89 104 119 89 104
119 89 104 119 89 104 119 89 104 118 89 104 118 89 104 118 89 103 118
89 103 118 89 103 118 89 103 118 88 103 118 88 103 118 88 103 118 88
103 117 88 103 117 88 103 117 88 103 117 88 103 117 88 102 117 88 102
117 88 102 117 88 102 117 88 102 117 88 102 117 87 102 116 87 102 116
87 102 116 87 102 116 87 102 116 87 102 116 87 101 116 87 101 116 87
101 116 87 101 116 87 101 116 87 101 115 87 101 115
109 127 145 109 127 145 109 127 145 108 126 144 108 126 144 108 126
144 108 126 144 108 126 144 108 126 144 108 126 144 108 126 144 108
126 144 108 126 144 108 126 144 108 126 143 108 126 143 108 125 143
108 125 143 107 125 143 107 125 143 107 125 143 107 125 143 107 125
143 107 125 143 107 125 143 107 125 142 107 125 142 107 125 142 107
124 142 107 124 142 107 124 142 107 124 142 106 124 142 106 124 142
106 124 142 106 124 141 106 124 141 106 124 141 106 124 141 106 124
141 106 123 141 106 123 141 106 123 141 106 123 141 106 123 141 105
123 140 105 123 140 105 123 140 105 123 140 105 123 140 105 123 140
105 122 140 105 122 140 105 122 140 105 122 140 105 122 140 105 122
139 105 122 139 105 122 139 104 122 139 104 122 139 104 122 139 104
122 139 104 121 139 104 121 139 104 121 139 104 121 138 104 121 138
104 121 138 104 121 138 104 121 138 104 121 138 103 121 138 103 121
138 103 120 138 103 120 138 103 120 137 103 120 137 103 120 137 103
120 137 103 120 137 103 120 137 103 120 137 103 120 137 103 120 137
103 120 137 102 119 136 102 119 136 102 119 136 102 119 136 102 119
136 102 119 136 102 119 136 102 119 136 102 119 136 102 119 136 102
119 135 102 118 135 102 118 135 101 118 135 101 118 135 101 118 135
101 118 135 101 118 135 101 118 135 101 118 134 101 118 134 101 118
134 101 117 134 101 117 134 101 117 134 101 117 134 100 117 134 100
117 134 100 117 134 100 117 133 100 117 133 100 117 133 100 117 133
100 116 133 100 116 133 100 116 133 100 116 133 100 116 133 100 116
133 99 116 132 99 116 132 99 116 132 99 116 132 99 116 132 99 116 132
221 224 226 225 227 230 227 230 232 228 231 233 229 231 234 229 231
234 228 231 233 227 230 233 226 229 231 225 227 230 223 226 228 221
224 226 219 221 224 216 219 222 214 216 219 211 214 216 208 211 213
205 208 210 202 204 207 198 201 203 194 197 200 191 193 196 187 189
192 182 185 187 178 180 183 173 176 178 168 171 173 163 165 168 157
160 163 152 154 157 146 148 151 139 142 144 132 135 137 227 230 232
227 229 232 226 228 231 224 227 229 223 225 228 221 224 226 219 222
224 217 220 222 215 217 220 212 215 217 210 212 215 207 209 212 204
206 209 200 203 205 197 199 202 193 196 198 189 192 194 185 187 190
181 183 186 176 178 181 171 174 176 166 168 171 160 163 165 154 157
159 148 150 153 141 143 146 133 136 138 125 127 130 115 118 120 104
107 109 90 93 95 94 110 125 94 110 125 94 110 125 94 109 125 94 109
125 94 109 125 94 109 125 94 109 125 94 109 125 93 109 124 93 109 124
93 109 124 93 109 124 93 109 124 93 108 124 93 108 124 93 108 124 93
108 124 93 108 124 93 108 123 93 108 123 93 108 123 92 108 123 92 108
123 92 108 123 92 108 123 92 107 123 92 107 123 92 107 123 92 107 122
92 107 122 92 107 122 92 107 122 92 107 122 92 107 122 91 107 122 91
107 122 91 106 122 91 106 122 91 106 121 91 106 121 91 106 121 91 106
121 91 106 121 91 106 121 91 106 121 91 106 121 91 106 121 91 106 121
90 105 120 90 105 120 90 105 120 90 105 120 90 105 120 90 105 120 90
105 120 90 105 120 90 105 120 90 105 120 90 105 119 90 105 119 90 104
119 90 104 119 89 104 119 89 104 119 89 104 119 89 104 119 89 104 119
89 104 119 89 104 119 89 104 118 89 104 118 89 104 118 89 103 118 89
103 118 89 103 118 89 103 118 88 103 118 88 103 118 88 103 118 88 103
117 88 103 117 88 103 117 88 103 117 88 103 117 88 102 117 88 102 117
88 102 117 88 102 117 88 102 117 88 102 117 87 102 116 87 102 116 87
102 116 87 102 116 87 102 116 87 102 116 87 101 116 87 101 116 87 101
116 87 101 116 87 101 116 87 101 115 87 101 115 87 101 115
109 127 145 109 127 145 108 126 144 108 126 144 108 126 144 108 126
144 108 126 144 108 126 144 108 126 144 108 126 144 108 126 144 108
126 144 108 126 144 108 126 143 108 125 143 108 125 143 107 125 143
107 125 143 107 125 143 107 125 143 107 125 143 107 125 143 107 125
143 107 125 143 107 125 142 107 125 142 107 125 142 107 124 142 107
124 142 107 124 142 107 124 142 106 124 142 106 124 142 106 124 142
106 124 141 106 124 141 106 124 141 106 124 141 106 124 141 106 123
141 106 123 141 106 123 141 106 123 141 106 123 141 105 123 140 105
123 140 105 123 140 105 123 140 105 123 140 105 123 140 105 122 140
105 122 140 105 122 140 105 122 140 105 122 140 105 122 139 105 122
139 105 122 139 104 122 139 104 122 139 104 122 139 104 122 139 104
121 139 104 121 139 104 121 139 104 121 138 104 121 138 104 121 138
104 121 138 104 121 138 104 121 138 103 121 138 103 121 138 103 120
138 103 120 138 103 120 137 103 120 137 103 120 137 103 120 137 103
120 137 103 120 137 103 120 137 103 120 137 103 120 137 103 120 137
102 119 136 102 119 136 102 119 136 102 119 136 102 119 136 102 119
136 102 119 136 102 119 136 102 119 136 102 119 136 102 119 135 102
118 135 102 118 135 101 118 135 101 118 135 101 118 135 101 118 135
101 118 135 101 118 135 101 118 134 101 118 134 101 118 134 101 117
134 101 117 134 101 117 134 101 117 134 100 117 134 100 117 134 100
117 134 100 117 133 100 117 133 100 117 133 100 117 133 100 116 133
100 116 133 100 116 133 100 116 133 100 116 133 100 116 133 99 116 132
99 116 132 99 116 132 99 116 132 99 116 132 222 224 227 228 230 233
231 233 236 233 235 238 234 237 239 235 237 240 234 237 240 234 237
239 233 236 238 232 235 237 231 233 236 229 232 234 227 230 232 225
228 230 223 225 228 220 223 225 218 220 223 215 217 220 212 214 217
209 211 214 205 208 210 202 204 207 198 201 203 194 197 200 190 193
196 186 189 191 182 184 187 177 180 182 173 175 178 167 170 173 162
165 167 157 159 162 151 153 156 145 147 150 138 141 143 233 235 238
232 234 237 230 233 236 229 232 234 228 230 233 226 228 231 224 226
229 222 224 227 219 222 224 217 219 222 214 217 219 211 214 216 208
211 213 205 207 210 201 204 206 198 200 203 194 196 199 190 192 195
186 188 191 181 184 186 176 179 181 171 174 177 166 169 171 161 163
166 155 157 160 148 151 153 141 144 146 134 136 139 125 128 130 116
119 121 105 108 110 92 95 97 74 77 79 94 109 125 94 109 125 94 109 125
94 109 125 94 109 125 94 109 125 93 109 124 93 109 124 93 109 124 93
109 124 93 109 124 93 108 124 93 108 124 93 108 124 93 108 124 93 108
124 93 108 123 93 108 123 93 108 123 92 108 123 92 108 123 92 108 123
92 108 123 92 107 123 92 107 123 92 107 123 92 107 122 92 107 122 92
107 122 92 107 122 92 107 122 92 107 122 91 107 122 91 107 122 91 106
122 91 106 122 91 106 121 91 106 121 91 106 121 91 106 121 91 106 121
91 106 121 91 106 121 91 106 121 91 106 121 91 106 121 90 105 120 90
105 120 90 105 120 90 105 120 90 105 120 90 105 120 90 105 120 90 105
120 90 105 120 90 105 120 90 105 119 90 105 119 90 104 119 90 104 119
89 104 119 89 104 119 89 104 119 89 104 119 89 104 119 89 104 119 89
104 119 89 104 118 89 104 118 89 104 118 89 103 118 89 103 118 89 103
118 89 103 118 88 103 118 88 103 118 88 103 118 88 103 117 88 103 117
88 103 117 88 103 117 88 103 117 88 102 117 88 102 117 88 102 117 88
102 117 88 102 117 88 102 117 87 102 116 87 102 116 87 102 116 87 102
116 87 102 116 87 102 116 87 101 116 87 101 116 87 101 116 87 101 116
87 101 115 87 101 115 87 101 115 87 101 115 86 101 115
109 127 145 108 126 144 108 126 144 108 126 144 108 126 144 108 126
144 108 126 144 108 126 144 108 126 144 108 126 144 108 126 144 108
126 144 108 126 143 108 125 143 108 125 143 107 125 143 107 125 143
107 125 143 107 125 143 107 125 143 107 125 143 107 125 143 107 125
143 107 125 142 107 125 142 107 125 142 107 124 142 107 124 142 107
124 142 107 124 142 106 124 142 106 124 142 106 124 142 106 124 141
106 124 141 106 124 141 106 124 141 106 124 141 106 123 141 106 123
141 106 123 141 106 123 141 106 123 141 105 123 140 105 123 140 105
123 140 105 123 140 105 123 140 105 123 140 105 122 140 105 122 140
105 122 140 105 122 140 105 122 140 105 122 139 105 122 139 105 122
139 104 122 139 104 122 139 104 122 139 104 122 139 104 121 139 104
121 139 104 121 139 104 121 138 104 121 138 104 121 138 104 121 138
104 121 138 104 121 138 103 121 138 103 121 138 103 120 138 103 120
138 103 120 137 103 120 137 103 120 137 103 120 137 103 120 137 103
120 137 103 120 137 103 120 137 103 120 137 103 120 137 102 119 136
102 119 136 102 119 136 102 119 136 102 119 136 102 119 136 102 119
136 102 119 136 102 119 136 102 119 136 102 119 135 102 118 135 102
118 135 101 118 135 101 118 135 101 118 135 101 118 135 101 118 135
101 118 135 101 118 134 101 118 134 101 118 134 101 117 134 101 117
134 101 117 134 101 117 134 100 117 134 100 117 134 100 117 134 100
117 133 100 117 133 100 117 133 100 117 133 100 116 133 100 116 133
100 116 133 100 116 133 100 116 133 100 116 133 99 116 132 99 116 132
99 116 132 99 116 132 99 116 132 227 230 233 233 235 238 236 239 241
238 240 243 239 242 244 240 242 245 239 242 245 239 242 244 238 241
243 237 240 242 236 238 241 234 237 239 233 235 238 231 233 236 228
231 234 226 229 231 224 226 229 221 223 226 218 221 223 215 218 220
212 214 217 209 211 214 205 208 210 202 204 207 198 200 203 194 196
199 190 192 195 185 188 191 181 183 186 176 179 181 171 174 176 166
169 171 161 163 166 155 158 160 149 152 155 143 146 148 237 240 242
236 238 241 235 237 240 233 236 238 232 234 237 230 232 235 228 230
233 225 228 231 223 226 228 221 223 226 218 220 223 215 217 220 212
214 217 209 211 214 205 208 210 202 204 207 198 201 203 194 197 199
190 192 195 186 188 191 181 184 186 176 179 181 171 174 176 166 168
171 160 163 165 154 157 159 148 150 153 141 143 146 133 136 138 125
128 130 116 118 121 105 108 110 93 95 98 76 79 81 94 109 125 94 109
125 94 109 125 94 109 125 93 109 124 93 109 124 93 109 124 93 109 124
93 109 124 93 108 124 93 108 124 93 108 124 93 108 124 93 108 124 93
108 123 93 108 123 93 108 123 92 108 123 92 108 123 92 108 123 92 108
123 92 107 123 92 107 123 92 107 123 92 107 122 92 107 122 92 107 122
92 107 122 92 107 122 92 107 122 91 107 122 91 107 122 91 106 122 91
106 122 91 106 121 91 106 121 91 106 121 91 106 121 91 106 121 91 106
121 91 106 121 91 106 121 91 106 121 91 106 121 90 105 120 90 105 120
90 105 120 90 105 120 90 105 120 90 105 120 90 105 120 90 105 120 90
105 120 90 105 120 90 105 119 90 105 119 90 104 119 90 104 119 89 104
119 89 104 119 89 104 119 89 104 119 89 104 119 89 104 119 89 104 119
89 104 118 89 104 118 89 104 118 89 103 118 89 103 118 89 103 118 89
103 118 88 103 118 88 103 118 88 103 118 88 103 117 88 103 117 88 103
117 88 103 117 88 103 117 88 102 117 88 102 117 88 102 117 88 102 117
88 102 117 88 102 117 87 102 116 87 102 116 87 102 116 87 102 116 87
102 116 87 102 116 87 101 116 87 101 116 87 101 116 87 101 116 87 101
115 87 101 115 87 101 115 87 101 115 86 101 115 86 101 115
108 126 144 108 126 144 108 126 144 108 126 144 108 126 144 108 126
144 108 126 144 108 126 144 108 126 144 108 126 144 108 126 144 108
126 143 108 125 143 108 125 143 107 125 143 107 125 143 107 125 143
107 125 143 107 125 143 107 125 143 107 125 143 107 125 142 107 125
142 107 125 142 107 124 142 107 124 142 107 124 142 107 124 142 106
124 142 106 124 142 106 124 142 106 124 142 106 124 141 106 124 141
106 124 141 106 124 141 106 123 141 106 123 141 106 123 141 106 123
141 106 123 141 106 123 141 105 123 140 105 123 140 105 123 140 105
123 140 105 123 140 105 123 140 105 122 140 105 122 140 105 122 140
105 122 140 105 122 140 105 122 139 105 122 139 105 122 139 104 122
139 104 122 139 104 122 139 104 122 139 104 121 139 104 121 139 104
121 139 104 121 138 104 121 138 104 121 138 104 121 138 104 121 138
104 121 138 103 121 138 103 121 138 103 120 138 103 120 138 103 120
137 103 120 137 103 120 137 103 120 137 103 120 137 103 120 137 103
120 137 103 120 137 103 120 137 103 120 137 102 119 136 102 119 136
102 119 136 102 119 136 102 119 136 102 119 136 102 119 136 102 119
136 102 119 136 102 119 136 102 119 135 102 118 135 102 118 135 101
118 135 101 118 135 101 118 135 101 118 135 101 118 135 101 118 135
101 118 135 101 118 134 101 118 134 101 117 134 101 117 134 101 117
134 101 117 134 100 117 134 100 117 134 100 117 134 100 117 133 100
117 133 100 117 133 100 117 133 100 117 133 100 116 133 100 116 133
100 116 133 100 116 133 100 116 133 99 116 132 99 116 132 99 116 132
99 116 132 99 116 132 232 234 237 237 240 242 240 243 245 242 245 247
243 246 248 244 246 249 244 246 249 244 246 249 243 245 248 242 244
247 241 243 246 239 242 244 238 240 243 236 238 241 234 236 239 231
234 236 229 231 234 226 229 231 224 226 229 221 223 226 218 220 223
215 217 220 211 214 217 208 211 213 204 207 209 201 203 206 197 199
202 193 195 198 188 191 194 184 187 189 180 182 185 175 177 180 170
172 175 165 167 170 159 162 164 153 156 159 147 150 153 241 243 246
240 242 245 238 241 243 237 239 242 235 238 240 233 236 238 231 234
236 229 231 234 226 229 232 224 226 229 221 224 226 218 221 223 215
218 220 212 215 217 209 211 214 205 208 210 202 204 207 198 200 203
194 196 199 190 192 195 185 188 190 180 183 186 176 178 181 170 173
175 165 168 170 159 162 164 153 156 158 147 149 152 140 142 145 132
135 137 124 126 129 115 117 120 104 107 109 92 94 97 76 78 81 46 49 51
94 109 125 93 109 124 93 109 124 93 109 124 93 109 124 93 109 124 93
108 124 93 108 124 93 108 124 93 108 124 93 108 124 93 108 123 93 108
123 93 108 123 92 108 123 92 108 123 92 108 123 92 108 123 92 107 123
92 107 123 92 107 123 92 107 122 92 107 122 92 107 122 92 107 122 92
107 122 92 107 122 91 107 122 91 107 122 91 106 122 91 106 122 91 106
121 91 106 121 91 106 121 91 106 121 91 106 121 91 106 121 91 106 121
91 106 121 91 106 121 91 106 121 90 105 120 90 105 120 90 105 120 90
105 120 90 105 120 90 105 120 90 105 120 90 105 120 90 105 120 90 105
120 90 105 119 90 105 119 90 104 119 90 104 119 89 104 119 89 104 119
89 104 119 89 104 119 89 104 119 89 104 119 89 104 119 89 104 118 89
104 118 89 104 118 89 103 118 89 103 118 89 103 118 89 103 118 88 103
118 88 103 118 88 103 118 88 103 117 88 103 117 88 103 117 88 103 117
88 103 117 88 102 117 88 102 117 88 102 117 88 102 117 88 102 117 88
102 117 87 102 116 87 102 116 87 102 116 87 102 116 87 102 116 87 102
116 87 101 116 87 101 116 87 101 116 87 101 116 87 101 115 87 101 115
87 101 115 87 101 115 86 101 115 86 101 115 86 101 115
108 126 144 108 126 144 108 126 144 108 126 144 108 126 144 108 126
144 108 126 144 108 126 144 108 126 144 108 126 144 108 126 143 108
125 143 108 125 143 107 125 143 107 125 143 107 125 143 107 125 143
107 125 143 107 125 143 107 125 143 107 125 142 107 125 142 107 125
142 107 124 142 107 124 142 107 124 142 107 124 142 106 124 142 106
124 142 106 124 142 106 124 142 106 124 141 106 124 141 106 124 141
106 124 141 106 123 141 106 123 141 106 123 141 106 123 141 106 123
141 106 123 141 105 123 140 105 123 140 105 123 140 105 123 140 105
123 140 105 123 140 105 122 140 105 122 140 105 122 140 105 122 140
105 122 140 105 122 139 105 122 139 105 122 139 104 122 139 104 122
139 104 122 139 104 122 139 104 121 139 104 121 139 104 121 139 104
121 138 104 121 138 104 121 138 104 121 138 104 121 138 104 121 138
103 121 138 103 121 138 103 120 138 103 120 138 103 120 137 103 120
137 103 120 137 103 120 137 103 120 137 103 120 137 103 120 137 103
120 137 103 120 137 103 120 137 102 119 136 102 119 136 102 119 136
102 119 136 102 119 136 102 119 136 102 119 136 102 119 136 102 119
136 102 119 136 102 119 135 102 118 135 102 118 135 101 118 135 101
118 135 101 118 135 101 118 135 101 118 135 101 118 135 101 118 135
101 118 134 101 118 134 101 117 134 101 117 134 101 117 134 101 117
134 100 117 134 100 117 134 100 117 134 100 117 133 100 117 133 100
117 133 100 117 133 100 117 133 100 116 133 100 116 133 100 116 133
100 116 133 100 116 133 99 116 132 99 116 132 99 116 132 99 116 132
226 228 231 235 238 240 241 243 246 244 246 249 246 248 251 247 250
252 248 250 253 248 250 253 248 250 253 247 250 252 246 249 251 245
247 250 244 246 249 242 245 247 240 243 245 238 241 243 236 239 241
234 236 239 231 234 237 229 231 234 226 229 231 223 226 228 220 223
225 217 220 222 214 216 219 210 213 216 207 209 212 203 206 208 199
202 204 195 198 200 191 194 196 187 189 192 182 185 187 178 180 183
173 175 178 168 170 173 162 165 168 157 159 162 151 154 156 244 247
249 243 245 248 241 244 247 240 242 245 238 241 243 236 239 241 234
237 239 232 234 237 229 232 234 227 229 232 224 227 229 221 224 226
218 221 223 215 218 220 212 214 217 208 211 213 205 207 210 201 204
206 197 200 202 193 195 198 189 191 194 184 187 189 179 182 184 174
177 179 169 172 174 164 166 169 158 160 163 152 154 157 145 148 150
138 140 143 130 133 135 122 124 127 113 115 118 102 105 107 90 92 95
74 76 79 47 49 52 93 109 124 93 109 124 93 109 124 93 109 124 93 108
124 93 108 124 93 108 124 93 108 124 93 108 124 93 108 123 93 108 123
93 108 123 92 108 123 92 108 123 92 108 123 92 108 123 92 107 123 92
107 123 92 107 123 92 107 122 92 107 122 92 107 122 92 107 122 92 107
122 92 107 122 91 107 122 91 107 122 91 106 122 91 106 122 91 106 121
91 106 121 91 106 121 91 106 121 91 106 121 91 106 121 91 106 121 91
106 121 91 106 121 91 106 121 90 105 120 90 105 120 90 105 120 90 105
120 90 105 120 90 105 120 90 105 120 90 105 120 90 105 120 90 105 120
90 105 119 90 105 119 90 104 119 90 104 119 89 104 119 89 104 119 89
104 119 89 104 119 89 104 119 89 104 119 89 104 118 89 104 118 89 104
118 89 103 118 89 103 118 89 103 118 89 103 118 88 103 118 88 103 118
88 103 118 88 103 118 88 103 117 88 103 117 88 103 117 88 103 117 88
102 117 88 102 117 88 102 117 88 102 117 88 102 117 88 102 117 87 102
116 87 102 116 87 102 116 87 102 116 87 102 116 87 102 116 87 102 116
87 101 116 87 101 116 87 101 116 87 101 116 87 101 115 87 101 115 87
101 115 87 101 115 86 101 115 86 101 115 86 101 115 86 101 115
108 126 144 108 126 144 108 126 144 108 126 144 108 126 144 108 126
144 108 126 144 108 126 144 108 126 143 108 126 143 108 125 143 108
125 143 107 125 143 107 125 143 107 125 143 107 125 143 107 125 143
107 125 143 107 125 143 107 125 142 107 125 142 107 125 142 107 124
142 107 124 142 107 124 142 107 124 142 106 124 142 106 124 142 106
124 142 106 124 142 106 124 141 106 124 141 106 124 141 106 124 141
106 123 141 106 123 141 106 123 141 106 123 141 106 123 141 106 123
141 105 123 140 105 123 140 105 123 140 105 123 140 105 123 140 105
123 140 105 122 140 105 122 140 105 122 140 105 122 140 105 122 140
105 122 139 105 122 139 105 122 139 104 122 139 104 122 139 104 122
139 104 122 139 104 121 139 104 121 139 104 121 139 104 121 138 104
121 138 104 121 138 104 121 138 104 121 138 104 121 138 103 121 138
103 121 138 103 120 138 103 120 138 103 120 137 103 120 137 103 120
137 103 120 137 103 120 137 103 120 137 103 120 137 103 120 137 103
120 137 103 120 137 102 119 136 102 119 136 102 119 136 102 119 136
102 119 136 102 119 136 102 119 136 102 119 136 102 119 136 102 119
136 102 119 135 102 118 135 102 118 135 101 118 135 101 118 135 101
118 135 101 118 135 101 118 135 101 118 135 101 118 135 101 118 134
101 118 134 101 117 134 101 117 134 101 117 134 101 117 134 100 117
134 100 117 134 100 117 134 100 117 133 100 117 133 100 117 133 100
117 133 100 117 133 100 116 133 100 116 133 100 116 133 100 116 133
100 116 133 99 116 132 99 116 132 99 116 132 99 116 132 228 230 233
238 240 243 243 246 248 247 249 252 249 252 254 250 253 255 251 254
255 251 254 255 251 254 255 251 253 255 250 252 255 249 251 254 248
250 253 246 249 251 244 247 249 243 245 248 241 243 246 238 241 243
236 239 241 234 236 239 231 234 236 228 231 233 225 228 230 222 225
227 219 222 224 216 218 221 213 215 218 209 212 214 205 208 210 202
204 207 198 200 203 193 196 199 189 192 194 185 187 190 180 183 185
175 178 181 171 173 176 165 168 170 160 162 165 154 157 159 148 151
154 246 248 251 244 247 249 243 245 248 241 243 246 239 241 244 237
239 242 234 237 239 232 234 237 229 232 234 227 229 232 224 226 229
221 223 226 218 220 223 215 217 220 211 214 216 208 210 213 204 206
209 200 203 205 196 198 201 192 194 197 187 190 192 183 185 188 178
180 183 173 175 178 167 170 173 162 164 167 156 158 161 150 152 155
143 145 148 136 138 141 128 130 133 119 122 125 110 113 115 99 102 104
87 89 92 71 73 76 43 45 48 93 109 124 93 109 124 93 108 124 93 108 124
93 108 124 93 108 124 93 108 124 93 108 123 93 108 123 93 108 123 92
108 123 92 108 123 92 108 123 92 108 123 92 107 123 92 107 123 92 107
123 92 107 122 92 107 122 92 107 122 92 107 122 92 107 122 92 107 122
91 107 122 91 107 122 91 106 122 91 106 122 91 106 121 91 106 121 91
106 121 91 106 121 91 106 121 91 106 121 91 106 121 91 106 121 91 106
121 91 106 121 90 105 120 90 105 120 90 105 120 90 105 120 90 105 120
90 105 120 90 105 120 90 105 120 90 105 120 90 105 120 90 105 119 90
105 119 90 104 119 89 104 119 89 104 119 89 104 119 89 104 119 89 104
119 89 104 119 89 104 119 89 104 118 89 104 118 89 104 118 89 103 118
89 103 118 89 103 118 89 103 118 88 103 118 88 103 118 88 103 118 88
103 118 88 103 117 88 103 117 88 103 117 88 103 117 88 102 117 88 102
117 88 102 117 88 102 117 88 102 117 88 102 117 87 102 116 87 102 116
87 102 116 87 102 116 87 102 116 87 102 116 87 101 116 87 101 116 87
101 116 87 101 116 87 101 116 87 101 115 87 101 115 87 101 115 87 101
115 86 101 115 86 101 115 86 101 115 86 101 115 86 100 115
108 126 144 108 126 144 108 126 144 108 126 144 108 126 144 108 126
144 108 126 144 108 126 143 108 126 143 108 125 143 108 125 143 107
125 143 107 125 143 107 125 143 107 125 143 107 125 143 107 125 143
107 125 143 107 125 142 107 125 142 107 125 142 107 124 142 107 124
142 107 124 142 107 124 142 106 124 142 106 124 142 106 124 142 106
124 142 106 124 141 106 124 141 106 124 141 106 124 141 106 123 141
106 123 141 106 123 141 106 123 141 106 123 141 106 123 141 105 123
140 105 123 140 105 123 140 105 123 140 105 123 140 105 123 140 105
122 140 105 122 140 105 122 140 105 122 140 105 122 140 105 122 139
105 122 139 105 122 139 104 122 139 104 122 139 104 122 139 104 122
139 104 121 139 104 121 139 104 121 139 104 121 138 104 121 138 104
121 138 104 121 138 104 121 138 104 121 138 103 121 138 103 121 138
103 120 138 103 120 138 103 120 137 103 120 137 103 120 137 103 120
137 103 120 137 103 120 137 103 120 137 103 120 137 103 120 137 103
120 137 102 119 136 102 119 136 102 119 136 102 119 136 102 119 136
102 119 136 102 119 136 102 119 136 102 119 136 102 119 136 102 119
135 102 118 135 102 118 135 101 118 135 101 118 135 101 118 135 101
118 135 101 118 135 101 118 135 101 118 135 101 118 134 101 118 134
101 117 134 101 117 134 101 117 134 101 117 134 100 117 134 100 117
134 100 117 134 100 117 133 100 117 133 100 117 133 100 117 133 100
117 133 100 116 133 100 116 133 100 116 133 100 116 133 100 116 133 99
116 132 99 116 132 99 116 132 99 116 132 228 231 233 240 242 245 245
248 251 249 252 254 252 254 255 253 255 255 254 255 255 254 255 255
254 255 255 254 255 255 253 255 255 252 255 255 251 254 255 250 252
255 248 251 253 246 249 252 245 247 250 242 245 248 240 243 245 238
240 243 235 238 241 233 235 238 230 233 235 227 230 232 224 227 229
221 224 226 218 220 223 214 217 220 211 213 216 207 210 212 203 206
209 200 202 205 196 198 201 191 194 196 187 190 192 182 185 188 178
180 183 173 175 178 168 170 173 163 165 168 157 160 162 151 154 156
248 251 253 247 249 252 245 247 250 243 246 248 241 244 246 239 241
244 237 239 242 234 237 239 232 234 237 229 232 234 226 229 231 223
226 228 220 223 225 217 219 222 214 216 219 210 213 215 206 209 211
203 205 208 199 201 204 194 197 200 190 193 195 186 188 191 181 183
186 176 178 181 171 173 176 165 168 170 160 162 165 154 156 159 147
150 152 140 143 145 133 136 138 125 128 130 116 119 121 107 109 112 96
98 101 83 85 88 66 69 71 41 44 46 93 108 124 93 108 124 93 108 124 93
108 124 93 108 124 93 108 123 93 108 123 93 108 123 92 108 123 92 108
123 92 108 123 92 108 123 92 107 123 92 107 123 92 107 123 92 107 122
92 107 122 92 107 122 92 107 122 92 107 122 92 107 122 91 107 122 91
107 122 91 106 122 91 106 122 91 106 121 91 106 121 91 106 121 91 106
121 91 106 121 91 106 121 91 106 121 91 106 121 91 106 121 91 106 121
90 105 120 90 105 120 90 105 120 90 105 120 90 105 120 90 105 120 90
105 120 90 105 120 90 105 120 90 105 120 90 105 119 90 104 119 90 104
119 89 104 119 89 104 119 89 104 119 89 104 119 89 104 119 89 104 119
89 104 119 89 104 118 89 104 118 89 104 118 89 103 118 89 103 118 89
103 118 89 103 118 88 103 118 88 103 118 88 103 118 88 103 118 88 103
117 88 103 117 88 103 117 88 103 117 88 102 117 88 102 117 88 102 117
88 102 117 88 102 117 88 102 117 87 102 116 87 102 116 87 102 116 87
102 116 87 102 116 87 102 116 87 101 116 87 101 116 87 101 116 87 101
116 87 101 116 87 101 115 87 101 115 87 101 115 86 101 115 86 101 115
86 101 115 86 101 115 86 100 115 86 100 115 86 100 115
108 126 144 108 126 144 108 126 144 108 126 144 108 126 144 108 126
144 108 126 143 108 126 143 108 125 143 108 125 143 107 125 143 107
125 143 107 125 143 107 125 143 107 125 143 107 125 143 107 125 143
107 125 142 107 125 142 107 125 142 107 124 142 107 124 142 107 124
142 107 124 142 106 124 142 106 124 142 106 124 142 106 124 142 106
124 141 106 124 141 106 124 141 106 124 141 106 123 141 106 123 141
106 123 141 106 123 141 106 123 141 106 123 141 105 123 140 105 123
140 105 123 140 105 123 140 105 123 140 105 123 140 105 122 140 105
122 140 105 122 140 105 122 140 105 122 139 105 122 139 105 122 139
105 122 139 104 122 139 104 122 139 104 122 139 104 122 139 104 121
139 104 121 139 104 121 139 104 121 138 104 121 138 104 121 138 104
121 138 104 121 138 104 121 138 103 121 138 103 121 138 103 120 138
103 120 138 103 120 137 103 120 137 103 120 137 103 120 137 103 120
137 103 120 137 103 120 137 103 120 137 103 120 137 103 120 137 102
119 136 102 119 136 102 119 136 102 119 136 102 119 136 102 119 136
102 119 136 102 119 136 102 119 136 102 119 136 102 119 135 102 118
135 102 118 135 101 118 135 101 118 135 101 118 135 101 118 135 101
118 135 101 118 135 101 118 135 101 118 134 101 118 134 101 117 134
101 117 134 101 117 134 101 117 134 100 117 134 100 117 134 100 117
134 100 117 133 100 117 133 100 117 133 100 117 133 100 117 133 100
116 133 100 116 133 100 116 133 100 116 133 100 116 133 99 116 132 99
116 132 99 116 132 99 116 132 226 229 231 240 243 245 247 249 252 251
254 255 254 255 255 255 255 255 255 255 255 255 255 255 255 255 255
255 255 255 255 255 255 255 255 255 254 255 255 253 255 255 252 254
255 250 253 255 248 251 253 246 249 251 244 247 249 242 244 247 240
242 245 237 240 242 234 237 239 232 234 237 229 231 234 226 228 231
223 225 228 219 222 224 216 219 221 213 215 218 209 211 214 205 208
210 201 204 206 197 200 202 193 196 198 189 191 194 184 187 189 180
182 185 175 178 180 170 173 175 165 167 170 159 162 165 154 156 159
250 253 255 249 251 254 247 250 252 245 248 250 243 246 248 241 243
246 239 241 244 236 239 241 234 236 239 231 234 236 228 231 233 225
228 230 222 225 227 219 222 224 216 218 221 212 215 217 209 211 214
205 207 210 201 203 206 197 199 202 193 195 198 188 191 193 184 186
189 179 181 184 174 176 179 168 171 173 163 165 168 157 160 162 151
153 156 144 147 149 137 140 142 130 132 135 122 124 127 113 115 118
103 105 108 92 94 97 78 81 83 60 63 65 16 18 21 93 108 124 93 108 124
93 108 123 93 108 123 93 108 123 93 108 123 92 108 123 92 108 123 92
108 123 92 108 123 92 107 123 92 107 123 92 107 122 92 107 122 92 107
122 92 107 122 92 107 122 92 107 122 92 107 122 91 107 122 91 107 122
91 106 122 91 106 122 91 106 121 91 106 121 91 106 121 91 106 121 91
106 121 91 106 121 91 106 121 91 106 121 91 106 121 91 106 121 90 105
120 90 105 120 90 105 120 90 105 120 90 105 120 90 105 120 90 105 120
90 105 120 90 105 120 90 105 120 90 105 119 90 104 119 90 104 119 89
104 119 89 104 119 89 104 119 89 104 119 89 104 119 89 104 119 89 104
119 89 104 118 89 104 118 89 104 118 89 103 118 89 103 118 89 103 118
89 103 118 88 103 118 88 103 118 88 103 118 88 103 118 88 103 117 88
103 117 88 103 117 88 103 117 88 102 117 88 102 117 88 102 117 88 102
117 88 102 117 88 102 117 87 102 116 87 102 116 87 102 116 87 102 116
87 102 116 87 102 116 87 101 116 87 101 116 87 101 116 87 101 116 87
101 116 87 101 115 87 101 115 87 101 115 86 101 115 86 101 115 86 101
115 86 101 115 86 100 115 86 100 115 86 100 115 86 100 114
108 126 144 108 126 144 108 126 144 108 126 144 108 126 144 108 126
143 108 125 143 108 125 143 107 125 143 107 125 143 107 125 143 107
125 143 107 125 143 107 125 143 107 125 143 107 125 143 107 125 142
107 125 142 107 125 142 107 124 142 107 124 142 107 124 142 107 124
142 106 124 142 106 124 142 106 124 142 106 124 141 106 124 141 106
124 141 106 124 141 106 124 141 106 123 141 106 123 141 106 123 141
106 123 141 106 123 141 106 123 141 105 123 140 105 123 140 105 123
140 105 123 140 105 123 140 105 123 140 105 122 140 105 122 140 105
122 140 105 122 140 105 122 139 105 122 139 105 122 139 105 122 139
104 122 139 104 122 139 104 122 139 104 122 139 104 121 139 104 121
139 104 121 139 104 121 138 104 121 138 104 121 138 104 121 138 104
121 138 104 121 138 103 121 138 103 121 138 103 120 138 103 120 138
103 120 137 103 120 137 103 120 137 103 120 137 103 120 137 103 120
137 103 120 137 103 120 137 103 120 137 103 120 137 102 119 136 102
119 136 102 119 136 102 119 136 102 119 136 102 119 136 102 119 136
102 119 136 102 119 136 102 119 136 102 119 135 102 118 135 102 118
135 101 118 135 101 118 135 101 118 135 101 118 135 101 118 135 101
118 135 101 118 135 101 118 134 101 118 134 101 117 134 101 117 134
101 117 134 101 117 134 100 117 134 100 117 134 100 117 134 100 117
133 100 117 133 100 117 133 100 117 133 100 117 133 100 116 133 100
116 133 100 116 133 100 116 133 100 116 133 99 116 132 99 116 132 99
116 132 99 116 132 99 116 132 240 242 245 248 250 253 252 255 255 255
255 255 255 255 255 255 255 255 255 255 255 255 255 255 255 255 255
255 255 255 255 255 255 255 255 255 255 255 255 255 255 255 253 255
255 252 254 255 250 252 255 248 250 253 246 248 251 243 246 248 241
243 246 238 241 243 236 238 241 233 236 238 230 233 235 227 230 232
224 227 229 221 223 226 217 220 222 214 216 219 210 213 215 207 209
212 203 205 208 199 201 204 195 197 200 190 193 196 186 189 191 181
184 187 177 179 182 172 174 177 167 169 172 162 164 167 156 159 161
252 255 255 251 253 255 249 251 254 247 249 252 245 247 250 243 245
248 240 243 245 238 241 243 235 238 241 233 235 238 230 232 235 227
230 232 224 227 229 221 223 226 217 220 223 214 217 219 210 213 216
207 209 212 203 205 208 199 201 204 195 197 200 190 193 195 186 188
191 181 184 186 176 179 181 171 174 176 166 168 171 160 163 165 154
157 159 148 150 153 141 144 146 134 136 139 126 129 131 118 120 123
109 111 114 98 101 103 87 89 92 72 75 77 53 55 58 16 18 21 93 108 123
93 108 123 93 108 123 93 108 123 92 108 123 92 108 123 92 108 123 92
108 123 92 107 123 92 107 123 92 107 122 92 107 122 92 107 122 92 107
122 92 107 122 92 107 122 92 107 122 91 107 122 91 107 122 91 106 122
91 106 121 91 106 121 91 106 121 91 106 121 91 106 121 91 106 121 91
106 121 91 106 121 91 106 121 91 106 121 91 106 121 90 105 120 90 105
120 90 105 120 90 105 120 90 105 120 90 105 120 90 105 120 90 105 120
90 105 120 90 105 120 90 105 119 90 104 119 90 104 119 89 104 119 89
104 119 89 104 119 89 104 119 89 104 119 89 104 119 89 104 119 89 104
118 89 104 118 89 104 118 89 103 118 89 103 118 89 103 118 89 103 118
88 103 118 88 103 118 88 103 118 88 103 117 88 103 117 88 103 117 88
103 117 88 103 117 88 102 117 88 102 117 88 102 117 88 102 117 88 102
117 88 102 117 87 102 116 87 102 116 87 102 116 87 102 116 87 102 116
87 102 116 87 101 116 87 101 116 87 101 116 87 101 116 87 101 116 87
101 115 87 101 115 87 101 115 86 101 115 86 101 115 86 101 115 86 101
115 86 100 115 86 100 115 86 100 115 86 100 114 86 100 114
108 126 144 108 126 144 108 126 144 108 126 144 108 126 143 108 125
143 108 125 143 107 125 143 107 125 143 107 125 143 107 125 143 107
125 143 107 125 143 107 125 143 107 125 143 107 125 142 107 125 142
107 125 142 107 124 142 107 124 142 107 124 142 107 124 142 106 124
142 106 124 142 106 124 142 106 124 141 106 124 141 106 124 141 106
124 141 106 124 141 106 123 141 106 123 141 106 123 141 106 123 141
106 123 141 106 123 141 105 123 140 105 123 140 105 123 140 105 123
140 105 123 140 105 123 140 105 122 140 105 122 140 105 122 140 105
122 140 105 122 139 105 122 139 105 122 139 105 122 139 104 122 139
104 122 139 104 122 139 104 122 139 104 121 139 104 121 139 104 121
139 104 121 138 104 121 138 104 121 138 104 121 138 104 121 138 104
121 138 103 121 138 103 121 138 103 120 138 103 120 138 103 120 137
103 120 137 103 120 137 103 120 137 103 120 137 103 120 137 103 120
137 103 120 137 103 120 137 103 120 137 102 119 136 102 119 136 102
119 136 102 119 136 102 119 136 102 119 136 102 119 136 102 119 136
102 119 136 102 119 136 102 119 135 102 118 135 102 118 135 101 118
135 101 118 135 101 118 135 101 118 135 101 118 135 101 118 135 101
118 135 101 118 134 101 118 134 101 117 134 101 117 134 101 117 134
101 117 134 100 117 134 100 117 134 100 117 134 100 117 133 100 117
133 100 117 133 100 117 133 100 117 133 100 116 133 100 116 133 100
116 133 100 116 133 100 116 133 99 116 132 99 116 132 99 116 132 99
116 132 99 116 132 238 240 243 247 250 252 253 255 255 255 255 255 255
255 255 255 255 255 255 255 255 255 255 255 255 255 255 255 255 255
255 255 255 255 255 255 255 255 255 255 255 255 255 255 255 255 255
255 253 255 255 251 254 255 249 252 254 247 249 252 244 247 250 242
245 247 240 242 245 237 239 242 234 237 239 231 234 236 228 231 233
225 228 230 222 224 227 219 221 224 215 218 220 212 214 217 208 210
213 204 207 209 200 203 205 196 199 201 192 194 197 187 190 193 183
186 188 178 181 183 174 176 179 169 171 174 163 166 168 158 160 163
254 255 255 252 255 255 250 253 255 248 251 254 246 249 251 244 247
249 242 244 247 239 242 245 237 239 242 234 237 239 231 234 237 229
231 234 226 228 231 222 225 227 219 222 224 216 218 221 212 215 217
209 211 214 205 207 210 201 203 206 197 199 202 192 195 197 188 190
193 183 186 188 178 181 184 173 176 178 168 171 173 163 165 168 157
159 162 151 153 156 144 147 149 137 140 142 130 133 135 122 125 127
113 116 119 104 106 109 93 96 98 81 83 86 65 68 71 43 46 48 16 18 21
93 108 123 93 108 123 92 108 123 92 108 123 92 108 123 92 108 123 92
107 123 92 107 123 92 107 122 92 107 122 92 107 122 92 107 122 92 107
122 92 107 122 92 107 122 91 107 122 91 107 122 91 106 122 91 106 121
91 106 121 91 106 121 91 106 121 91 106 121 91 106 121 91 106 121 91
106 121 91 106 121 91 106 121 91 106 121 90 105 120 90 105 120 90 105
120 90 105 120 90 105 120 90 105 120 90 105 120 90 105 120 90 105 120
90 105 120 90 105 119 90 104 119 90 104 119 89 104 119 89 104 119 89
104 119 89 104 119 89 104 119 89 104 119 89 104 119 89 104 118 89 104
118 89 104 118 89 103 118 89 103 118 89 103 118 89 103 118 88 103 118
88 103 118 88 103 118 88 103 117 88 103 117 88 103 117 88 103 117 88
103 117 88 102 117 88 102 117 88 102 117 88 102 117 88 102 117 88 102
117 87 102 116 87 102 116 87 102 116 87 102 116 87 102 116 87 102 116
87 101 116 87 101 116 87 101 116 87 101 116 87 101 115 87 101 115 87
101 115 87 101 115 86 101 115 86 101 115 86 101 115 86 101 115 86 100
115 86 100 115 86 100 115 86 100 114 86 100 114 86 100 114
108 126 144 108 126 144 108 126 143 108 126 143 108 125 143 108 125
143 107 125 143 107 125 143 107 125 143 107 125 143 107 125 143 107
125 143 107 125 143 107 125 142 107 125 142 107 125 142 107 124 142
107 124 142 107 124 142 107 124 142 107 124 142 106 124 142 106 124
142 106 124 142 106 124 141 106 124 141 106 124 141 106 124 141 106
124 141 106 123 141 106 123 141 106 123 141 106 123 141 106 123 141
106 123 141 105 123 140 105 123 140 105 123 140 105 123 140 105 123
140 105 123 140 105 122 140 105 122 140 105 122 140 105 122 140 105
122 139 105 122 139 105 122 139 105 122 139 104 122 139 104 122 139
104 122 139 104 122 139 104 121 139 104 121 139 104 121 138 104 121
138 104 121 138 104 121 138 104 121 138 104 121 138 104 121 138 103
121 138 103 121 138 103 120 138 103 120 138 103 120 137 103 120 137
103 120 137 103 120 137 103 120 137 103 120 137 103 120 137 103 120
137 103 120 137 103 120 137 102 119 136 102 119 136 102 119 136 102
119 136 102 119 136 102 119 136 102 119 136 102 119 136 102 119 136
102 119 136 102 119 135 102 118 135 102 118 135 101 118 135 101 118
135 101 118 135 101 118 135 101 118 135 101 118 135 101 118 135 101
118 134 101 118 134 101 117 134 101 117 134 101 117 134 101 117 134
100 117 134 100 117 134 100 117 134 100 117 133 100 117 133 100 117
133 100 117 133 100 117 133 100 116 133 100 116 133 100 116 133 100
116 133 100 116 133 99 116 132 99 116 132 99 116 132 99 116 132 99 116
132 234 236 239 246 249 251 253 255 255 255 255 255 255 255 255 255
255 255 255 255 255 255 255 255 255 255 255 255 255 255 255 255 255
255 255 255 255 255 255 255 255 255 255 255 255 255 255 255 255 255
255 254 255 255 252 255 255 250 253 255 248 250 253 245 248 251 243
246 248 241 243 246 238 240 243 235 238 240 232 235 237 229 232 234
226 229 231 223 225 228 220 222 225 216 219 221 213 215 218 209 211
214 205 208 210 201 204 206 197 200 202 193 196 198 189 191 194 184
187 189 180 182 185 175 177 180 170 173 175 165 167 170 160 162 165
255 255 255 254 255 255 252 254 255 250 252 255 248 250 253 246 248
251 243 246 248 241 243 246 238 241 243 236 238 241 233 235 238 230
232 235 227 229 232 224 226 229 221 223 226 217 220 222 214 216 219
210 213 215 206 209 211 202 205 207 198 201 203 194 197 199 190 192
195 185 188 190 180 183 185 175 178 181 170 173 175 165 167 170 159
162 164 153 156 158 147 150 152 140 143 145 133 136 138 126 128 131
117 120 123 109 111 114 99 101 104 87 90 93 74 77 79 57 60 62 41 44 46
16 18 21 92 108 123 92 108 123 92 108 123 92 107 123 92 107 123 92 107
123 92 107 122 92 107 122 92 107 122 92 107 122 92 107 122 92 107 122
92 107 122 91 107 122 91 107 122 91 106 122 91 106 121 91 106 121 91
106 121 91 106 121 91 106 121 91 106 121 91 106 121 91 106 121 91 106
121 91 106 121 90 105 120 90 105 120 90 105 120 90 105 120 90 105 120
90 105 120 90 105 120 90 105 120 90 105 120 90 105 120 90 105 120 90
105 119 90 104 119 90 104 119 89 104 119 89 104 119 89 104 119 89 104
119 89 104 119 89 104 119 89 104 119 89 104 118 89 104 118 89 104 118
89 103 118 89 103 118 89 103 118 89 103 118 88 103 118 88 103 118 88
103 118 88 103 117 88 103 117 88 103 117 88 103 117 88 103 117 88 102
117 88 102 117 88 102 117 88 102 117 88 102 117 88 102 117 87 102 116
87 102 116 87 102 116 87 102 116 87 102 116 87 102 116 87 101 116 87
101 116 87 101 116 87 101 116 87 101 115 87 101 115 87 101 115 87 101
115 86 101 115 86 101 115 86 101 115 86 101 115 86 100 115 86 100 115
86 100 115 86 100 114 86 100 114 86 100 114 86 100 114
108 126 144 108 126 143 108 126 143 108 125 143 108 125 143 107 125
143 107 125 143 107 125 143 107 125 143 107 125 143 107 125 143 107
125 143 107 125 142 107 125 142 107 125 142 107 124 142 107 124 142
107 124 142 107 124 142 106 124 142 106 124 142 106 124 142 106 124
142 106 124 141 106 124 141 106 124 141 106 124 141 106 124 141 106
123 141 106 123 141 106 123 141 106 123 141 106 123 141 106 123 141
105 123 140 105 123 140 105 123 140 105 123 140 105 123 140 105 123
140 105 122 140 105 122 140 105 122 140 105 122 140 105 122 139 105
122 139 105 122 139 105 122 139 104 122 139 104 122 139 104 122 139
104 121 139 104 121 139 104 121 139 104 121 138 104 121 138 104 121
138 104 121 138 104 121 138 104 121 138 104 121 138 103 121 138 103
121 138 103 120 138 103 120 138 103 120 137 103 120 137 103 120 137
103 120 137 103 120 137 103 120 137 103 120 137 103 120 137 103 120
137 103 120 137 102 119 136 102 119 136 102 119 136 102 119 136 102
119 136 102 119 136 102 119 136 102 119 136 102 119 136 102 119 136
102 119 135 102 118 135 102 118 135 101 118 135 101 118 135 101 118
135 101 118 135 101 118 135 101 118 135 101 118 134 101 118 134 101
118 134 101 117 134 101 117 134 101 117 134 101 117 134 100 117 134
100 117 134 100 117 134 100 117 133 100 117 133 100 117 133 100 117
133 100 117 133 100 116 133 100 116 133 100 116 133 100 116 133 100
116 133 99 116 132 99 116 132 99 116 132 99 116 132 99 116 132 220 222
225 244 246 249 252 254 255 255 255 255 255 255 255 255 255 255 255
255 255 255 255 255 255 255 255 255 255 255 255 255 255 255 255 255
255 255 255 255 255 255 255 255 255 255 255 255 255 255 255 255 255
255 255 255 255 253 255 255 251 253 255 249 251 254 246 249 251 244
246 249 241 244 246 239 241 244 236 238 241 233 236 238 230 233 235
227 229 232 224 226 229 220 223 225 217 220 222 213 216 219 210 212
215 206 209 211 202 205 207 198 201 203 194 197 199 190 192 195 185
188 190 181 183 186 176 179 181 171 174 176 166 169 171 161 164 166
255 255 255 255 255 255 253 255 255 251 253 255 249 251 254 247 249
252 244 247 249 242 244 247 239 242 244 237 239 242 234 236 239 231
234 236 228 231 233 225 228 230 222 224 227 218 221 223 215 217 220
211 214 216 208 210 213 204 206 209 200 202 205 196 198 201 191 194
196 187 189 192 182 185 187 177 180 182 172 175 177 167 169 172 161
164 166 156 158 161 149 152 155 143 146 148 136 139 141 129 131 134
121 124 126 112 115 118 103 106 108 93 95 98 81 83 86 66 69 72 47 50
52 16 18 21 16 18 21 92 108 123 92 107 123 92 107 123 92 107 123 92
107 122 92 107 122 92 107 122 92 107 122 92 107 122 92 107 122 92 107
122 91 107 122 91 107 122 91 106 122 91 106 121 91 106 121 91 106 121
91 106 121 91 106 121 91 106 121 91 106 121 91 106 121 91 106 121 91
106 121 90 105 120 90 105 120 90 105 120 90 105 120 90 105 120 90 105
120 90 105 120 90 105 120 90 105 120 90 105 120 90 105 120 90 105 119
90 104 119 90 104 119 89 104 119 89 104 119 89 104 119 89 104 119 89
104 119 89 104 119 89 104 119 89 104 118 89 104 118 89 104 118 89 103
118 89 103 118 89 103 118 89 103 118 88 103 118 88 103 118 88 103 118
88 103 117 88 103 117 88 103 117 88 103 117 88 103 117 88 102 117 88
102 117 88 102 117 88 102 117 88 102 117 88 102 117 87 102 116 87 102
116 87 102 116 87 102 116 87 102 116 87 102 116 87 101 116 87 101 116
87 101 116 87 101 116 87 101 115 87 101 115 87 101 115 87 101 115 86
101 115 86 101 115 86 101 115 86 101 115 86 100 115 86 100 115 86 100
115 86 100 114 86 100 114 86 100 114 86 100 114 86 100 114
108 126 143 108 125 143 108 125 143 108 125 143 107 125 143 107 125
143 107 125 143 107 125 143 107 125 143 107 125 143 107 125 143 107
125 142 107 125 142 107 125 142 107 124 142 107 124 142 107 124 142
107 124 142 106 124 142 106 124 142 106 124 142 106 124 142 106 124
141 106 124 141 106 124 141 106 124 141 106 123 141 106 123 141 106
123 141 106 123 141 106 123 141 106 123 141 105 123 140 105 123 140
105 123 140 105 123 140 105 123 140 105 123 140 105 123 140 105 122
140 105 122 140 105 122 140 105 122 140 105 122 139 105 122 139 105
122 139 104 122 139 104 122 139 104 122 139 104 122 139 104 121 139
104 121 139 104 121 139 104 121 138 104 121 138 104 121 138 104 121
138 104 121 138 104 121 138 104 121 138 103 121 138 103 121 138 103
120 138 103 120 137 103 120 137 103 120 137 103 120 137 103 120 137
103 120 137 103 120 137 103 120 137 103 120 137 103 120 137 103 120
137 102 119 136 102 119 136 102 119 136 102 119 136 102 119 136 102
119 136 102 119 136 102 119 136 102 119 136 102 119 136 102 119 135
102 118 135 102 118 135 101 118 135 101 118 135 101 118 135 101 118
135 101 118 135 101 118 135 101 118 134 101 118 134 101 118 134 101
117 134 101 117 134 101 117 134 101 117 134 100 117 134 100 117 134
100 117 134 100 117 133 100 117 133 100 117 133 100 117 133 100 117
133 100 116 133 100 116 133 100 116 133 100 116 133 100 116 133 99 116
132 99 116 132 99 116 132 99 116 132 99 116 132 99 116 132 239 242 244
250 252 255 255 255 255 255 255 255 255 255 255 255 255 255 255 255
255 255 255 255 255 255 255 255 255 255 255 255 255 255 255 255 255
255 255 255 255 255 255 255 255 255 255 255 255 255 255 255 255 255
255 255 255 254 255 255 252 254 255 249 252 254 247 249 252 244 247
250 242 244 247 239 242 244 236 239 242 234 236 239 231 233 236 228
230 233 224 227 229 221 224 226 218 220 223 214 217 219 210 213 216
207 209 212 203 205 208 199 201 204 195 197 200 191 193 196 186 189
191 182 184 187 177 180 182 172 175 177 167 170 172 162 165 167 255
255 255 255 255 255 254 255 255 252 254 255 250 252 255 248 250 253
245 248 250 243 245 248 240 243 245 238 240 243 235 237 240 232 235
237 229 232 234 226 229 231 223 225 228 219 222 225 216 219 221 212
215 218 209 211 214 205 207 210 201 204 206 197 199 202 193 195 198
188 191 193 184 186 189 179 181 184 174 176 179 169 171 174 163 166
168 157 160 163 152 154 157 145 148 150 139 141 144 131 134 137 124
126 129 116 118 121 107 109 112 97 100 102 86 89 91 73 76 78 57 60 62
41 44 46 16 18 21 16 18 21 92 107 123 92 107 123 92 107 122 92 107 122
92 107 122 92 107 122 92 107 122 92 107 122 92 107 122 91 107 122 91
107 122 91 106 122 91 106 121 91 106 121 91 106 121 91 106 121 91 106
121 91 106 121 91 106 121 91 106 121 91 106 121 91 106 121 90 105 120
90 105 120 90 105 120 90 105 120 90 105 120 90 105 120 90 105 120 90
105 120 90 105 120 90 105 120 90 105 119 90 105 119 90 104 119 90 104
119 89 104 119 89 104 119 89 104 119 89 104 119 89 104 119 89 104 119
89 104 119 89 104 118 89 104 118 89 104 118 89 103 118 89 103 118 89
103 118 88 103 118 88 103 118 88 103 118 88 103 118 88 103 117 88 103
117 88 103 117 88 103 117 88 102 117 88 102 117 88 102 117 88 102 117
88 102 117 88 102 117 87 102 116 87 102 116 87 102 116 87 102 116 87
102 116 87 102 116 87 101 116 87 101 116 87 101 116 87 101 116 87 101
116 87 101 115 87 101 115 87 101 115 86 101 115 86 101 115 86 101 115
86 101 115 86 100 115 86 100 115 86 100 115 86 100 114 86 100 114 86
100 114 86 100 114 86 100 114 86 100 114 86 100 114
108 125 143 108 125 143 107 125 143 107 125 143 107 125 143 107 125
143 107 125 143 107 125 143 107 125 143 107 125 143 107 125 142 107
125 142 107 125 142 107 124 142 107 124 142 107 124 142 107 124 142
106 124 142 106 124 142 106 124 142 106 124 142 106 124 141 106 124
141 106 124 141 106 124 141 106 123 141 106 123 141 106 123 141 106
123 141 106 123 141 106 123 141 105 123 140 105 123 140 105 123 140
105 123 140 105 123 140 105 123 140 105 122 140 105 122 140 105 122
140 105 122 140 105 122 140 105 122 139 105 122 139 105 122 139 104
122 139 104 122 139 104 122 139 104 122 139 104 121 139 104 121 139
104 121 139 104 121 138 104 121 138 104 121 138 104 121 138 104 121
138 104 121 138 104 121 138 103 121 138 103 121 138 103 120 138 103
120 137 103 120 137 103 120 137 103 120 137 103 120 137 103 120 137
103 120 137 103 120 137 103 120 137 103 120 137 102 119 136 102 119
136 102 119 136 102 119 136 102 119 136 102 119 136 102 119 136 102
119 136 102 119 136 102 119 136 102 119 135 102 119 135 102 118 135
102 118 135 101 118 135 101 118 135 101 118 135 101 118 135 101 118
135 101 118 135 101 118 134 101 118 134 101 118 134 101 117 134 101
117 134 101 117 134 101 117 134 100 117 134 100 117 134 100 117 134
100 117 133 100 117 133 100 117 133 100 117 133 100 116 133 100 116
133 100 116 133 100 116 133 100 116 133 100 116 133 99 116 132 99 116
132 99 116 132 99 116 132 99 116 132 99 116 132 228 231 233 247 249
252 254 255 255 255 255 255 255 255 255 255 255 255 255 255 255 255
255 255 255 255 255 255 255 255 255 255 255 255 255 255 255 255 255
255 255 255 255 255 255 255 255 255 255 255 255 255 255 255 255 255
255 255 255 255 254 255 255 252 255 255 250 252 255 247 250 253 245
248 250 242 245 248 240 242 245 237 240 242 234 237 239 231 234 236
228 231 233 225 227 230 222 224 227 218 221 223 215 217 220 211 214
216 207 210 212 204 206 209 200 202 205 196 198 201 191 194 196 187
190 192 183 185 188 178 180 183 173 176 178 168 171 173 163 166 168
255 255 255 255 255 255 255 255 255 253 255 255 251 253 255 248 251
253 246 249 251 244 246 249 241 244 246 238 241 244 236 238 241 233
235 238 230 232 235 227 229 232 224 226 229 220 223 225 217 219 222
213 216 218 210 212 215 206 208 211 202 205 207 198 200 203 194 196
199 189 192 194 185 187 190 180 183 185 175 178 180 170 173 175 165
167 170 159 162 164 153 156 158 147 150 152 141 143 146 134 136 139
126 129 132 119 121 124 110 113 115 101 103 106 91 93 96 79 81 84 65
67 70 46 49 51 16 18 21 16 18 21 92 107 123 92 107 122 92 107 122 92
107 122 92 107 122 92 107 122 92 107 122 92 107 122 91 107 122 91 107
122 91 106 122 91 106 121 91 106 121 91 106 121 91 106 121 91 106 121
91 106 121 91 106 121 91 106 121 91 106 121 91 106 121 90 105 120 90
105 120 90 105 120 90 105 120 90 105 120 90 105 120 90 105 120 90 105
120 90 105 120 90 105 120 90 105 119 90 105 119 90 104 119 90 104 119
89 104 119 89 104 119 89 104 119 89 104 119 89 104 119 89 104 119 89
104 119 89 104 118 89 104 118 89 103 118 89 103 118 89 103 118 89 103
118 88 103 118 88 103 118 88 103 118 88 103 118 88 103 117 88 103 117
88 103 117 88 103 117 88 102 117 88 102 117 88 102 117 88 102 117 88
102 117 88 102 117 87 102 116 87 102 116 87 102 116 87 102 116 87 102
116 87 102 116 87 101 116 87 101 116 87 101 116 87 101 116 87 101 116
87 101 115 87 101 115 87 101 115 86 101 115 86 101 115 86 101 115 86
101 115 86 100 115 86 100 115 86 100 115 86 100 114 86 100 114 86 100
114 86 100 114 86 100 114 86 100 114 86 100 114 85 100 114
108 125 143 107 125 143 107 125 143 107 125 143 107 125 143 107 125
143 107 125 143 107 125 143 107 125 142 107 125 142 107 125 142 107
125 142 107 124 142 107 124 142 107 124 142 107 124 142 106 124 142
106 124 142 106 124 142 106 124 141 106 124 141 106 124 141 106 124
141 106 124 141 106 123 141 106 123 141 106 123 141 106 123 141 106
123 141 106 123 141 105 123 140 105 123 140 105 123 140 105 123 140
105 123 140 105 123 140 105 122 140 105 122 140 105 122 140 105 122
140 105 122 140 105 122 139 105 122 139 105 122 139 104 122 139 104
122 139 104 122 139 104 122 139 104 121 139 104 121 139 104 121 139
104 121 138 104 121 138 104 121 138 104 121 138 104 121 138 104 121
138 104 121 138 103 121 138 103 121 138 103 120 138 103 120 137 103
120 137 103 120 137 103 120 137 103 120 137 103 120 137 103 120 137
103 120 137 103 120 137 103 120 137 102 119 136 102 119 136 102 119
136 102 119 136 102 119 136 102 119 136 102 119 136 102 119 136 102
119 136 102 119 136 102 119 135 102 119 135 102 118 135 102 118 135
101 118 135 101 118 135 101 118 135 101 118 135 101 118 135 101 118
135 101 118 134 101 118 134 101 118 134 101 117 134 101 117 134 101
117 134 101 117 134 100 117 134 100 117 134 100 117 134 100 117 133
100 117 133 100 117 133 100 117 133 100 116 133 100 116 133 100 116
133 100 116 133 100 116 133 100 116 133 99 116 132 99 116 132 99 116
132 99 116 132 99 116 132 99 116 132 99 115 132 241 243 246 251 254
255 255 255 255 255 255 255 255 255 255 255 255 255 255 255 255 255
255 255 255 255 255 255 255 255 255 255 255 255 255 255 255 255 255
255 255 255 255 255 255 255 255 255 255 255 255 255 255 255 255 255
255 255 255 255 255 255 255 252 255 255 250 253 255 248 250 253 245
248 250 243 245 248 240 243 245 237 240 242 234 237 240 231 234 237
228 231 233 225 228 230 222 224 227 219 221 224 215 218 220 211 214
217 208 210 213 204 207 209 200 203 205 196 199 201 192 194 197 188
190 193 183 186 188 179 181 184 174 176 179 169 172 174 164 166 169
255 255 255 255 255 255 255 255 255 253 255 255 251 254 255 249 251
254 247 249 252 244 247 249 242 244 247 239 242 244 236 239 241 233
236 239 231 233 236 227 230 233 224 227 229 221 224 226 218 220 223
214 217 219 211 213 216 207 209 212 203 205 208 199 201 204 195 197
200 190 193 195 186 188 191 181 184 186 176 179 181 171 174 176 166
169 171 161 163 166 155 157 160 149 151 154 142 145 148 136 138 141
129 131 134 121 124 126 113 115 118 104 107 109 94 97 99 83 86 88 70
73 75 54 57 60 41 44 46 16 18 21 16 18 21 92 107 122 92 107 122 92 107
122 92 107 122 92 107 122 92 107 122 91 107 122 91 107 122 91 106 122
91 106 121 91 106 121 91 106 121 91 106 121 91 106 121 91 106 121 91
106 121 91 106 121 91 106 121 91 106 121 90 105 120 90 105 120 90 105
120 90 105 120 90 105 120 90 105 120 90 105 120 90 105 120 90 105 120
90 105 120 90 105 119 90 105 119 90 104 119 90 104 119 89 104 119 89
104 119 89 104 119 89 104 119 89 104 119 89 104 119 89 104 118 89 104
118 89 104 118 89 103 118 89 103 118 89 103 118 89 103 118 88 103 118
88 103 118 88 103 118 88 103 118 88 103 117 88 103 117 88 103 117 88
103 117 88 102 117 88 102 117 88 102 117 88 102 117 88 102 117 88 102
117 87 102 116 87 102 116 87 102 116 87 102 116 87 102 116 87 102 116
87 101 116 87 101 116 87 101 116 87 101 116 87 101 116 87 101 115 87
101 115 87 101 115 86 101 115 86 101 115 86 101 115 86 101 115 86 100
115 86 100 115 86 100 115 86 100 114 86 100 114 86 100 114 86 100 114
86 100 114 86 100 114 86 100 114 85 100 114 85 100 114
107 125 143 107 125 143 107 125 143 107 125 143 107 125 143 107 125
143 107 125 143 107 125 142 107 125 142 107 125 142 107 124 142 107
124 142 107 124 142 107 124 142 107 124 142 106 124 142 106 124 142
106 124 142 106 124 141 106 124 141 106 124 141 106 124 141 106 124
141 106 123 141 106 123 141 106 123 141 106 123 141 106 123 141 106
123 141 105 123 140 105 123 140 105 123 140 105 123 140 105 123 140
105 123 140 105 122 140 105 122 140 105 122 140 105 122 140 105 122
140 105 122 139 105 122 139 105 122 139 104 122 139 104 122 139 104
122 139 104 122 139 104 121 139 104 121 139 104 121 139 104 121 138
104 121 138 104 121 138 104 121 138 104 121 138 104 121 138 104 121
138 103 121 138 103 121 138 103 120 138 103 120 137 103 120 137 103
120 137 103 120 137 103 120 137 103 120 137 103 120 137 103 120 137
103 120 137 103 120 137 102 119 136 102 119 136 102 119 136 102 119
136 102 119 136 102 119 136 102 119 136 102 119 136 102 119 136 102
119 136 102 119 135 102 119 135 102 118 135 102 118 135 101 118 135
101 118 135 101 118 135 101 118 135 101 118 135 101 118 135 101 118
134 101 118 134 101 118 134 101 117 134 101 117 134 101 117 134 101
117 134 100 117 134 100 117 134 100 117 134 100 117 133 100 117 133
100 117 133 100 117 133 100 116 133 100 116 133 100 116 133 100 116
133 100 116 133 100 116 133 99 116 132 99 116 132 99 116 132 99 116
132 99 116 132 99 116 132 99 115 132 226 228 231 247 249 252 255 255
255 255 255 255 255 255 255 255 255 255 255 255 255 255 255 255 255
255 255 255 255 255 255 255 255 255 255 255 255 255 255 255 255 255
255 255 255 255 255 255 255 255 255 255 255 255 255 255 255 255 255
255 255 255 255 255 255 255 253 255 255 250 253 255 248 251 253 246
248 251 243 246 248 240 243 245 238 240 243 235 237 240 232 234 237
229 231 234 225 228 231 222 225 227 219 221 224 215 218 220 212 214
217 208 211 213 204 207 209 200 203 206 196 199 201 192 195 197 188
191 193 184 186 189 179 182 184 174 177 180 170 172 175 165 167 170
255 255 255 255 255 255 255 255 255 254 255 255 252 254 255 249 252
254 247 250 252 245 247 250 242 245 247 240 242 245 237 239 242 234
237 239 231 234 236 228 231 233 225 227 230 222 224 227 218 221 223
215 217 220 211 214 216 207 210 213 204 206 209 200 202 205 195 198
201 191 194 196 187 189 192 182 185 187 177 180 182 172 175 177 167
170 172 162 164 167 156 159 161 150 153 155 144 147 149 137 140 143
131 133 136 123 126 128 115 118 120 107 109 112 97 100 102 87 89 92 75
77 80 61 63 66 42 44 47 16 18 21 16 18 21 16 18 21 92 107 122 92 107
122 92 107 122 92 107 122 91 107 122 91 106 122 91 106 122 91 106 121
91 106 121 91 106 121 91 106 121 91 106 121 91 106 121 91 106 121 91
106 121 91 106 121 91 106 121 90 105 120 90 105 120 90 105 120 90 105
120 90 105 120 90 105 120 90 105 120 90 105 120 90 105 120 90 105 120
90 105 119 90 105 119 90 104 119 89 104 119 89 104 119 89 104 119 89
104 119 89 104 119 89 104 119 89 104 119 89 104 118 89 104 118 89 104
118 89 103 118 89 103 118 89 103 118 89 103 118 88 103 118 88 103 118
88 103 118 88 103 118 88 103 117 88 103 117 88 103 117 88 103 117 88
102 117 88 102 117 88 102 117 88 102 117 88 102 117 88 102 117 87 102
116 87 102 116 87 102 116 87 102 116 87 102 116 87 102 116 87 101 116
87 101 116 87 101 116 87 101 116 87 101 115 87 101 115 87 101 115 87
101 115 86 101 115 86 101 115 86 101 115 86 101 115 86 100 115 86 100
115 86 100 115 86 100 114 86 100 114 86 100 114 86 100 114 86 100 114
86 100 114 86 100 114 85 100 114 85 100 114 85 99 114
107 125 143 107 125 143 107 125 143 107 125 143 107 125 143 107 125
143 107 125 142 107 125 142 107 125 142 107 124 142 107 124 142 107
124 142 107 124 142 106 124 142 106 124 142 106 124 142 106 124 142
106 124 141 106 124 141 106 124 141 106 124 141 106 124 141 106 123
141 106 123 141 106 123 141 106 123 141 106 123 141 106 123 141 105
123 140 105 123 140 105 123 140 105 123 140 105 123 140 105 123 140
105 122 140 105 122 140 105 122 140 105 122 140 105 122 139 105 122
139 105 122 139 105 122 139 104 122 139 104 122 139 104 122 139 104
122 139 104 121 139 104 121 139 104 121 139 104 121 138 104 121 138
104 121 138 104 121 138 104 121 138 104 121 138 104 121 138 103 121
138 103 121 138 103 120 138 103 120 137 103 120 137 103 120 137 103
120 137 103 120 137 103 120 137 103 120 137 103 120 137 103 120 137
103 120 137 102 119 136 102 119 136 102 119 136 102 119 136 102 119
136 102 119 136 102 119 136 102 119 136 102 119 136 102 119 136 102
119 135 102 119 135 102 118 135 102 118 135 101 118 135 101 118 135
101 118 135 101 118 135 101 118 135 101 118 135 101 118 134 101 118
134 101 118 134 101 117 134 101 117 134 101 117 134 101 117 134 100
117 134 100 117 134 100 117 134 100 117 133 100 117 133 100 117 133
100 117 133 100 116 133 100 116 133 100 116 133 100 116 133 100 116
133 100 116 133 99 116 132 99 116 132 99 116 132 99 116 132 99 116 132
99 116 132 99 115 132 99 115 132 239 241 244 251 254 255 255 255 255
255 255 255 255 255 255 255 255 255 255 255 255 255 255 255 255 255
255 255 255 255 255 255 255 255 255 255 255 255 255 255 255 255 255
255 255 255 255 255 255 255 255 255 255 255 255 255 255 255 255 255
255 255 255 255 255 255 253 255 255 250 253 255 248 251 253 246 248
251 243 246 248 240 243 245 238 240 243 235 237 240 232 234 237 229
231 234 226 228 231 222 225 227 219 221 224 215 218 221 212 214 217
208 211 213 204 207 210 201 203 206 197 199 202 193 195 198 188 191
193 184 186 189 179 182 185 175 177 180 170 173 175 165 168 170 255
255 255 255 255 255 255 255 255 254 255 255 252 254 255 250 252 255
247 250 253 245 248 250 242 245 248 240 242 245 237 240 242 234 237
239 231 234 237 228 231 234 225 228 230 222 225 227 219 221 224 215
218 220 212 214 217 208 210 213 204 207 209 200 203 205 196 199 201
192 194 197 187 190 193 183 185 188 178 181 183 173 176 178 168 171
173 163 165 168 157 160 162 151 154 157 145 148 150 139 141 144 132
135 137 125 127 130 117 120 122 109 111 114 100 102 105 90 92 95 79 81
84 65 68 71 49 52 54 41 44 46 16 18 21 16 18 21 16 18 21 92 107 122 91
107 122 91 107 122 91 106 122 91 106 122 91 106 121 91 106 121 91 106
121 91 106 121 91 106 121 91 106 121 91 106 121 91 106 121 91 106 121
91 106 121 90 105 120 90 105 120 90 105 120 90 105 120 90 105 120 90
105 120 90 105 120 90 105 120 90 105 120 90 105 120 90 105 119 90 104
119 90 104 119 89 104 119 89 104 119 89 104 119 89 104 119 89 104 119
89 104 119 89 104 119 89 104 118 89 104 118 89 104 118 89 103 118 89
103 118 89 103 118 89 103 118 88 103 118 88 103 118 88 103 118 88 103
117 88 103 117 88 103 117 88 103 117 88 103 117 88 102 117 88 102 117
88 102 117 88 102 117 88 102 117 88 102 117 87 102 116 87 102 116 87
102 116 87 102 116 87 102 116 87 102 116 87 101 116 87 101 116 87 101
116 87 101 116 87 101 115 87 101 115 87 101 115 87 101 115 86 101 115
86 101 115 86 101 115 86 101 115 86 100 115 86 100 115 86 100 115 86
100 114 86 100 114 86 100 114 86 100 114 86 100 114 86 100 114 86 100
114 85 100 114 85 100 114 85 99 114 85 99 113
107 125 143 107 125 143 107 125 143 107 125 143 107 125 142 107 125
142 107 125 142 107 125 142 107 124 142 107 124 142 107 124 142 107
124 142 106 124 142 106 124 142 106 124 142 106 124 142 106 124 141
106 124 141 106 124 141 106 124 141 106 123 141 106 123 141 106 123
141 106 123 141 106 123 141 106 123 141 106 123 141 105 123 140 105
123 140 105 123 140 105 123 140 105 123 140 105 123 140 105 122 140
105 122 140 105 122 140 105 122 140 105 122 139 105 122 139 105 122
139 105 122 139 104 122 139 104 122 139 104 122 139 104 122 139 104
121 139 104 121 139 104 121 139 104 121 138 104 121 138 104 121 138
104 121 138 104 121 138 104 121 138 103 121 138 103 121 138 103 120
138 103 120 138 103 120 137 103 120 137 103 120 137 103 120 137 103
120 137 103 120 137 103 120 137 103 120 137 103 120 137 103 120 137
102 119 136 102 119 136 102 119 136 102 119 136 102 119 136 102 119
136 102 119 136 102 119 136 102 119 136 102 119 136 102 119 135 102
119 135 102 118 135 101 118 135 101 118 135 101 118 135 101 118 135
101 118 135 101 118 135 101 118 135 101 118 134 101 118 134 101 118
134 101 117 134 101 117 134 101 117 134 101 117 134 100 117 134 100
117 134 100 117 134 100 117 133 100 117 133 100 117 133 100 117 133
100 116 133 100 116 133 100 116 133 100 116 133 100 116 133 100 116
133 99 116 132 99 116 132 99 116 132 99 116 132 99 116 132 99 115 132
99 115 132 99 115 132 99 115 132 245 247 250 254 255 255 255 255 255
255 255 255 255 255 255 255 255 255 255 255 255 255 255 255 255 255
255 255 255 255 255 255 255 255 255 255 255 255 255 255 255 255 255
255 255 255 255 255 255 255 255 255 255 255 255 255 255 255 255 255
255 255 255 255 255 255 253 255 255 250 253 255 248 251 253 246 248
251 243 246 248 240 243 245 238 240 243 235 237 240 232 234 237 229
231 234 226 228 231 222 225 227 219 221 224 216 218 221 212 215 217
208 211 213 205 207 210 201 203 206 197 199 202 193 195 198 188 191
194 184 187 189 180 182 185 175 178 180 170 173 175 165 168 170 255
255 255 255 255 255 255 255 255 254 255 255 252 255 255 250 252 255
248 250 253 245 248 250 243 245 248 240 243 245 237 240 242 235 237
240 232 234 237 229 231 234 226 228 231 222 225 227 219 222 224 216
218 221 212 215 217 208 211 213 205 207 210 201 203 206 197 199 202
192 195 197 188 191 193 183 186 189 179 181 184 174 176 179 169 171
174 164 166 169 158 161 163 152 155 158 146 149 152 140 143 145 133
136 139 126 129 131 119 121 124 111 113 116 102 104 107 92 95 97 82 84
87 69 72 74 54 57 60 41 44 46 16 18 21 16 18 21 16 18 21 16 18 21 91
107 122 91 106 122 91 106 122 91 106 121 91 106 121 91 106 121 91 106
121 91 106 121 91 106 121 91 106 121 91 106 121 91 106 121 91 106 121
90 105 120 90 105 120 90 105 120 90 105 120 90 105 120 90 105 120 90
105 120 90 105 120 90 105 120 90 105 120 90 105 119 90 104 119 90 104
119 89 104 119 89 104 119 89 104 119 89 104 119 89 104 119 89 104 119
89 104 119 89 104 118 89 104 118 89 104 118 89 103 118 89 103 118 89
103 118 89 103 118 88 103 118 88 103 118 88 103 118 88 103 117 88 103
117 88 103 117 88 103 117 88 103 117 88 102 117 88 102 117 88 102 117
88 102 117 88 102 117 88 102 117 87 102 116 87 102 116 87 102 116 87
102 116 87 102 116 87 102 116 87 101 116 87 101 116 87 101 116 87 101
116 87 101 115 87 101 115 87 101 115 86 101 115 86 101 115 86 101 115
86 101 115 86 101 115 86 100 115 86 100 115 86 100 115 86 100 114 86
100 114 86 100 114 86 100 114 86 100 114 86 100 114 86 100 114 85 100
114 85 100 114 85 99 114 85 99 113 85 99 113
107 125 143 107 125 143 107 125 143 107 125 142 107 125 142 107 125
142 107 124 142 107 124 142 107 124 142 107 124 142 107 124 142 106
124 142 106 124 142 106 124 142 106 124 141 106 124 141 106 124 141
106 124 141 106 124 141 106 123 141 106 123 141 106 123 141 106 123
141 106 123 141 106 123 141 105 123 140 105 123 140 105 123 140 105
123 140 105 123 140 105 123 140 105 122 140 105 122 140 105 122 140
105 122 140 105 122 140 105 122 139 105 122 139 105 122 139 104 122
139 104 122 139 104 122 139 104 122 139 104 121 139 104 121 139 104
121 139 104 121 138 104 121 138 104 121 138 104 121 138 104 121 138
104 121 138 104 121 138 103 121 138 103 121 138 103 120 138 103 120
138 103 120 137 103 120 137 103 120 137 103 120 137 103 120 137 103
120 137 103 120 137 103 120 137 103 120 137 103 120 137 102 119 136
102 119 136 102 119 136 102 119 136 102 119 136 102 119 136 102 119
136 102 119 136 102 119 136 102 119 136 102 119 135 102 118 135 102
118 135 101 118 135 101 118 135 101 118 135 101 118 135 101 118 135
101 118 135 101 118 135 101 118 134 101 118 134 101 118 134 101 117
134 101 117 134 101 117 134 101 117 134 100 117 134 100 117 134 100
117 134 100 117 133 100 117 133 100 117 133 100 117 133 100 116 133
100 116 133 100 116 133 100 116 133 100 116 133 100 116 133 99 116 132
99 116 132 99 116 132 99 116 132 99 116 132 99 115 132 99 115 132 99
115 132 99 115 132 232 235 237 249 251 254 255 255 255 255 255 255 255
255 255 255 255 255 255 255 255 255 255 255 255 255 255 255 255 255
255 255 255 255 255 255 255 255 255 255 255 255 255 255 255 255 255
255 255 255 255 255 255 255 255 255 255 255 255 255 255 255 255 255
255 255 255 255 255 253 255 255 250 253 255 248 250 253 245 248 251
243 245 248 240 243 245 237 240 243 235 237 240 232 234 237 229 231
234 225 228 231 222 225 227 219 221 224 215 218 221 212 214 217 208
211 213 205 207 210 201 203 206 197 199 202 193 195 198 188 191 194
184 187 189 180 182 185 175 178 180 170 173 176 166 168 171 255 255
255 255 255 255 255 255 255 254 255 255 252 255 255 250 252 255 248
250 253 245 248 250 243 245 248 240 243 245 237 240 243 235 237 240
232 234 237 229 231 234 226 228 231 222 225 228 219 222 224 216 218
221 212 215 217 209 211 214 205 207 210 201 203 206 197 199 202 193
195 198 188 191 193 184 186 189 179 182 184 174 177 180 169 172 175
164 167 169 159 161 164 153 156 158 147 150 152 141 144 146 134 137
140 128 130 133 120 123 125 112 115 117 104 106 109 94 97 100 84 87 89
72 75 78 59 61 64 41 44 46 41 44 46 16 18 21 16 18 21 16 18 21 91 106
122 91 106 122 91 106 121 91 106 121 91 106 121 91 106 121 91 106 121
91 106 121 91 106 121 91 106 121 91 106 121 91 106 121 90 105 120 90
105 120 90 105 120 90 105 120 90 105 120 90 105 120 90 105 120 90 105
120 90 105 120 90 105 120 90 105 119 90 104 119 90 104 119 89 104 119
89 104 119 89 104 119 89 104 119 89 104 119 89 104 119 89 104 119 89
104 118 89 104 118 89 104 118 89 103 118 89 103 118 89 103 118 89 103
118 88 103 118 88 103 118 88 103 118 88 103 117 88 103 117 88 103 117
88 103 117 88 102 117 88 102 117 88 102 117 88 102 117 88 102 117 88
102 117 87 102 116 87 102 116 87 102 116 87 102 116 87 102 116 87 102
116 87 101 116 87 101 116 87 101 116 87 101 116 87 101 116 87 101 115
87 101 115 87 101 115 86 101 115 86 101 115 86 101 115 86 101 115 86
100 115 86 100 115 86 100 115 86 100 114 86 100 114 86 100 114 86 100
114 86 100 114 86 100 114 86 100 114 85 100 114 85 100 114 85 99 114
85 99 114 85 99 113 85 99 113 85 99 113
107 125 143 107 125 143 107 125 142 107 125 142 107 125 142 107 124
142 107 124 142 107 124 142 107 124 142 106 124 142 106 124 142 106
124 142 106 124 142 106 124 141 106 124 141 106 124 141 106 124 141
106 124 141 106 123 141 106 123 141 106 123 141 106 123 141 106 123
141 106 123 141 105 123 140 105 123 140 105 123 140 105 123 140 105
123 140 105 123 140 105 122 140 105 122 140 105 122 140 105 122 140
105 122 140 105 122 139 105 122 139 105 122 139 104 122 139 104 122
139 104 122 139 104 122 139 104 121 139 104 121 139 104 121 139 104
121 138 104 121 138 104 121 138 104 121 138 104 121 138 104 121 138
104 121 138 103 121 138 103 121 138 103 120 138 103 120 138 103 120
137 103 120 137 103 120 137 103 120 137 103 120 137 103 120 137 103
120 137 103 120 137 103 120 137 103 120 137 102 119 136 102 119 136
102 119 136 102 119 136 102 119 136 102 119 136 102 119 136 102 119
136 102 119 136 102 119 136 102 119 135 102 118 135 102 118 135 101
118 135 101 118 135 101 118 135 101 118 135 101 118 135 101 118 135
101 118 135 101 118 134 101 118 134 101 118 134 101 117 134 101 117
134 101 117 134 101 117 134 100 117 134 100 117 134 100 117 134 100
117 133 100 117 133 100 117 133 100 117 133 100 116 133 100 116 133
100 116 133 100 116 133 100 116 133 100 116 133 99 116 132 99 116 132
99 116 132 99 116 132 99 116 132 99 115 132 99 115 132 99 115 132 99
115 132 99 115 131 239 242 245 252 254 255 255 255 255 255 255 255 255
255 255 255 255 255 255 255 255 255 255 255 255 255 255 255 255 255
255 255 255 255 255 255 255 255 255 255 255 255 255 255 255 255 255
255 255 255 255 255 255 255 255 255 255 255 255 255 255 255 255 255
255 255 255 255 255 253 255 255 250 253 255 248 250 253 245 248 250
243 245 248 240 242 245 237 240 242 234 237 239 231 234 236 228 231
233 225 228 230 222 224 227 219 221 224 215 218 220 212 214 217 208
211 213 204 207 209 201 203 206 197 199 202 193 195 198 188 191 193
184 187 189 180 182 185 175 178 180 170 173 176 166 168 171 255 255
255 255 255 255 255 255 255 254 255 255 252 255 255 250 252 255 248
250 253 245 248 250 243 245 248 240 243 245 237 240 243 235 237 240
232 234 237 229 231 234 226 228 231 222 225 228 219 222 224 216 218
221 212 215 217 209 211 214 205 207 210 201 204 206 197 200 202 193
195 198 189 191 194 184 187 189 180 182 185 175 177 180 170 172 175
165 167 170 159 162 164 154 156 159 148 150 153 142 144 147 135 138
140 128 131 134 121 124 126 114 116 119 105 108 110 96 99 101 86 89 91
75 78 80 62 65 67 46 49 51 41 44 46 16 18 21 16 18 21 16 18 21 16 18
21 91 106 121 91 106 121 91 106 121 91 106 121 91 106 121 91 106 121
91 106 121 91 106 121 91 106 121 90 105 120 90 105 120 90 105 120 90
105 120 90 105 120 90 105 120 90 105 120 90 105 120 90 105 120 90 105
120 90 105 120 90 105 119 90 104 119 90 104 119 89 104 119 89 104 119
89 104 119 89 104 119 89 104 119 89 104 119 89 104 119 89 104 118 89
104 118 89 104 118 89 103 118 89 103 118 89 103 118 88 103 118 88 103
118 88 103 118 88 103 118 88 103 117 88 103 117 88 103 117 88 103 117
88 102 117 88 102 117 88 102 117 88 102 117 88 102 117 88 102 117 87
102 116 87 102 116 87 102 116 87 102 116 87 102 116 87 102 116 87 101
116 87 101 116 87 101 116 87 101 116 87 101 116 87 101 115 87 101 115
87 101 115 86 101 115 86 101 115 86 101 115 86 101 115 86 100 115 86
100 115 86 100 115 86 100 114 86 100 114 86 100 114 86 100 114 86 100
114 86 100 114 86 100 114 85 100 114 85 100 114 85 99 114 85 99 114 85
99 113 85 99 113 85 99 113 85 99 113
107 125 142 107 125 142 107 125 142 107 125 142 107 124 142 107 124
142 107 124 142 107 124 142 106 124 142 106 124 142 106 124 142 106
124 142 106 124 141 106 124 141 106 124 141 106 124 141 106 123 141
106 123 141 106 123 141 106 123 141 106 123 141 106 123 141 106 123
141 105 123 140 105 123 140 105 123 140 105 123 140 105 123 140 105
123 140 105 122 140 105 122 140 105 122 140 105 122 140 105 122 139
105 122 139 105 122 139 105 122 139 104 122 139 104 122 139 104 122
139 104 122 139 104 121 139 104 121 139 104 121 139 104 121 138 104
121 138 104 121 138 104 121 138 104 121 138 104 121 138 104 121 138
103 121 138 103 121 138 103 120 138 103 120 137 103 120 137 103 120
137 103 120 137 103 120 137 103 120 137 103 120 137 103 120 137 103
120 137 103 120 137 103 120 137 102 119 136 102 119 136 102 119 136
102 119 136 102 119 136 102 119 136 102 119 136 102 119 136 102 119
136 102 119 136 102 119 135 102 118 135 102 118 135 101 118 135 101
118 135 101 118 135 101 118 135 101 118 135 101 118 135 101 118 135
101 118 134 101 118 134 101 118 134 101 117 134 101 117 134 101 117
134 100 117 134 100 117 134 100 117 134 100 117 134 100 117 133 100
117 133 100 117 133 100 117 133 100 116 133 100 116 133 100 116 133
100 116 133 100 116 133 100 116 133 99 116 132 99 116 132 99 116 132
99 116 132 99 116 132 99 115 132 99 115 132 99 115 132 99 115 132 99
115 131 99 115 131 244 246 249 253 255 255 255 255 255 255 255 255 255
255 255 255 255 255 255 255 255 255 255 255 255 255 255 255 255 255
255 255 255 255 255 255 255 255 255 255 255 255 255 255 255 255 255
255 255 255 255 255 255 255 255 255 255 255 255 255 255 255 255 255
255 255 255 255 255 255 255 255 251 253 255 247 250 253 245 247 250
242 245 247 240 242 245 237 239 242 234 236 239 231 234 236 228 231
233 225 227 230 222 224 227 218 221 223 215 217 220 211 214 216 208
210 213 204 207 209 200 203 205 196 199 201 192 195 197 188 191 193
184 186 189 180 182 185 175 178 180 170 173 175 166 168 171 255 255
255 255 255 255 255 255 255 254 255 255 252 254 255 250 252 255 247
250 252 245 248 250 243 245 248 240 242 245 237 240 242 234 237 240
232 234 237 229 231 234 226 228 231 222 225 227 219 222 224 216 218
221 212 215 217 209 211 214 205 207 210 201 204 206 197 200 202 193
195 198 189 191 194 184 187 189 180 182 185 175 178 180 170 173 175
165 168 170 160 162 165 154 157 159 148 151 153 142 145 147 136 138
141 129 132 134 122 125 127 114 117 120 106 109 111 97 100 103 88 90
93 77 80 82 65 67 70 50 52 55 41 44 46 16 18 21 16 18 21 16 18 21 16
18 21 16 18 21 91 106 121 91 106 121 91 106 121 91 106 121 91 106 121
91 106 121 91 106 121 90 105 120 90 105 120 90 105 120 90 105 120 90
105 120 90 105 120 90 105 120 90 105 120 90 105 120 90 105 120 90 105
119 90 105 119 90 104 119 90 104 119 89 104 119 89 104 119 89 104 119
89 104 119 89 104 119 89 104 119 89 104 119 89 104 118 89 104 118 89
103 118 89 103 118 89 103 118 89 103 118 88 103 118 88 103 118 88 103
118 88 103 118 88 103 117 88 103 117 88 103 117 88 103 117 88 102 117
88 102 117 88 102 117 88 102 117 88 102 117 88 102 117 87 102 116 87
102 116 87 102 116 87 102 116 87 102 116 87 102 116 87 101 116 87 101
116 87 101 116 87 101 116 87 101 115 87 101 115 87 101 115 87 101 115
86 101 115 86 101 115 86 101 115 86 101 115 86 100 115 86 100 115 86
100 115 86 100 114 86 100 114 86 100 114 86 100 114 86 100 114 86 100
114 86 100 114 85 100 114 85 100 114 85 99 114 85 99 114 85 99 113 85
99 113 85 99 113 85 99 113 85 99 113
107 125 142 107 125 142 107 124 142 107 124 142 107 124 142 107 124
142 107 124 142 106 124 142 106 124 142 106 124 142 106 124 141 106
124 141 106 124 141 106 124 141 106 124 141 106 123 141 106 123 141
106 123 141 106 123 141 106 123 141 106 123 141 105 123 140 105 123
140 105 123 140 105 123 140 105 123 140 105 123 140 105 123 140 105
122 140 105 122 140 105 122 140 105 122 140 105 122 139 105 122 139
105 122 139 105 122 139 104 122 139 104 122 139 104 122 139 104 122
139 104 121 139 104 121 139 104 121 139 104 121 138 104 121 138 104
121 138 104 121 138 104 121 138 104 121 138 104 121 138 103 121 138
103 121 138 103 120 138 103 120 137 103 120 137 103 120 137 103 120
137 103 120 137 103 120 137 103 120 137 103 120 137 103 120 137 103
120 137 103 120 137 102 119 136 102 119 136 102 119 136 102 119 136
102 119 136 102 119 136 102 119 136 102 119 136 102 119 136 102 119
136 102 119 135 102 118 135 102 118 135 101 118 135 101 118 135 101
118 135 101 118 135 101 118 135 101 118 135 101 118 135 101 118 134
101 118 134 101 118 134 101 117 134 101 117 134 101 117 134 100 117
134 100 117 134 100 117 134 100 117 134 100 117 133 100 117 133 100
117 133 100 117 133 100 116 133 100 116 133 100 116 133 100 116 133
100 116 133 99 116 132 99 116 132 99 116 132 99 116 132 99 116 132 99
116 132 99 115 132 99 115 132 99 115 132 99 115 132 99 115 131 99 115
131 225 227 230 246 249 251 255 255 255 255 255 255 255 255 255 255
255 255 255 255 255 255 255 255 255 255 255 255 255 255 255 255 255
255 255 255 255 255 255 255 255 255 255 255 255 255 255 255 255 255
255 255 255 255 255 255 255 255 255 255 255 255 255 255 255 255 255
255 255 255 255 255 255 255 255 254 255 255 248 250 253 244 247 250
242 244 247 239 242 244 236 239 241 233 236 239 231 233 236 228 230
233 224 227 229 221 224 226 218 220 223 214 217 220 211 214 216 207
210 212 204 206 209 200 202 205 196 199 201 192 195 197 188 190 193
184 186 189 179 182 184 175 177 180 170 173 175 165 168 170 160 163
165 255 255 255 255 255 255 254 255 255 252 254 255 249 252 254 247
250 252 245 247 250 242 245 247 240 242 245 237 240 242 234 237 239
231 234 236 228 231 233 225 228 230 222 225 227 219 221 224 216 218
221 212 215 217 208 211 214 205 207 210 201 203 206 197 200 202 193
195 198 189 191 194 184 187 189 180 182 185 175 178 180 170 173 175
165 168 170 160 162 165 154 157 159 149 151 154 143 145 148 136 139
141 130 132 135 123 125 128 115 118 120 107 110 112 99 101 104 89 92
94 79 81 84 67 69 72 53 55 58 41 44 46 41 44 46 16 18 21 16 18 21 16
18 21 16 18 21 91 106 121 91 106 121 91 106 121 91 106 121 91 106 121
91 106 121 90 105 120 90 105 120 90 105 120 90 105 120 90 105 120 90
105 120 90 105 120 90 105 120 90 105 120 90 105 120 90 105 119 90 105
119 90 104 119 90 104 119 89 104 119 89 104 119 89 104 119 89 104 119
89 104 119 89 104 119 89 104 118 89 104 118 89 104 118 89 103 118 89
103 118 89 103 118 89 103 118 88 103 118 88 103 118 88 103 118 88 103
118 88 103 117 88 103 117 88 103 117 88 103 117 88 102 117 88 102 117
88 102 117 88 102 117 88 102 117 88 102 117 87 102 116 87 102 116 87
102 116 87 102 116 87 102 116 87 102 116 87 101 116 87 101 116 87 101
116 87 101 116 87 101 115 87 101 115 87 101 115 87 101 115 86 101 115
86 101 115 86 101 115 86 101 115 86 100 115 86 100 115 86 100 115 86
100 114 86 100 114 86 100 114 86 100 114 86 100 114 86 100 114 86 100
114 85 100 114 85 100 114 85 99 114 85 99 113 85 99 113 85 99 113 85
99 113 85 99 113 85 99 113 85 99 113
107 125 142 107 124 142 107 124 142 107 124 142 107 124 142 106 124
142 106 124 142 106 124 142 106 124 142 106 124 141 106 124 141 106
124 141 106 124 141 106 124 141 106 123 141 106 123 141 106 123 141
106 123 141 106 123 141 106 123 141 105 123 140 105 123 140 105 123
140 105 123 140 105 123 140 105 123 140 105 122 140 105 122 140 105
122 140 105 122 140 105 122 140 105 122 139 105 122 139 105 122 139
105 122 139 104 122 139 104 122 139 104 122 139 104 122 139 104 121
139 104 121 139 104 121 139 104 121 138 104 121 138 104 121 138 104
121 138 104 121 138 104 121 138 104 121 138 103 121 138 103 121 138
103 120 138 103 120 137 103 120 137 103 120 137 103 120 137 103 120
137 103 120 137 103 120 137 103 120 137 103 120 137 103 120 137 102
119 136 102 119 136 102 119 136 102 119 136 102 119 136 102 119 136
102 119 136 102 119 136 102 119 136 102 119 136 102 119 135 102 119
135 102 118 135 102 118 135 101 118 135 101 118 135 101 118 135 101
118 135 101 118 135 101 118 135 101 118 135 101 118 134 101 118 134
101 117 134 101 117 134 101 117 134 101 117 134 100 117 134 100 117
134 100 117 134 100 117 133 100 117 133 100 117 133 100 117 133 100
117 133 100 116 133 100 116 133 100 116 133 100 116 133 100 116 133 99
116 132 99 116 132 99 116 132 99 116 132 99 116 132 99 116 132 99 115
132 99 115 132 99 115 132 99 115 132 99 115 131 99 115 131 99 115 131
233 235 238 248 251 253 255 255 255 255 255 255 255 255 255 255 255
255 255 255 255 255 255 255 255 255 255 255 255 255 255 255 255 255
255 255 255 255 255 255 255 255 255 255 255 255 255 255 255 255 255
255 255 255 255 255 255 255 255 255 255 255 255 255 255 255 255 255
255 255 255 255 255 255 255 255 255 255 248 251 253 244 247 249 241
244 246 239 241 244 236 238 241 233 235 238 230 233 235 227 230 232
224 226 229 221 223 226 217 220 222 214 217 219 210 213 216 207 209
212 203 206 208 199 202 205 196 198 201 192 194 197 187 190 193 183
186 188 179 181 184 174 177 179 170 172 175 165 168 170 160 163 165
255 255 255 255 255 255 254 255 255 251 254 255 249 252 254 247 249
252 244 247 249 242 244 247 239 242 244 237 239 242 234 236 239 231
234 236 228 231 233 225 228 230 222 224 227 219 221 224 215 218 220
212 214 217 208 211 213 204 207 210 201 203 206 197 199 202 193 195
198 188 191 194 184 187 189 180 182 185 175 178 180 170 173 175 165
168 170 160 162 165 154 157 160 149 151 154 143 145 148 137 139 142
130 133 135 123 126 128 116 118 121 108 110 113 99 102 104 90 93 95 80
82 85 68 71 73 55 57 60 41 44 46 41 44 46 16 18 21 16 18 21 16 18 21
16 18 21 16 18 21 91 106 121 91 106 121 91 106 121 91 106 121 90 105
120 90 105 120 90 105 120 90 105 120 90 105 120 90 105 120 90 105 120
90 105 120 90 105 120 90 105 120 90 105 119 90 105 119 90 104 119 89
104 119 89 104 119 89 104 119 89 104 119 89 104 119 89 104 119 89 104
119 89 104 118 89 104 118 89 104 118 89 103 118 89 103 118 89 103 118
89 103 118 88 103 118 88 103 118 88 103 118 88 103 117 88 103 117 88
103 117 88 103 117 88 103 117 88 102 117 88 102 117 88 102 117 88 102
117 88 102 117 88 102 117 87 102 116 87 102 116 87 102 116 87 102 116
87 102 116 87 102 116 87 101 116 87 101 116 87 101 116 87 101 116 87
101 115 87 101 115 87 101 115 86 101 115 86 101 115 86 101 115 86 101
115 86 100 115 86 100 115 86 100 115 86 100 114 86 100 114 86 100 114
86 100 114 86 100 114 86 100 114 86 100 114 86 100 114 85 100 114 85
100 114 85 99 114 85 99 113 85 99 113 85 99 113 85 99 113 85 99 113 85
99 113 85 99 113 85 99 113
107 124 142 107 124 142 107 124 142 107 124 142 106 124 142 106 124
142 106 124 142 106 124 142 106 124 141 106 124 141 106 124 141 106
124 141 106 123 141 106 123 141 106 123 141 106 123 141 106 123 141
106 123 141 106 123 141 105 123 140 105 123 140 105 123 140 105 123
140 105 123 140 105 123 140 105 122 140 105 122 140 105 122 140 105
122 140 105 122 140 105 122 139 105 122 139 105 122 139 104 122 139
104 122 139 104 122 139 104 122 139 104 121 139 104 121 139 104 121
139 104 121 138 104 121 138 104 121 138 104 121 138 104 121 138 104
121 138 104 121 138 103 121 138 103 121 138 103 120 138 103 120 138
103 120 137 103 120 137 103 120 137 103 120 137 103 120 137 103 120
137 103 120 137 103 120 137 103 120 137 103 120 137 102 119 136 102
119 136 102 119 136 102 119 136 102 119 136 102 119 136 102 119 136
102 119 136 102 119 136 102 119 136 102 119 135 102 119 135 102 118
135 102 118 135 101 118 135 101 118 135 101 118 135 101 118 135 101
118 135 101 118 135 101 118 134 101 118 134 101 118 134 101 117 134
101 117 134 101 117 134 101 117 134 100 117 134 100 117 134 100 117
134 100 117 133 100 117 133 100 117 133 100 117 133 100 117 133 100
116 133 100 116 133 100 116 133 100 116 133 100 116 133 99 116 132 99
116 132 99 116 132 99 116 132 99 116 132 99 116 132 99 115 132 99 115
132 99 115 132 99 115 132 99 115 131 99 115 131 99 115 131 98 115 131
236 239 242 249 252 254 255 255 255 255 255 255 255 255 255 255 255
255 255 255 255 255 255 255 255 255 255 255 255 255 255 255 255 255
255 255 255 255 255 255 255 255 255 255 255 255 255 255 255 255 255
255 255 255 255 255 255 255 255 255 255 255 255 255 255 255 255 255
255 255 255 255 255 255 255 255 255 255 249 251 254 243 246 248 241
243 246 238 240 243 235 238 240 232 235 237 229 232 234 226 229 231
223 226 228 220 223 225 217 219 222 213 216 218 210 212 215 206 209
211 203 205 208 199 201 204 195 198 200 191 194 196 187 189 192 183
185 188 178 181 183 174 176 179 169 172 174 164 167 170 160 162 165
255 255 255 255 255 255 254 255 255 251 253 255 248 251 254 246 249
251 244 246 249 241 244 246 239 241 244 236 239 241 233 236 238 231
233 236 228 230 233 225 227 230 221 224 226 218 221 223 215 217 220
211 214 216 208 210 213 204 207 209 200 203 205 196 199 202 192 195
197 188 191 193 184 186 189 179 182 184 175 177 180 170 172 175 165
168 170 160 162 165 154 157 159 149 151 154 143 145 148 137 139 142
130 133 135 123 126 128 116 119 121 108 111 113 100 102 105 91 93 96
81 83 86 70 72 75 57 59 62 41 44 46 41 44 46 16 18 21 16 18 21 16 18
21 16 18 21 16 18 21 91 106 121 91 106 121 91 106 121 90 105 120 90
105 120 90 105 120 90 105 120 90 105 120 90 105 120 90 105 120 90 105
120 90 105 120 90 105 120 90 105 119 90 104 119 90 104 119 89 104 119
89 104 119 89 104 119 89 104 119 89 104 119 89 104 119 89 104 119 89
104 118 89 104 118 89 104 118 89 103 118 89 103 118 89 103 118 89 103
118 88 103 118 88 103 118 88 103 118 88 103 117 88 103 117 88 103 117
88 103 117 88 103 117 88 102 117 88 102 117 88 102 117 88 102 117 88
102 117 87 102 116 87 102 116 87 102 116 87 102 116 87 102 116 87 102
116 87 101 116 87 101 116 87 101 116 87 101 116 87 101 116 87 101 115
87 101 115 87 101 115 86 101 115 86 101 115 86 101 115 86 101 115 86
100 115 86 100 115 86 100 115 86 100 114 86 100 114 86 100 114 86 100
114 86 100 114 86 100 114 86 100 114 85 100 114 85 100 114 85 99 114
85 99 114 85 99 113 85 99 113 85 99 113 85 99 113 85 99 113 85 99 113
85 99 113 85 99 113 85 99 113
107 124 142 107 124 142 106 124 142 106 124 142 106 124 142 106 124
142 106 124 141 106 124 141 106 124 141 106 124 141 106 124 141 106
123 141 106 123 141 106 123 141 106 123 141 106 123 141 106 123 141
105 123 140 105 123 140 105 123 140 105 123 140 105 123 140 105 123
140 105 123 140 105 122 140 105 122 140 105 122 140 105 122 140 105
122 139 105 122 139 105 122 139 105 122 139 104 122 139 104 122 139
104 122 139 104 122 139 104 121 139 104 121 139 104 121 139 104 121
138 104 121 138 104 121 138 104 121 138 104 121 138 104 121 138 104
121 138 103 121 138 103 121 138 103 120 138 103 120 138 103 120 137
103 120 137 103 120 137 103 120 137 103 120 137 103 120 137 103 120
137 103 120 137 103 120 137 103 120 137 102 119 136 102 119 136 102
119 136 102 119 136 102 119 136 102 119 136 102 119 136 102 119 136
102 119 136 102 119 136 102 119 135 102 119 135 102 118 135 102 118
135 101 118 135 101 118 135 101 118 135 101 118 135 101 118 135 101
118 135 101 118 134 101 118 134 101 118 134 101 117 134 101 117 134
101 117 134 101 117 134 100 117 134 100 117 134 100 117 134 100 117
133 100 117 133 100 117 133 100 117 133 100 116 133 100 116 133 100
116 133 100 116 133 100 116 133 100 116 133 99 116 132 99 116 132 99
116 132 99 116 132 99 116 132 99 116 132 99 115 132 99 115 132 99 115
132 99 115 132 99 115 131 99 115 131 99 115 131 98 115 131 98 115 131
239 241 244 250 252 255 255 255 255 255 255 255 255 255 255 255 255
255 255 255 255 255 255 255 255 255 255 255 255 255 255 255 255 255
255 255 255 255 255 255 255 255 255 255 255 255 255 255 255 255 255
255 255 255 255 255 255 255 255 255 255 255 255 255 255 255 255 255
255 255 255 255 255 255 255 255 255 255 248 250 253 243 245 248 240
242 245 237 240 242 234 237 239 232 234 237 229 231 234 226 228 231
222 225 228 219 222 224 216 219 221 213 215 218 209 212 214 206 208
211 202 204 207 198 201 203 194 197 199 190 193 195 186 189 191 182
185 187 178 180 183 173 176 178 169 171 174 164 166 169 159 162 164
255 255 255 255 255 255 254 255 255 250 253 255 248 250 253 246 248
251 243 246 248 241 243 246 238 241 243 236 238 241 233 235 238 230
232 235 227 230 232 224 227 229 221 223 226 218 220 223 214 217 219
211 213 216 207 210 212 204 206 209 200 202 205 196 198 201 192 194
197 188 190 193 183 186 189 179 182 184 174 177 179 170 172 175 165
167 170 159 162 165 154 157 159 149 151 154 143 145 148 137 139 142
130 133 135 123 126 128 116 119 121 108 111 114 100 103 105 91 94 96
81 84 86 70 73 75 58 60 63 42 45 48 41 44 46 16 18 21 16 18 21 16 18
21 16 18 21 16 18 21 16 18 21 91 106 121 90 105 120 90 105 120 90 105
120 90 105 120 90 105 120 90 105 120 90 105 120 90 105 120 90 105 120
90 105 120 90 105 119 90 104 119 90 104 119 89 104 119 89 104 119 89
104 119 89 104 119 89 104 119 89 104 119 89 104 119 89 104 118 89 104
118 89 104 118 89 103 118 89 103 118 89 103 118 89 103 118 88 103 118
88 103 118 88 103 118 88 103 117 88 103 117 88 103 117 88 103 117 88
102 117 88 102 117 88 102 117 88 102 117 88 102 117 88 102 117 87 102
116 87 102 116 87 102 116 87 102 116 87 102 116 87 102 116 87 101 116
87 101 116 87 101 116 87 101 116 87 101 116 87 101 115 87 101 115 87
101 115 86 101 115 86 101 115 86 101 115 86 101 115 86 100 115 86 100
115 86 100 115 86 100 114 86 100 114 86 100 114 86 100 114 86 100 114
86 100 114 86 100 114 85 100 114 85 100 114 85 99 114 85 99 114 85 99
113 85 99 113 85 99 113 85 99 113 85 99 113 85 99 113 85 99 113 85 99
113 85 99 113 85 99 113
107 124 142 106 124 142 106 124 142 106 124 142 106 124 142 106 124
141 106 124 141 106 124 141 106 124 141 106 124 141 106 123 141 106
123 141 106 123 141 106 123 141 106 123 141 106 123 141 105 123 140
105 123 140 105 123 140 105 123 140 105 123 140 105 123 140 105 122
140 105 122 140 105 122 140 105 122 140 105 122 140 105 122 139 105
122 139 105 122 139 105 122 139 104 122 139 104 122 139 104 122 139
104 122 139 104 121 139 104 121 139 104 121 139 104 121 138 104 121
138 104 121 138 104 121 138 104 121 138 104 121 138 104 121 138 103
121 138 103 121 138 103 120 138 103 120 137 103 120 137 103 120 137
103 120 137 103 120 137 103 120 137 103 120 137 103 120 137 103 120
137 103 120 137 103 120 137 102 119 136 102 119 136 102 119 136 102
119 136 102 119 136 102 119 136 102 119 136 102 119 136 102 119 136
102 119 136 102 119 135 102 118 135 102 118 135 101 118 135 101 118
135 101 118 135 101 118 135 101 118 135 101 118 135 101 118 135 101
118 134 101 118 134 101 118 134 101 117 134 101 117 134 101 117 134
101 117 134 100 117 134 100 117 134 100 117 134 100 117 133 100 117
133 100 117 133 100 117 133 100 116 133 100 116 133 100 116 133 100
116 133 100 116 133 100 116 133 99 116 132 99 116 132 99 116 132 99
116 132 99 116 132 99 116 132 99 115 132 99 115 132 99 115 132 99 115
132 99 115 131 99 115 131 99 115 131 98 115 131 98 115 131 98 115 131
240 242 245 250 252 255 255 255 255 255 255 255 255 255 255 255 255
255 255 255 255 255 255 255 255 255 255 255 255 255 255 255 255 255
255 255 255 255 255 255 255 255 255 255 255 255 255 255 255 255 255
255 255 255 255 255 255 255 255 255 255 255 255 255 255 255 255 255
255 255 255 255 255 255 255 255 255 255 246 248 251 242 244 247 239
241 244 236 239 241 234 236 239 231 233 236 228 230 233 225 227 230
222 224 227 218 221 224 215 218 220 212 214 217 208 211 213 205 207
210 201 204 206 197 200 202 194 196 199 190 192 195 185 188 191 181
184 186 177 180 182 173 175 178 168 171 173 163 166 168 158 161 163
255 255 255 255 255 255 252 255 255 249 252 254 247 250 252 245 247
250 242 245 248 240 243 245 237 240 243 235 237 240 232 235 237 229
232 234 226 229 231 223 226 228 220 223 225 217 220 222 214 216 219
210 213 215 207 209 212 203 206 208 199 202 204 195 198 200 191 194
196 187 190 192 183 185 188 178 181 184 174 176 179 169 172 174 164
167 169 159 162 164 154 156 159 148 151 153 142 145 147 136 139 141
130 132 135 123 126 128 116 119 121 108 111 113 100 103 105 91 94 96
82 84 87 71 73 76 59 61 64 44 46 49 41 44 46 16 18 21 16 18 21 16 18
21 16 18 21 16 18 21 16 18 21 16 18 21 90 105 120 90 105 120 90 105
120 90 105 120 90 105 120 90 105 120 90 105 120 90 105 120 90 105 120
90 105 119 90 104 119 90 104 119 89 104 119 89 104 119 89 104 119 89
104 119 89 104 119 89 104 119 89 104 119 89 104 118 89 104 118 89 104
118 89 103 118 89 103 118 89 103 118 88 103 118 88 103 118 88 103 118
88 103 118 88 103 117 88 103 117 88 103 117 88 103 117 88 102 117 88
102 117 88 102 117 88 102 117 88 102 117 88 102 117 87 102 116 87 102
116 87 102 116 87 102 116 87 102 116 87 102 116 87 101 116 87 101 116
87 101 116 87 101 116 87 101 115 87 101 115 87 101 115 87 101 115 86
101 115 86 101 115 86 101 115 86 101 115 86 100 115 86 100 115 86 100
115 86 100 114 86 100 114 86 100 114 86 100 114 86 100 114 86 100 114
86 100 114 85 100 114 85 100 114 85 99 114 85 99 113 85 99 113 85 99
113 85 99 113 85 99 113 85 99 113 85 99 113 85 99 113 85 99 113 85 99
113 85 99 113 84 98 112
106 124 142 106 124 142 106 124 142 106 124 141 106 124 141 106 124
141 106 124 141 106 124 141 106 123 141 106 123 141 106 123 141 106
123 141 106 123 141 106 123 141 106 123 141 105 123 140 105 123 140
105 123 140 105 123 140 105 123 140 105 123 140 105 122 140 105 122
140 105 122 140 105 122 140 105 122 140 105 122 139 105 122 139 105
122 139 104 122 139 104 122 139 104 122 139 104 122 139 104 121 139
104 121 139 104 121 139 104 121 139 104 121 138 104 121 138 104 121
138 104 121 138 104 121 138 104 121 138 104 121 138 103 121 138 103
121 138 103 120 138 103 120 137 103 120 137 103 120 137 103 120 137
103 120 137 103 120 137 103 120 137 103 120 137 103 120 137 103 120
137 102 119 136 102 119 136 102 119 136 102 119 136 102 119 136 102
119 136 102 119 136 102 119 136 102 119 136 102 119 136 102 119 136
102 119 135 102 118 135 102 118 135 101 118 135 101 118 135 101 118
135 101 118 135 101 118 135 101 118 135 101 118 135 101 118 134 101
118 134 101 118 134 101 117 134 101 117 134 101 117 134 101 117 134
100 117 134 100 117 134 100 117 134 100 117 133 100 117 133 100 117
133 100 117 133 100 116 133 100 116 133 100 116 133 100 116 133 100
116 133 100 116 133 99 116 132 99 116 132 99 116 132 99 116 132 99 116
132 99 115 132 99 115 132 99 115 132 99 115 132 99 115 132 99 115 131
99 115 131 99 115 131 98 115 131 98 115 131 98 115 131 98 115 131 240
243 245 250 252 255 255 255 255 255 255 255 255 255 255 255 255 255
255 255 255 255 255 255 255 255 255 255 255 255 255 255 255 255 255
255 255 255 255 255 255 255 255 255 255 255 255 255 255 255 255 255
255 255 255 255 255 255 255 255 255 255 255 255 255 255 255 255 255
255 255 255 255 255 255 250 253 255 244 246 249 241 243 246 238 241
243 235 238 240 233 235 238 230 232 235 227 229 232 224 226 229 221
223 226 218 220 223 214 217 219 211 213 216 207 210 213 204 206 209
200 203 205 197 199 202 193 195 198 189 191 194 185 187 190 180 183
186 176 179 181 172 174 177 167 170 172 162 165 168 158 160 163 255
255 255 255 255 255 251 253 255 248 251 254 246 249 251 244 247 249
242 244 247 239 242 244 237 239 242 234 237 239 231 234 236 228 231
234 226 228 231 223 225 228 219 222 225 216 219 221 213 215 218 209
212 215 206 208 211 202 205 207 199 201 204 195 197 200 191 193 196
187 189 192 182 185 187 178 180 183 173 176 178 169 171 174 164 166
169 159 161 164 153 156 158 148 150 153 142 144 147 136 138 141 129
132 135 123 125 128 116 118 121 108 111 113 100 103 105 91 94 96 82 84
87 71 74 76 59 61 64 45 47 50 41 44 46 41 44 46 16 18 21 16 18 21 16
18 21 16 18 21 16 18 21 16 18 21 90 105 120 90 105 120 90 105 120 90
105 120 90 105 120 90 105 120 90 105 120 90 105 119 90 105 119 90 104
119 90 104 119 89 104 119 89 104 119 89 104 119 89 104 119 89 104 119
89 104 119 89 104 119 89 104 118 89 104 118 89 103 118 89 103 118 89
103 118 89 103 118 88 103 118 88 103 118 88 103 118 88 103 118 88 103
117 88 103 117 88 103 117 88 103 117 88 102 117 88 102 117 88 102 117
88 102 117 88 102 117 88 102 117 87 102 116 87 102 116 87 102 116 87
102 116 87 102 116 87 102 116 87 101 116 87 101 116 87 101 116 87 101
116 87 101 115 87 101 115 87 101 115 87 101 115 86 101 115 86 101 115
86 101 115 86 101 115 86 100 115 86 100 115 86 100 115 86 100 114 86
100 114 86 100 114 86 100 114 86 100 114 86 100 114 86 100 114 85 100
114 85 100 114 85 99 114 85 99 113 85 99 113 85 99 113 85 99 113 85 99
113 85 99 113 85 99 113 85 99 113 85 99 113 85 99 113 85 99 113 84 98
112 84 98 112
106 124 142 106 124 142 106 124 141 106 124 141 106 124 141 106 124
141 106 124 141 106 123 141 106 123 141 106 123 141 106 123 141 106
123 141 106 123 141 105 123 140 105 123 140 105 123 140 105 123 140
105 123 140 105 123 140 105 123 140 105 122 140 105 122 140 105 122
140 105 122 140 105 122 139 105 122 139 105 122 139 105 122 139 104
122 139 104 122 139 104 122 139 104 122 139 104 121 139 104 121 139
104 121 139 104 121 138 104 121 138 104 121 138 104 121 138 104 121
138 104 121 138 104 121 138 103 121 138 103 121 138 103 120 138 103
120 138 103 120 137 103 120 137 103 120 137 103 120 137 103 120 137
103 120 137 103 120 137 103 120 137 103 120 137 103 120 137 102 119
136 102 119 136 102 119 136 102 119 136 102 119 136 102 119 136 102
119 136 102 119 136 102 119 136 102 119 136 102 119 136 102 119 135
102 118 135 102 118 135 101 118 135 101 118 135 101 118 135 101 118
135 101 118 135 101 118 135 101 118 135 101 118 134 101 118 134 101
118 134 101 117 134 101 117 134 101 117 134 100 117 134 100 117 134
100 117 134 100 117 134 100 117 133 100 117 133 100 117 133 100 117
133 100 116 133 100 116 133 100 116 133 100 116 133 100 116 133 100
116 133 99 116 132 99 116 132 99 116 132 99 116 132 99 116 132 99 115
132 99 115 132 99 115 132 99 115 132 99 115 132 99 115 131 99 115 131
99 115 131 98 115 131 98 115 131 98 115 131 98 115 131 98 114 131 240
242 245 249 252 254 255 255 255 255 255 255 255 255 255 255 255 255
255 255 255 255 255 255 255 255 255 255 255 255 255 255 255 255 255
255 255 255 255 255 255 255 255 255 255 255 255 255 255 255 255 255
255 255 255 255 255 255 255 255 255 255 255 255 255 255 255 255 255
255 255 255 251 254 255 245 248 250 242 245 247 240 242 245 237 239
242 234 237 239 232 234 237 229 231 234 226 228 231 223 225 228 220
222 225 217 219 222 213 216 218 210 212 215 206 209 212 203 205 208
199 202 204 196 198 201 192 194 197 188 190 193 184 186 189 180 182
185 175 178 180 171 173 176 166 169 171 162 164 167 157 159 162 255
255 255 252 255 255 250 252 255 247 250 253 245 248 250 243 246 248
241 243 246 238 241 243 236 238 241 233 236 238 230 233 235 228 230
233 225 227 230 222 224 227 219 221 224 215 218 220 212 215 217 209
211 214 205 208 210 201 204 207 198 200 203 194 196 199 190 192 195
186 188 191 182 184 187 177 180 182 173 175 178 168 170 173 163 165
168 158 160 163 153 155 158 147 150 152 141 144 146 135 138 140 129
131 134 122 125 127 115 118 120 108 110 113 100 102 105 91 93 96 81 84
87 71 73 76 59 62 64 45 47 50 41 44 46 41 44 46 16 18 21 16 18 21 16
18 21 16 18 21 16 18 21 16 18 21 16 18 21 90 105 120 90 105 120 90 105
120 90 105 120 90 105 120 90 105 119 90 105 119 90 104 119 90 104 119
89 104 119 89 104 119 89 104 119 89 104 119 89 104 119 89 104 119 89
104 118 89 104 118 89 104 118 89 103 118 89 103 118 89 103 118 89 103
118 88 103 118 88 103 118 88 103 118 88 103 117 88 103 117 88 103 117
88 103 117 88 103 117 88 102 117 88 102 117 88 102 117 88 102 117 88
102 117 88 102 117 87 102 116 87 102 116 87 102 116 87 102 116 87 102
116 87 102 116 87 101 116 87 101 116 87 101 116 87 101 116 87 101 115
87 101 115 87 101 115 86 101 115 86 101 115 86 101 115 86 101 115 86
100 115 86 100 115 86 100 115 86 100 114 86 100 114 86 100 114 86 100
114 86 100 114 86 100 114 86 100 114 85 100 114 85 100 114 85 99 114
85 99 114 85 99 113 85 99 113 85 99 113 85 99 113 85 99 113 85 99 113
85 99 113 85 99 113 85 99 113 85 99 113 84 98 112 84 98 112 84 98 112
84 98 112
106 124 141 106 124 141 106 124 141 106 124 141 106 124 141 106 123
141 106 123 141 106 123 141 106 123 141 106 123 141 106 123 141 106
123 141 105 123 140 105 123 140 105 123 140 105 123 140 105 123 140
105 123 140 105 122 140 105 122 140 105 122 140 105 122 140 105 122
140 105 122 139 105 122 139 105 122 139 105 122 139 104 122 139 104
122 139 104 122 139 104 122 139 104 121 139 104 121 139 104 121 139
104 121 138 104 121 138 104 121 138 104 121 138 104 121 138 104 121
138 104 121 138 103 121 138 103 121 138 103 120 138 103 120 138 103
120 137 103 120 137 103 120 137 103 120 137 103 120 137 103 120 137
103 120 137 103 120 137 103 120 137 103 120 137 102 119 136 102 119
136 102 119 136 102 119 136 102 119 136 102 119 136 102 119 136 102
119 136 102 119 136 102 119 136 102 119 135 102 119 135 102 118 135
102 118 135 101 118 135 101 118 135 101 118 135 101 118 135 101 118
135 101 118 135 101 118 134 101 118 134 101 118 134 101 117 134 101
117 134 101 117 134 101 117 134 100 117 134 100 117 134 100 117 134
100 117 134 100 117 133 100 117 133 100 117 133 100 117 133 100 116
133 100 116 133 100 116 133 100 116 133 100 116 133 99 116 132 99 116
132 99 116 132 99 116 132 99 116 132 99 116 132 99 115 132 99 115 132
99 115 132 99 115 132 99 115 131 99 115 131 99 115 131 99 115 131 98
115 131 98 115 131 98 115 131 98 114 131 98 114 131 214 217 220 239
242 244 248 251 253 254 255 255 255 255 255 255 255 255 255 255 255
255 255 255 255 255 255 255 255 255 255 255 255 255 255 255 255 255
255 255 255 255 255 255 255 255 255 255 255 255 255 255 255 255 255
255 255 255 255 255 255 255 255 254 255 255 254 255 255 252 255 255
249 252 254 246 249 251 243 246 248 241 243 246 238 241 243 236 238
241 233 236 238 230 233 236 228 230 233 225 227 230 222 224 227 219
221 224 215 218 221 212 215 217 209 211 214 205 208 211 202 204 207
198 201 203 194 197 200 191 193 196 187 189 192 183 185 188 178 181
184 174 177 179 170 172 175 165 168 170 161 163 166 156 158 161 253
255 255 251 253 255 248 251 254 246 249 251 244 247 249 242 245 247
240 242 245 237 240 242 235 237 240 232 235 237 229 232 234 227 229
232 224 226 229 221 223 226 218 220 223 214 217 219 211 214 216 208
210 213 204 207 209 201 203 206 197 199 202 193 195 198 189 192 194
185 187 190 181 183 186 176 179 181 172 174 177 167 170 172 162 165
167 157 160 162 152 154 157 146 149 151 141 143 146 134 137 140 128
131 133 122 124 127 115 117 120 107 110 112 99 102 104 90 93 95 81 84
86 71 73 76 59 61 64 45 47 50 41 44 46 41 44 46 16 18 21 16 18 21 16
18 21 16 18 21 16 18 21 16 18 21 16 18 21 90 105 120 90 105 120 90 105
120 90 105 120 90 105 119 90 105 119 90 104 119 89 104 119 89 104 119
89 104 119 89 104 119 89 104 119 89 104 119 89 104 119 89 104 118 89
104 118 89 104 118 89 103 118 89 103 118 89 103 118 89 103 118 88 103
118 88 103 118 88 103 118 88 103 117 88 103 117 88 103 117 88 103 117
88 103 117 88 102 117 88 102 117 88 102 117 88 102 117 88 102 117 87
102 116 87 102 116 87 102 116 87 102 116 87 102 116 87 102 116 87 101
116 87 101 116 87 101 116 87 101 116 87 101 116 87 101 115 87 101 115
87 101 115 86 101 115 86 101 115 86 101 115 86 101 115 86 100 115 86
100 115 86 100 115 86 100 114 86 100 114 86 100 114 86 100 114 86 100
114 86 100 114 86 100 114 85 100 114 85 100 114 85 99 114 85 99 114 85
99 113 85 99 113 85 99 113 85 99 113 85 99 113 85 99 113 85 99 113 85
99 113 85 99 113 85 99 113 84 98 112 84 98 112 84 98 112 84 98 112 84
98 112
89 106 124 89 106 124 89 106 124 88 106 124 88 106 124 88 106 124 88
106 123 88 106 123 88 106 123 88 106 123 88 106 123 88 106 123 88 105
123 88 105 123 88 105 123 88 105 123 88 105 123 88 105 123 88 105 123
88 105 122 88 105 122 87 105 122 87 105 122 87 105 122 87 105 122 87
105 122 87 105 122 87 104 122 87 104 122 87 104 122 87 104 122 87 104
121 87 104 121 87 104 121 87 104 121 87 104 121 87 104 121 87 104 121
87 104 121 86 104 121 86 104 121 86 104 121 86 103 121 86 103 121 86
103 120 86 103 120 86 103 120 86 103 120 86 103 120 86 103 120 86 103
120 86 103 120 86 103 120 86 103 120 86 103 120 86 103 120 85 102 119
85 102 119 85 102 119 85 102 119 85 102 119 85 102 119 85 102 119 85
102 119 85 102 119 85 102 119 85 102 119 85 102 118 85 102 118 85 101
118 85 101 118 85 101 118 84 101 118 84 101 118 84 101 118 84 101 118
84 101 118 84 101 118 84 101 118 84 101 117 84 101 117 84 101 117 84
101 117 84 100 117 84 100 117 84 100 117 84 100 117 84 100 117 83 100
117 83 100 117 83 100 117 83 100 116 83 100 116 83 100 116 83 100 116
83 100 116 83 99 116 83 99 116 83 99 116 83 99 116 83 99 116 83 99 116
83 99 115 83 99 115 82 99 115 82 99 115 82 99 115 82 99 115 82 99 115
82 98 115 82 98 115 82 98 115 82 98 115 82 98 114 213 215 218 235 238
241 244 247 249 250 252 255 254 255 255 255 255 255 255 255 255 255
255 255 255 255 255 255 255 255 255 255 255 255 255 255 255 255 255
255 255 255 255 255 255 255 255 255 255 255 255 255 255 255 255 255
255 253 255 255 252 254 255 250 252 255 248 251 253 246 249 251 244
247 249 242 244 247 239 242 245 237 240 242 235 237 240 232 235 237
229 232 235 227 229 232 224 226 229 221 224 226 218 221 223 215 217
220 212 214 217 208 211 214 205 208 210 202 204 207 198 201 203 195
197 200 191 193 196 187 189 192 183 186 188 179 182 184 175 177 180
171 173 176 166 169 171 162 164 167 157 159 162 152 155 157 249 251
254 247 249 252 245 247 250 243 245 248 241 243 246 238 241 243 236
239 241 234 236 239 231 234 236 228 231 233 226 228 231 223 225 228
220 223 225 217 220 222 214 216 219 211 213 216 207 210 213 204 207
209 201 203 206 197 199 202 193 196 198 189 192 194 185 188 190 181
184 186 177 180 182 173 175 178 168 171 173 163 166 169 159 161 164
154 156 159 148 151 153 143 145 148 137 140 142 131 134 136 125 127
130 118 121 123 111 114 116 104 106 109 96 98 101 87 90 92 78 80 83 67
70 72 56 58 61 42 44 47 39 41 44 39 41 44 13 16 18 13 16 18 13 16 18
13 16 18 13 16 18 13 16 18 13 16 18 75 90 105 75 90 105 75 90 105 75
90 105 75 90 105 75 90 105 75 90 105 75 90 104 75 90 104 75 89 104 75
89 104 75 89 104 74 89 104 74 89 104 74 89 104 74 89 104 74 89 104 74
89 104 74 89 104 74 89 103 74 89 103 74 89 103 74 88 103 74 88 103 74
88 103 74 88 103 74 88 103 74 88 103 73 88 103 73 88 103 73 88 102 73
88 102 73 88 102 73 88 102 73 88 102 73 88 102 73 87 102 73 87 102 73
87 102 73 87 102 73 87 102 73 87 102 73 87 101 73 87 101 72 87 101 72
87 101 72 87 101 72 87 101 72 87 101 72 87 101 72 86 101 72 86 101 72
86 101 72 86 101 72 86 100 72 86 100 72 86 100 72 86 100 72 86 100 72
86 100 72 86 100 71 86 100 71 86 100 71 86 100 71 85 100 71 85 100 71
85 99 71 85 99 71 85 99 71 85 99 71 85 99 71 85 99 71 85 99 71 85 99
71 85 99 71 85 99 71 85 99 71 85 99 70 84 98 70 84 98 70 84 98
89 106 124 89 106 124 89 106 124 89 106 124 89 106 124 88 106 124 88
106 124 88 106 123 88 106 123 88 106 123 88 106 123 88 106 123 88 106
123 88 106 123 88 105 123 88 105 123 88 105 123 88 105 123 88 105 123
88 105 123 88 105 122 88 105 122 88 105 122 87 105 122 87 105 122 87
105 122 87 105 122 87 105 122 87 105 122 87 104 122 87 104 122 87 104
122 87 104 122 87 104 121 87 104 121 87 104 121 87 104 121 87 104 121
87 104 121 87 104 121 86 104 121 86 104 121 86 104 121 86 103 121 86
103 121 86 103 120 86 103 120 86 103 120 86 103 120 86 103 120 86 103
120 86 103 120 86 103 120 86 103 120 86 103 120 86 103 120 86 103 120
85 102 119 85 102 119 85 102 119 85 102 119 85 102 119 85 102 119 85
102 119 85 102 119 85 102 119 85 102 119 85 102 119 85 102 119 85 102
118 85 102 118 85 101 118 85 101 118 85 101 118 84 101 118 84 101 118
84 101 118 84 101 118 84 101 118 84 101 118 84 101 118 84 101 117 84
101 117 84 101 117 84 100 117 84 100 117 84 100 117 84 100 117 84 100
117 84 100 117 83 100 117 83 100 117 83 100 116 83 100 116 83 100 116
83 100 116 83 100 116 83 100 116 83 99 116 83 99 116 83 99 116 83 99
116 83 99 116 83 99 116 83 99 115 83 99 115 82 99 115 82 99 115 82 99
115 82 99 115 82 99 115 82 98 115 82 98 115 82 98 115 211 213 216 234
236 239 243 245 248 248 251 253 252 255 255 255 255 255 255 255 255
255 255 255 255 255 255 255 255 255 255 255 255 255 255 255 255 255
255 255 255 255 255 255 255 255 255 255 255 255 255 255 255 255 253
255 255 252 254 255 250 253 255 248 251 254 247 249 252 245 247 250
243 245 248 240 243 245 238 241 243 236 238 241 233 236 238 231 233
236 228 231 233 225 228 230 223 225 228 220 222 225 217 219 222 214
216 219 210 213 216 207 210 212 204 206 209 200 203 206 197 199 202
193 196 198 190 192 195 186 188 191 182 184 187 178 180 183 174 176
179 169 172 174 165 167 170 160 163 165 156 158 161 151 153 156 247
250 252 245 248 251 243 246 249 241 244 247 239 242 244 237 240 242
235 237 240 232 235 237 230 232 235 227 230 232 224 227 230 222 224
227 219 221 224 216 218 221 213 215 218 210 212 215 206 209 211 203
205 208 199 202 204 196 198 201 192 195 197 188 191 193 184 187 189
180 183 185 176 178 181 172 174 177 167 170 172 162 165 167 157 160
163 152 155 158 147 150 152 142 144 147 136 139 141 130 133 135 124
126 129 117 120 122 110 113 115 103 105 108 95 97 100 86 89 91 77 79
82 66 69 71 55 57 60 41 43 46 39 41 44 39 41 44 13 16 18 13 16 18 13
16 18 13 16 18 13 16 18 13 16 18 13 16 18 75 90 105 75 90 105 75 90
105 75 90 105 75 90 105 75 90 105 75 90 105 75 90 105 75 90 105 75 90
105 75 90 104 75 90 104 75 89 104 75 89 104 74 89 104 74 89 104 74 89
104 74 89 104 74 89 104 74 89 104 74 89 104 74 89 103 74 89 103 74 89
103 74 89 103 74 88 103 74 88 103 74 88 103 74 88 103 74 88 103 74 88
103 73 88 103 73 88 103 73 88 102 73 88 102 73 88 102 73 88 102 73 88
102 73 88 102 73 87 102 73 87 102 73 87 102 73 87 102 73 87 102 73 87
102 73 87 101 73 87 101 72 87 101 72 87 101 72 87 101 72 87 101 72 87
101 72 87 101 72 86 101 72 86 101 72 86 101 72 86 101 72 86 100 72 86
100 72 86 100 72 86 100 72 86 100 72 86 100 72 86 100 71 86 100 71 86
100 71 86 100 71 85 100 71 85 100 71 85 99 71 85 99 71 85 99 71 85 99
71 85 99 71 85 99 71 85 99 71 85 99 71 85 99 71 85 99 71 85 99 71 85
99
89 106 124 89 106 124 89 106 124 89 106 124 89 106 124 89 106 124 88
106 124 88 106 124 88 106 124 88 106 123 88 106 123 88 106 123 88 106
123 88 106 123 88 106 123 88 105 123 88 105 123 88 105 123 88 105 123
88 105 123 88 105 123 88 105 123 88 105 122 88 105 122 87 105 122 87
105 122 87 105 122 87 105 122 87 105 122 87 105 122 87 104 122 87 104
122 87 104 122 87 104 122 87 104 121 87 104 121 87 104 121 87 104 121
87 104 121 87 104 121 87 104 121 86 104 121 86 104 121 86 104 121 86
103 121 86 103 121 86 103 120 86 103 120 86 103 120 86 103 120 86 103
120 86 103 120 86 103 120 86 103 120 86 103 120 86 103 120 86 103 120
86 103 120 85 102 119 85 102 119 85 102 119 85 102 119 85 102 119 85
102 119 85 102 119 85 102 119 85 102 119 85 102 119 85 102 119 85 102
119 85 102 118 85 102 118 85 101 118 85 101 118 85 101 118 84 101 118
84 101 118 84 101 118 84 101 118 84 101 118 84 101 118 84 101 118 84
101 117 84 101 117 84 101 117 84 101 117 84 100 117 84 100 117 84 100
117 84 100 117 84 100 117 83 100 117 83 100 117 83 100 117 83 100 116
83 100 116 83 100 116 83 100 116 83 100 116 83 99 116 83 99 116 83 99
116 83 99 116 83 99 116 83 99 116 83 99 115 83 99 115 82 99 115 82 99
115 82 99 115 82 99 115 82 99 115 82 99 115 82 98 115 206 209 211 232
234 237 241 243 246 247 249 252 250 253 255 253 255 255 255 255 255
255 255 255 255 255 255 255 255 255 255 255 255 255 255 255 255 255
255 255 255 255 255 255 255 255 255 255 255 255 255 253 255 255 252
254 255 250 253 255 249 251 254 247 250 252 245 248 250 243 246 248
241 244 246 239 242 244 237 239 242 234 237 239 232 234 237 229 232
234 227 229 232 224 227 229 221 224 226 218 221 223 215 218 220 212
215 217 209 212 214 206 208 211 202 205 208 199 202 204 196 198 201
192 194 197 188 191 193 184 187 189 180 183 186 176 179 181 172 175
177 168 170 173 164 166 169 159 162 164 154 157 159 149 152 155 246
248 251 244 247 249 242 245 247 240 243 245 238 240 243 236 238 241
233 236 238 231 234 236 228 231 234 226 228 231 223 226 228 220 223
225 217 220 223 215 217 220 211 214 217 208 211 213 205 208 210 202
204 207 198 201 203 195 197 200 191 193 196 187 190 192 183 186 188
179 181 184 175 177 180 170 173 175 166 168 171 161 164 166 156 159
161 151 154 156 146 148 151 140 143 146 135 137 140 129 131 134 122
125 128 116 118 121 109 111 114 101 104 107 93 96 99 85 87 90 76 78 81
65 68 70 53 56 59 40 42 45 39 41 44 39 41 44 13 16 18 13 16 18 13 16
18 13 16 18 13 16 18 13 16 18 76 91 106 76 91 106 75 90 105 75 90 105
75 90 105 75 90 105 75 90 105 75 90 105 75 90 105 75 90 105 75 90 105
75 90 105 75 90 105 75 90 104 75 90 104 75 89 104 75 89 104 75 89 104
74 89 104 74 89 104 74 89 104 74 89 104 74 89 104 74 89 104 74 89 104
74 89 103 74 89 103 74 89 103 74 89 103 74 88 103 74 88 103 74 88 103
74 88 103 74 88 103 73 88 103 73 88 103 73 88 103 73 88 102 73 88 102
73 88 102 73 88 102 73 88 102 73 88 102 73 87 102 73 87 102 73 87 102
73 87 102 73 87 102 73 87 102 73 87 101 73 87 101 72 87 101 72 87 101
72 87 101 72 87 101 72 87 101 72 87 101 72 86 101 72 86 101 72 86 101
72 86 101 72 86 100 72 86 100 72 86 100 72 86 100 72 86 100 72 86 100
72 86 100 71 86 100 71 86 100 71 86 100 71 85 100 71 85 100 71 85 99
71 85 99 71 85 99 71 85 99 71 85 99 71 85 99 71 85 99 71 85 99 71 85
99
89 107 124 89 106 124 89 106 124 89 106 124 89 106 124 89 106 124 89
106 124 88 106 124 88 106 124 88 106 124 88 106 123 88 106 123 88 106
123 88 106 123 88 106 123 88 106 123 88 105 123 88 105 123 88 105 123
88 105 123 88 105 123 88 105 123 88 105 123 88 105 122 88 105 122 87
105 122 87 105 122 87 105 122 87 105 122 87 105 122 87 105 122 87 104
122 87 104 122 87 104 122 87 104 122 87 104 121 87 104 121 87 104 121
87 104 121 87 104 121 87 104 121 87 104 121 87 104 121 86 104 121 86
104 121 86 104 121 86 103 121 86 103 121 86 103 120 86 103 120 86 103
120 86 103 120 86 103 120 86 103 120 86 103 120 86 103 120 86 103 120
86 103 120 86 103 120 86 103 120 85 102 119 85 102 119 85 102 119 85
102 119 85 102 119 85 102 119 85 102 119 85 102 119 85 102 119 85 102
119 85 102 119 85 102 119 85 102 118 85 102 118 85 101 118 85 101 118
84 101 118 84 101 118 84 101 118 84 101 118 84 101 118 84 101 118 84
101 118 84 101 118 84 101 117 84 101 117 84 101 117 84 100 117 84 100
117 84 100 117 84 100 117 84 100 117 84 100 117 83 100 117 83 100 117
83 100 116 83 100 116 83 100 116 83 100 116 83 100 116 83 100 116 83
99 116 83 99 116 83 99 116 83 99 116 83 99 116 83 99 116 83 99 115 83
99 115 82 99 115 82 99 115 82 99 115 82 99 115 82 99 115 82 98 115 229
232 234 239 241 244 245 247 250 249 251 254 251 254 255 253 255 255
255 255 255 255 255 255 255 255 255 255 255 255 255 255 255 255 255
255 255 255 255 255 255 255 254 255 255 253 255 255 252 254 255 250
253 255 249 251 254 247 250 252 245 248 251 244 246 249 242 244 247
240 242 245 237 240 243 235 238 240 233 235 238 230 233 235 228 230
233 225 228 230 223 225 228 220 222 225 217 219 222 214 216 219 211
213 216 208 210 213 204 207 209 201 204 206 198 200 203 194 197 199
190 193 196 187 189 192 183 185 188 179 182 184 175 177 180 171 173
176 166 169 172 162 165 167 158 160 163 153 155 158 148 151 153 244
247 249 243 245 248 241 243 246 239 241 244 236 239 242 234 237 239
232 234 237 230 232 235 227 230 232 224 227 230 222 224 227 219 222
224 216 219 221 213 216 218 210 213 215 207 209 212 204 206 209 200
203 205 197 199 202 193 196 198 189 192 195 186 188 191 182 184 187
178 180 183 173 176 178 169 172 174 164 167 170 160 162 165 155 157
160 150 152 155 145 147 150 139 142 144 133 136 138 127 130 133 121
124 126 114 117 120 107 110 113 100 103 105 92 95 97 83 86 89 74 77 79
64 66 69 52 54 57 39 41 44 39 41 44 39 41 44 13 16 18 13 16 18 13 16
18 13 16 18 13 16 18 13 16 18 76 91 106 76 91 106 76 91 106 76 91 106
75 90 105 75 90 105 75 90 105 75 90 105 75 90 105 75 90 105 75 90 105
75 90 105 75 90 105 75 90 105 75 90 105 75 90 105 75 90 104 75 90 104
75 89 104 75 89 104 75 89 104 74 89 104 74 89 104 74 89 104 74 89 104
74 89 104 74 89 104 74 89 104 74 89 103 74 89 103 74 89 103 74 89 103
74 88 103 74 88 103 74 88 103 74 88 103 74 88 103 73 88 103 73 88 103
73 88 103 73 88 102 73 88 102 73 88 102 73 88 102 73 88 102 73 88 102
73 87 102 73 87 102 73 87 102 73 87 102 73 87 102 73 87 102 73 87 101
73 87 101 72 87 101 72 87 101 72 87 101 72 87 101 72 87 101 72 87 101
72 86 101 72 86 101 72 86 101 72 86 101 72 86 100 72 86 100 72 86 100
72 86 100 72 86 100 72 86 100 72 86 100 71 86 100 71 86 100 71 86 100
71 85 100 71 85 100 71 85 99 71 85 99 71 85 99 71 85 99 71 85 99 71 85
99
89 107 124 89 107 124 89 106 124 89 106 124 89 106 124 89 106 124 89
106 124 89 106 124 89 106 124 88 106 124 88 106 124 88 106 123 88 106
123 88 106 123 88 106 123 88 106 123 88 106 123 88 106 123 88 105 123
88 105 123 88 105 123 88 105 123 88 105 123 88 105 123 88 105 122 88
105 122 88 105 122 87 105 122 87 105 122 87 105 122 87 105 122 87 105
122 87 104 122 87 104 122 87 104 122 87 104 122 87 104 122 87 104 121
87 104 121 87 104 121 87 104 121 87 104 121 87 104 121 87 104 121 86
104 121 86 104 121 86 104 121 86 103 121 86 103 121 86 103 120 86 103
120 86 103 120 86 103 120 86 103 120 86 103 120 86 103 120 86 103 120
86 103 120 86 103 120 86 103 120 86 103 120 85 102 119 85 102 119 85
102 119 85 102 119 85 102 119 85 102 119 85 102 119 85 102 119 85 102
119 85 102 119 85 102 119 85 102 119 85 102 118 85 102 118 85 101 118
85 101 118 85 101 118 84 101 118 84 101 118 84 101 118 84 101 118 84
101 118 84 101 118 84 101 118 84 101 117 84 101 117 84 101 117 84 101
117 84 100 117 84 100 117 84 100 117 84 100 117 84 100 117 83 100 117
83 100 117 83 100 117 83 100 116 83 100 116 83 100 116 83 100 116 83
100 116 83 99 116 83 99 116 83 99 116 83 99 116 83 99 116 83 99 116 83
99 115 83 99 115 83 99 115 82 99 115 82 99 115 82 99 115 82 99 115 226
229 231 236 239 241 242 245 247 246 249 252 249 252 254 251 254 255
253 255 255 254 255 255 255 255 255 255 255 255 255 255 255 254 255
255 254 255 255 253 255 255 252 255 255 251 254 255 250 253 255 249
251 254 247 250 252 246 248 251 244 246 249 242 245 247 240 243 245
238 241 243 236 238 241 234 236 239 231 234 236 229 231 234 226 229
231 224 226 229 221 223 226 218 221 223 215 218 220 212 215 217 209
212 214 206 209 211 203 205 208 199 202 205 196 199 201 193 195 198
189 191 194 185 188 190 181 184 186 177 180 183 173 176 178 169 172
174 165 167 170 161 163 166 156 159 161 151 154 156 146 149 152 243
245 248 241 244 246 239 242 244 237 240 242 235 237 240 233 235 238
230 233 235 228 231 233 225 228 231 223 225 228 220 223 225 217 220
223 215 217 220 212 214 217 209 211 214 205 208 210 202 205 207 199
201 204 195 198 200 192 194 197 188 191 193 184 187 189 180 183 185
176 179 181 172 174 177 167 170 173 163 166 168 158 161 163 153 156
159 148 151 153 143 146 148 138 140 143 132 134 137 126 128 131 120
122 125 113 115 118 106 108 111 98 101 104 90 93 96 82 84 87 72 75 77
62 64 67 50 53 55 39 41 44 39 41 44 39 41 44 13 16 18 13 16 18 13 16
18 13 16 18 13 16 18 76 91 106 76 91 106 76 91 106 76 91 106 76 91 106
76 91 106 76 91 106 75 90 105 75 90 105 75 90 105 75 90 105 75 90 105
75 90 105 75 90 105 75 90 105 75 90 105 75 90 105 75 90 105 75 90 105
75 90 104 75 90 104 75 89 104 75 89 104 75 89 104 74 89 104 74 89 104
74 89 104 74 89 104 74 89 104 74 89 104 74 89 104 74 89 103 74 89 103
74 89 103 74 89 103 74 88 103 74 88 103 74 88 103 74 88 103 74 88 103
74 88 103 73 88 103 73 88 103 73 88 102 73 88 102 73 88 102 73 88 102
73 88 102 73 88 102 73 88 102 73 87 102 73 87 102 73 87 102 73 87 102
73 87 102 73 87 102 73 87 101 73 87 101 72 87 101 72 87 101 72 87 101
72 87 101 72 87 101 72 87 101 72 86 101 72 86 101 72 86 101 72 86 101
72 86 100 72 86 100 72 86 100 72 86 100 72 86 100 72 86 100 72 86 100
72 86 100 71 86 100 71 86 100 71 85 100 71 85 100 71 85 100 71 85 99
71 85 99
89 107 124 89 107 124 89 107 124 89 107 124 89 106 124 89 106 124 89
106 124 89 106 124 89 106 124 89 106 124 88 106 124 88 106 124 88 106
123 88 106 123 88 106 123 88 106 123 88 106 123 88 106 123 88 106 123
88 105 123 88 105 123 88 105 123 88 105 123 88 105 123 88 105 123 88
105 122 88 105 122 88 105 122 87 105 122 87 105 122 87 105 122 87 105
122 87 105 122 87 105 122 87 104 122 87 104 122 87 104 122 87 104 122
87 104 121 87 104 121 87 104 121 87 104 121 87 104 121 87 104 121 87
104 121 86 104 121 86 104 121 86 104 121 86 103 121 86 103 121 86 103
120 86 103 120 86 103 120 86 103 120 86 103 120 86 103 120 86 103 120
86 103 120 86 103 120 86 103 120 86 103 120 86 103 120 85 102 119 85
102 119 85 102 119 85 102 119 85 102 119 85 102 119 85 102 119 85 102
119 85 102 119 85 102 119 85 102 119 85 102 119 85 102 118 85 102 118
85 101 118 85 101 118 85 101 118 84 101 118 84 101 118 84 101 118 84
101 118 84 101 118 84 101 118 84 101 118 84 101 117 84 101 117 84 101
117 84 101 117 84 100 117 84 100 117 84 100 117 84 100 117 84 100 117
84 100 117 83 100 117 83 100 117 83 100 116 83 100 116 83 100 116 83
100 116 83 100 116 83 100 116 83 99 116 83 99 116 83 99 116 83 99 116
83 99 116 83 99 116 83 99 115 83 99 115 82 99 115 82 99 115 82 99 115
223 225 228 233 236 238 240 242 245 244 247 249 247 250 252 249 252
254 251 253 255 252 254 255 253 255 255 253 255 255 253 255 255 253
255 255 252 255 255 251 254 255 250 253 255 249 252 255 248 251 253
247 249 252 245 248 251 244 246 249 242 245 247 240 243 245 238 241
243 236 239 241 234 237 239 232 234 237 230 232 235 227 230 232 225
227 230 222 225 227 219 222 224 216 219 222 214 216 219 211 213 216
208 210 213 204 207 210 201 204 206 198 200 203 194 197 200 191 193
196 187 190 192 184 186 189 180 182 185 176 178 181 172 174 177 168
170 173 163 166 168 159 161 164 154 157 159 150 152 155 145 147 150
241 244 246 239 242 244 237 240 242 235 238 240 233 236 238 231 234
236 229 231 234 226 229 231 224 226 229 221 224 226 219 221 224 216
218 221 213 216 218 210 213 215 207 209 212 204 206 209 201 203 206
197 200 202 194 196 199 190 193 195 186 189 191 183 185 188 179 181
184 174 177 180 170 173 175 166 168 171 161 164 166 157 159 162 152
154 157 147 149 152 141 144 147 136 139 141 130 133 135 124 127 129
118 120 123 111 114 116 104 107 109 97 99 102 89 91 94 80 82 85 70 73
76 60 62 65 48 50 53 39 41 44 39 41 44 39 41 44 13 16 18 13 16 18 13
16 18 13 16 18 13 16 18 76 91 106 76 91 106 76 91 106 76 91 106 76 91
106 76 91 106 76 91 106 76 91 106 76 91 106 76 91 106 75 90 105 75 90
105 75 90 105 75 90 105 75 90 105 75 90 105 75 90 105 75 90 105 75 90
105 75 90 105 75 90 105 75 90 105 75 90 104 75 90 104 75 89 104 75 89
104 75 89 104 74 89 104 74 89 104 74 89 104 74 89 104 74 89 104 74 89
104 74 89 104 74 89 103 74 89 103 74 89 103 74 89 103 74 88 103 74 88
103 74 88 103 74 88 103 74 88 103 74 88 103 73 88 103 73 88 103 73 88
102 73 88 102 73 88 102 73 88 102 73 88 102 73 88 102 73 87 102 73 87
102 73 87 102 73 87 102 73 87 102 73 87 102 73 87 102 73 87 101 73 87
101 72 87 101 72 87 101 72 87 101 72 87 101 72 87 101 72 87 101 72 86
101 72 86 101 72 86 101 72 86 101 72 86 100 72 86 100 72 86 100 72 86
100 72 86 100 72 86 100 72 86 100 72 86 100 71 86 100 71 86 100 71 86
100 71 85 100
89 107 124 89 107 124 89 107 124 89 107 124 89 107 124 89 106 124 89
106 124 89 106 124 89 106 124 89 106 124 89 106 124 88 106 124 88 106
124 88 106 123 88 106 123 88 106 123 88 106 123 88 106 123 88 106 123
88 106 123 88 105 123 88 105 123 88 105 123 88 105 123 88 105 123 88
105 123 88 105 122 88 105 122 88 105 122 87 105 122 87 105 122 87 105
122 87 105 122 87 105 122 87 105 122 87 104 122 87 104 122 87 104 122
87 104 122 87 104 121 87 104 121 87 104 121 87 104 121 87 104 121 87
104 121 87 104 121 87 104 121 86 104 121 86 104 121 86 103 121 86 103
121 86 103 120 86 103 120 86 103 120 86 103 120 86 103 120 86 103 120
86 103 120 86 103 120 86 103 120 86 103 120 86 103 120 86 103 120 86
103 120 85 102 119 85 102 119 85 102 119 85 102 119 85 102 119 85 102
119 85 102 119 85 102 119 85 102 119 85 102 119 85 102 119 85 102 119
85 102 118 85 102 118 85 101 118 85 101 118 85 101 118 84 101 118 84
101 118 84 101 118 84 101 118 84 101 118 84 101 118 84 101 118 84 101
117 84 101 117 84 101 117 84 101 117 84 100 117 84 100 117 84 100 117
84 100 117 84 100 117 83 100 117 83 100 117 83 100 117 83 100 116 83
100 116 83 100 116 83 100 116 83 100 116 83 99 116 83 99 116 83 99 116
83 99 116 83 99 116 83 99 116 83 99 115 83 99 115 83 99 115 82 99 115
218 221 223 230 233 235 237 239 242 241 244 246 245 247 250 247 249
252 249 251 254 250 252 255 250 253 255 251 253 255 251 253 255 251
253 255 250 253 255 249 252 254 249 251 254 248 250 253 246 249 251
245 248 250 244 246 249 242 245 247 240 243 245 238 241 244 237 239
242 234 237 240 232 235 237 230 233 235 228 230 233 225 228 230 223
225 228 220 223 225 218 220 223 215 217 220 212 214 217 209 211 214
206 208 211 203 205 208 199 202 205 196 199 201 193 195 198 189 192
194 186 188 191 182 184 187 178 181 183 174 177 179 170 173 175 166
168 171 162 164 167 157 160 162 153 155 158 148 150 153 143 146 148
239 242 244 237 240 243 236 238 241 234 236 239 231 234 237 229 232
234 227 230 232 225 227 230 222 225 227 220 222 225 217 219 222 214
217 219 211 214 216 208 211 213 205 208 210 202 205 207 199 201 204
195 198 201 192 195 197 188 191 193 185 187 190 181 183 186 177 179
182 173 175 178 169 171 174 164 167 169 160 162 165 155 157 160 150
153 155 145 148 150 140 142 145 134 137 139 128 131 134 122 125 127
116 119 121 109 112 114 102 105 107 95 97 100 87 89 92 78 80 83 68 71
73 58 60 63 45 48 50 39 41 44 39 41 44 13 16 18 13 16 18 13 16 18 13
16 18 13 16 18 76 91 107 76 91 106 76 91 106 76 91 106 76 91 106 76 91
106 76 91 106 76 91 106 76 91 106 76 91 106 76 91 106 76 91 106 76 91
106 75 90 105 75 90 105 75 90 105 75 90 105 75 90 105 75 90 105 75 90
105 75 90 105 75 90 105 75 90 105 75 90 105 75 90 105 75 90 104 75 90
104 75 90 104 75 89 104 75 89 104 74 89 104 74 89 104 74 89 104 74 89
104 74 89 104 74 89 104 74 89 104 74 89 104 74 89 103 74 89 103 74 89
103 74 89 103 74 88 103 74 88 103 74 88 103 74 88 103 74 88 103 74 88
103 73 88 103 73 88 103 73 88 102 73 88 102 73 88 102 73 88 102 73 88
102 73 88 102 73 87 102 73 87 102 73 87 102 73 87 102 73 87 102 73 87
102 73 87 102 73 87 101 73 87 101 72 87 101 72 87 101 72 87 101 72 87
101 72 87 101 72 87 101 72 86 101 72 86 101 72 86 101 72 86 101 72 86
100 72 86 100 72 86 100 72 86 100 72 86 100 72 86 100 72 86 100 72 86
100 71 86 100
89 107 125 89 107 124 89 107 124 89 107 124 89 107 124 89 107 124 89
106 124 89 106 124 89 106 124 89 106 124 89 106 124 89 106 124 88 106
124 88 106 124 88 106 124 88 106 123 88 106 123 88 106 123 88 106 123
88 106 123 88 106 123 88 105 123 88 105 123 88 105 123 88 105 123 88
105 123 88 105 123 88 105 122 88 105 122 88 105 122 87 105 122 87 105
122 87 105 122 87 105 122 87 105 122 87 105 122 87 104 122 87 104 122
87 104 122 87 104 122 87 104 121 87 104 121 87 104 121 87 104 121 87
104 121 87 104 121 87 104 121 87 104 121 86 104 121 86 104 121 86 104
121 86 103 121 86 103 121 86 103 120 86 103 120 86 103 120 86 103 120
86 103 120 86 103 120 86 103 120 86 103 120 86 103 120 86 103 120 86
103 120 86 103 120 85 102 119 85 102 119 85 102 119 85 102 119 85 102
119 85 102 119 85 102 119 85 102 119 85 102 119 85 102 119 85 102 119
85 102 119 85 102 118 85 102 118 85 101 118 85 101 118 85 101 118 84
101 118 84 101 118 84 101 118 84 101 118 84 101 118 84 101 118 84 101
118 84 101 117 84 101 117 84 101 117 84 101 117 84 100 117 84 100 117
84 100 117 84 100 117 84 100 117 84 100 117 83 100 117 83 100 117 83
100 116 83 100 116 83 100 116 83 100 116 83 100 116 83 100 116 83 99
116 83 99 116 83 99 116 83 99 116 83 99 116 83 99 116 83 99 115 83 99
115 213 215 218 226 229 231 234 236 239 238 241 244 242 244 247 244
247 249 246 249 251 247 250 252 248 251 253 248 251 254 249 251 254
248 251 253 248 250 253 247 250 252 246 249 252 245 248 251 244 247
249 243 246 248 242 244 247 240 243 245 238 241 243 236 239 242 235
237 240 233 235 238 230 233 236 228 231 233 226 228 231 223 226 229
221 224 226 218 221 223 216 218 221 213 215 218 210 213 215 207 210
212 204 207 209 201 203 206 198 200 203 194 197 199 191 193 196 187
190 192 184 186 189 180 183 185 176 179 181 172 175 177 168 171 173
164 167 169 160 162 165 155 158 160 151 153 156 146 148 151 141 144
146 237 240 242 236 238 241 234 236 239 232 234 237 230 232 235 227
230 232 225 228 230 223 225 228 220 223 225 218 220 223 215 218 220
212 215 217 209 212 215 206 209 212 203 206 209 200 203 205 197 200
202 194 196 199 190 193 195 187 189 192 183 185 188 179 182 184 175
178 180 171 173 176 167 169 172 162 165 167 158 160 163 153 156 158
148 151 153 143 146 148 138 140 143 132 135 137 126 129 132 120 123
125 114 117 119 107 110 112 100 103 105 93 95 98 84 87 89 75 78 81 66
68 71 55 57 60 42 45 47 39 41 44 39 41 44 13 16 18 13 16 18 13 16 18
13 16 18 76 92 107 76 92 107 76 92 107 76 91 107 76 91 107 76 91 106
76 91 106 76 91 106 76 91 106 76 91 106 76 91 106 76 91 106 76 91 106
76 91 106 76 91 106 76 91 106 76 91 106 75 90 105 75 90 105 75 90 105
75 90 105 75 90 105 75 90 105 75 90 105 75 90 105 75 90 105 75 90 105
75 90 105 75 90 105 75 90 104 75 90 104 75 89 104 75 89 104 75 89 104
74 89 104 74 89 104 74 89 104 74 89 104 74 89 104 74 89 104 74 89 104
74 89 103 74 89 103 74 89 103 74 89 103 74 88 103 74 88 103 74 88 103
74 88 103 74 88 103 74 88 103 73 88 103 73 88 103 73 88 103 73 88 102
73 88 102 73 88 102 73 88 102 73 88 102 73 88 102 73 87 102 73 87 102
73 87 102 73 87 102 73 87 102 73 87 102 73 87 101 73 87 101 73 87 101
72 87 101 72 87 101 72 87 101 72 87 101 72 87 101 72 87 101 72 86 101
72 86 101 72 86 101 72 86 101 72 86 100 72 86 100 72 86 100 72 86 100
72 86 100 72 86 100
89 107 125 89 107 125 89 107 124 89 107 124 89 107 124 89 107 124 89
107 124 89 106 124 89 106 124 89 106 124 89 106 124 89 106 124 89 106
124 88 106 124 88 106 124 88 106 124 88 106 123 88 106 123 88 106 123
88 106 123 88 106 123 88 106 123 88 105 123 88 105 123 88 105 123 88
105 123 88 105 123 88 105 123 88 105 123 88 105 122 88 105 122 87 105
122 87 105 122 87 105 122 87 105 122 87 105 122 87 105 122 87 104 122
87 104 122 87 104 122 87 104 122 87 104 121 87 104 121 87 104 121 87
104 121 87 104 121 87 104 121 87 104 121 87 104 121 86 104 121 86 104
121 86 104 121 86 103 121 86 103 121 86 103 120 86 103 120 86 103 120
86 103 120 86 103 120 86 103 120 86 103 120 86 103 120 86 103 120 86
103 120 86 103 120 86 103 120 85 102 119 85 102 119 85 102 119 85 102
119 85 102 119 85 102 119 85 102 119 85 102 119 85 102 119 85 102 119
85 102 119 85 102 119 85 102 118 85 102 118 85 101 118 85 101 118 85
101 118 84 101 118 84 101 118 84 101 118 84 101 118 84 101 118 84 101
118 84 101 118 84 101 117 84 101 117 84 101 117 84 101 117 84 100 117
84 100 117 84 100 117 84 100 117 84 100 117 84 100 117 83 100 117 83
100 117 83 100 116 83 100 116 83 100 116 83 100 116 83 100 116 83 100
116 83 99 116 83 99 116 83 99 116 83 99 116 83 99 116 83 99 116 83 99
115 83 99 115 222 225 227 230 233 235 235 238 240 239 241 244 242 244
247 243 246 249 245 247 250 246 248 251 246 249 251 246 249 251 246
249 251 246 248 251 245 248 250 244 247 249 243 246 248 242 245 247
241 243 246 239 242 245 238 240 243 236 239 241 234 237 240 233 235
238 231 233 236 228 231 234 226 229 231 224 226 229 221 224 227 219
222 224 216 219 222 214 216 219 211 213 216 208 211 213 205 208 210
202 205 207 199 201 204 196 198 201 192 195 197 189 191 194 185 188
190 182 184 187 178 181 183 174 177 179 170 173 175 166 169 171 162
165 167 158 160 163 153 156 158 149 151 154 144 146 149 139 142 144
235 238 240 234 236 239 232 234 237 230 232 235 228 230 233 225 228
231 223 226 228 221 223 226 218 221 223 216 218 221 213 216 218 210
213 215 207 210 213 205 207 210 201 204 207 198 201 203 195 198 200
192 194 197 188 191 193 185 187 190 181 183 186 177 180 182 173 176
178 169 172 174 165 167 170 160 163 165 156 158 161 151 154 156 146
149 151 141 144 146 136 138 141 130 133 135 124 127 129 118 121 123
112 114 117 105 108 110 98 100 103 90 93 95 82 84 87 73 75 78 63 65 68
52 54 57 39 42 44 39 41 44 39 41 44 13 16 18 13 16 18 13 16 18 77 92
107 77 92 107 77 92 107 76 92 107 76 92 107 76 92 107 76 91 107 76 91
107 76 91 106 76 91 106 76 91 106 76 91 106 76 91 106 76 91 106 76 91
106 76 91 106 76 91 106 76 91 106 76 91 106 76 91 106 75 90 105 75 90
105 75 90 105 75 90 105 75 90 105 75 90 105 75 90 105 75 90 105 75 90
105 75 90 105 75 90 105 75 90 105 75 90 105 75 90 104 75 90 104 75 89
104 75 89 104 75 89 104 74 89 104 74 89 104 74 89 104 74 89 104 74 89
104 74 89 104 74 89 104 74 89 103 74 89 103 74 89 103 74 89 103 74 88
103 74 88 103 74 88 103 74 88 103 74 88 103 74 88 103 73 88 103 73 88
103 73 88 103 73 88 102 73 88 102 73 88 102 73 88 102 73 88 102 73 88
102 73 87 102 73 87 102 73 87 102 73 87 102 73 87 102 73 87 102 73 87
101 73 87 101 73 87 101 72 87 101 72 87 101 72 87 101 72 87 101 72 87
101 72 87 101 72 86 101 72 86 101 72 86 101 72 86 101 72 86 100 72 86
100 72 86 100
89 107 125 89 107 125 89 107 125 89 107 124 89 107 124 89 107 124 89
107 124 89 107 124 89 106 124 89 106 124 89 106 124 89 106 124 89 106
124 89 106 124 88 106 124 88 106 124 88 106 124 88 106 123 88 106 123
88 106 123 88 106 123 88 106 123 88 106 123 88 105 123 88 105 123 88
105 123 88 105 123 88 105 123 88 105 123 88 105 123 88 105 122 88 105
122 87 105 122 87 105 122 87 105 122 87 105 122 87 105 122 87 105 122
87 104 122 87 104 122 87 104 122 87 104 122 87 104 121 87 104 121 87
104 121 87 104 121 87 104 121 87 104 121 87 104 121 87 104 121 86 104
121 86 104 121 86 104 121 86 103 121 86 103 121 86 103 120 86 103 120
86 103 120 86 103 120 86 103 120 86 103 120 86 103 120 86 103 120 86
103 120 86 103 120 86 103 120 86 103 120 85 102 119 85 102 119 85 102
119 85 102 119 85 102 119 85 102 119 85 102 119 85 102 119 85 102 119
85 102 119 85 102 119 85 102 119 85 102 119 85 102 118 85 102 118 85
101 118 85 101 118 84 101 118 84 101 118 84 101 118 84 101 118 84 101
118 84 101 118 84 101 118 84 101 118 84 101 117 84 101 117 84 101 117
84 101 117 84 100 117 84 100 117 84 100 117 84 100 117 84 100 117 83
100 117 83 100 117 83 100 117 83 100 116 83 100 116 83 100 116 83 100
116 83 100 116 83 100 116 83 99 116 83 99 116 83 99 116 83 99 116 83
99 116 83 99 116 217 219 222 226 229 231 232 234 237 236 238 241 239
241 244 241 243 246 242 245 247 243 245 248 243 246 249 244 246 249
244 246 249 243 246 248 243 245 248 242 244 247 241 244 246 240 242
245 239 241 244 237 240 242 236 238 241 234 237 239 232 235 237 230
233 236 228 231 234 226 229 231 224 227 229 222 224 227 219 222 225
217 219 222 214 217 219 212 214 217 209 211 214 206 209 211 203 206
208 200 203 205 197 199 202 194 196 199 190 193 195 187 189 192 183
186 188 180 182 185 176 179 181 172 175 177 168 171 173 164 167 169
160 162 165 156 158 161 151 154 156 147 149 152 142 144 147 137 139
142 233 236 238 231 234 236 230 232 235 228 230 233 225 228 231 223
226 228 221 224 226 219 221 224 216 219 221 214 216 219 211 214 216
208 211 213 205 208 211 202 205 208 199 202 205 196 199 201 193 196
198 190 192 195 186 189 191 183 185 188 179 181 184 175 178 180 171
174 176 167 169 172 163 165 168 158 161 163 154 156 159 149 151 154
144 146 149 139 141 144 133 136 139 128 130 133 122 125 127 116 118
121 109 112 114 103 105 108 95 98 100 87 90 93 79 82 84 70 72 75 60 62
65 48 51 54 39 41 44 39 41 44 39 41 44 13 16 18 13 16 18 77 92 107 77
92 107 77 92 107 77 92 107 77 92 107 77 92 107 76 92 107 76 92 107 76
92 107 76 91 107 76 91 107 76 91 106 76 91 106 76 91 106 76 91 106 76
91 106 76 91 106 76 91 106 76 91 106 76 91 106 76 91 106 76 91 106 76
91 106 76 91 106 75 90 105 75 90 105 75 90 105 75 90 105 75 90 105 75
90 105 75 90 105 75 90 105 75 90 105 75 90 105 75 90 105 75 90 105 75
90 104 75 90 104 75 89 104 75 89 104 75 89 104 74 89 104 74 89 104 74
89 104 74 89 104 74 89 104 74 89 104 74 89 104 74 89 104 74 89 103 74
89 103 74 89 103 74 89 103 74 88 103 74 88 103 74 88 103 74 88 103 74
88 103 74 88 103 73 88 103 73 88 103 73 88 102 73 88 102 73 88 102 73
88 102 73 88 102 73 88 102 73 88 102 73 87 102 73 87 102 73 87 102 73
87 102 73 87 102 73 87 102 73 87 101 73 87 101 73 87 101 72 87 101 72
87 101 72 87 101 72 87 101 72 87 101 72 87 101 72 86 101 72 86 101 72
86 101 72 86 101
89 107 125 89 107 125 89 107 125 89 107 125 89 107 124 89 107 124 89
107 124 89 107 124 89 107 124 89 106 124 89 106 124 89 106 124 89 106
124 89 106 124 89 106 124 88 106 124 88 106 124 88 106 124 88 106 123
88 106 123 88 106 123 88 106 123 88 106 123 88 106 123 88 105 123 88
105 123 88 105 123 88 105 123 88 105 123 88 105 123 88 105 123 88 105
122 88 105 122 87 105 122 87 105 122 87 105 122 87 105 122 87 105 122
87 105 122 87 104 122 87 104 122 87 104 122 87 104 122 87 104 121 87
104 121 87 104 121 87 104 121 87 104 121 87 104 121 87 104 121 87 104
121 86 104 121 86 104 121 86 104 121 86 103 121 86 103 121 86 103 120
86 103 120 86 103 120 86 103 120 86 103 120 86 103 120 86 103 120 86
103 120 86 103 120 86 103 120 86 103 120 86 103 120 85 102 119 85 102
119 85 102 119 85 102 119 85 102 119 85 102 119 85 102 119 85 102 119
85 102 119 85 102 119 85 102 119 85 102 119 85 102 119 85 102 118 85
102 118 85 101 118 85 101 118 85 101 118 84 101 118 84 101 118 84 101
118 84 101 118 84 101 118 84 101 118 84 101 118 84 101 117 84 101 117
84 101 117 84 101 117 84 100 117 84 100 117 84 100 117 84 100 117 84
100 117 84 100 117 83 100 117 83 100 117 83 100 116 83 100 116 83 100
116 83 100 116 83 100 116 83 100 116 83 99 116 83 99 116 83 99 116 83
99 116 83 99 116 83 99 116 221 224 227 228 230 233 232 235 237 235 238
240 237 240 243 239 242 244 240 243 245 241 243 246 241 244 246 241
244 246 241 243 246 240 243 245 239 242 245 239 241 244 238 240 243
236 239 241 235 237 240 233 236 239 232 234 237 230 233 235 228 231
233 226 229 231 224 227 229 222 224 227 220 222 225 217 220 222 215
217 220 212 215 217 210 212 215 207 209 212 204 206 209 201 203 206
198 200 203 195 197 200 191 194 197 188 191 193 185 187 190 181 184
186 178 180 183 174 176 179 170 173 175 166 169 171 162 164 167 158
160 163 153 156 158 149 151 154 144 147 149 140 142 145 135 137 140
231 233 236 229 232 234 227 230 232 225 228 230 223 226 228 221 224
226 219 221 224 217 219 222 214 217 219 212 214 217 209 211 214 206
209 211 203 206 208 200 203 205 197 200 202 194 197 199 191 193 196
187 190 193 184 187 189 180 183 185 177 179 182 173 175 178 169 171
174 165 167 170 160 163 165 156 158 161 151 154 156 147 149 152 142
144 147 136 139 142 131 134 136 125 128 131 120 122 125 113 116 118
107 109 112 100 102 105 92 95 98 85 87 90 76 79 81 67 69 72 56 59 62
45 47 50 39 41 44 39 41 44 39 41 44 13 16 18 77 92 108 77 92 108 77 92
107 77 92 107 77 92 107 77 92 107 77 92 107 77 92 107 77 92 107 77 92
107 76 92 107 76 92 107 76 91 107 76 91 107 76 91 107 76 91 106 76 91
106 76 91 106 76 91 106 76 91 106 76 91 106 76 91 106 76 91 106 76 91
106 76 91 106 76 91 106 76 91 106 75 90 105 75 90 105 75 90 105 75 90
105 75 90 105 75 90 105 75 90 105 75 90 105 75 90 105 75 90 105 75 90
105 75 90 105 75 90 105 75 90 104 75 90 104 75 89 104 75 89 104 75 89
104 74 89 104 74 89 104 74 89 104 74 89 104 74 89 104 74 89 104 74 89
104 74 89 103 74 89 103 74 89 103 74 89 103 74 89 103 74 88 103 74 88
103 74 88 103 74 88 103 74 88 103 73 88 103 73 88 103 73 88 103 73 88
102 73 88 102 73 88 102 73 88 102 73 88 102 73 88 102 73 88 102 73 87
102 73 87 102 73 87 102 73 87 102 73 87 102 73 87 102 73 87 101 73 87
101 73 87 101 72 87 101 72 87 101 72 87 101 72 87 101 72 87 101 72 87
101 72 86 101
89 107 125 89 107 125 89 107 125 89 107 125 89 107 125 89 107 124 89
107 124 89 107 124 89 107 124 89 107 124 89 106 124 89 106 124 89 106
124 89 106 124 89 106 124 89 106 124 88 106 124 88 106 124 88 106 124
88 106 123 88 106 123 88 106 123 88 106 123 88 106 123 88 106 123 88
105 123 88 105 123 88 105 123 88 105 123 88 105 123 88 105 123 88 105
123 88 105 122 88 105 122 87 105 122 87 105 122 87 105 122 87 105 122
87 105 122 87 105 122 87 104 122 87 104 122 87 104 122 87 104 122 87
104 121 87 104 121 87 104 121 87 104 121 87 104 121 87 104 121 87 104
121 87 104 121 86 104 121 86 104 121 86 104 121 86 103 121 86 103 121
86 103 120 86 103 120 86 103 120 86 103 120 86 103 120 86 103 120 86
103 120 86 103 120 86 103 120 86 103 120 86 103 120 86 103 120 86 103
120 85 102 119 85 102 119 85 102 119 85 102 119 85 102 119 85 102 119
85 102 119 85 102 119 85 102 119 85 102 119 85 102 119 85 102 119 85
102 118 85 102 118 85 101 118 85 101 118 85 101 118 84 101 118 84 101
118 84 101 118 84 101 118 84 101 118 84 101 118 84 101 118 84 101 117
84 101 117 84 101 117 84 101 117 84 100 117 84 100 117 84 100 117 84
100 117 84 100 117 84 100 117 83 100 117 83 100 117 83 100 116 83 100
116 83 100 116 83 100 116 83 100 116 83 100 116 83 100 116 83 99 116
83 99 116 83 99 116 83 99 116 83 99 116 224 226 229 228 231 233 232
234 237 234 237 239 236 238 241 237 240 242 238 240 243 238 241 243
238 241 243 238 241 243 238 240 243 237 239 242 236 239 241 235 238
240 234 236 239 232 235 238 231 234 236 229 232 234 228 230 233 226
228 231 224 226 229 222 224 227 220 222 225 217 220 222 215 217 220
212 215 218 210 212 215 207 210 212 204 207 210 202 204 207 199 201
204 196 198 201 192 195 198 189 192 194 186 188 191 182 185 188 179
181 184 175 178 180 172 174 177 168 170 173 164 166 169 160 162 165
155 158 160 151 154 156 147 149 152 142 144 147 137 140 142 132 135
137 228 231 234 227 229 232 225 227 230 223 226 228 221 223 226 219
221 224 217 219 222 214 217 219 212 214 217 209 212 214 207 209 212
204 206 209 201 204 206 198 201 203 195 198 200 192 194 197 189 191
194 185 188 190 182 184 187 178 181 183 174 177 179 170 173 176 166
169 172 162 165 167 158 161 163 154 156 159 149 151 154 144 147 149
139 142 144 134 136 139 129 131 134 123 125 128 117 119 122 111 113
116 104 107 109 97 100 102 90 92 95 81 84 87 73 75 78 63 66 68 53 55
58 40 43 46 39 41 44 39 41 44 13 16 18 77 93 108 77 92 108 77 92 108
77 92 108 77 92 108 77 92 107 77 92 107 77 92 107 77 92 107 77 92 107
77 92 107 77 92 107 77 92 107 76 92 107 76 92 107 76 92 107 76 91 107
76 91 107 76 91 106 76 91 106 76 91 106 76 91 106 76 91 106 76 91 106
76 91 106 76 91 106 76 91 106 76 91 106 76 91 106 76 91 106 75 90 105
75 90 105 75 90 105 75 90 105 75 90 105 75 90 105 75 90 105 75 90 105
75 90 105 75 90 105 75 90 105 75 90 105 75 90 105 75 90 104 75 90 104
75 89 104 75 89 104 75 89 104 74 89 104 74 89 104 74 89 104 74 89 104
74 89 104 74 89 104 74 89 104 74 89 104 74 89 103 74 89 103 74 89 103
74 89 103 74 88 103 74 88 103 74 88 103 74 88 103 74 88 103 74 88 103
73 88 103 73 88 103 73 88 103 73 88 102 73 88 102 73 88 102 73 88 102
73 88 102 73 88 102 73 87 102 73 87 102 73 87 102 73 87 102 73 87 102
73 87 102 73 87 102 73 87 101 73 87 101 72 87 101 72 87 101 72 87 101
72 87 101 72 87 101
89 107 125 89 107 125 89 107 125 89 107 125 89 107 125 89 107 125 89
107 124 89 107 124 89 107 124 89 107 124 89 107 124 89 106 124 89 106
124 89 106 124 89 106 124 89 106 124 89 106 124 88 106 124 88 106 124
88 106 123 88 106 123 88 106 123 88 106 123 88 106 123 88 106 123 88
106 123 88 105 123 88 105 123 88 105 123 88 105 123 88 105 123 88 105
123 88 105 123 88 105 122 88 105 122 87 105 122 87 105 122 87 105 122
87 105 122 87 105 122 87 105 122 87 104 122 87 104 122 87 104 122 87
104 122 87 104 121 87 104 121 87 104 121 87 104 121 87 104 121 87 104
121 87 104 121 87 104 121 86 104 121 86 104 121 86 104 121 86 103 121
86 103 121 86 103 120 86 103 120 86 103 120 86 103 120 86 103 120 86
103 120 86 103 120 86 103 120 86 103 120 86 103 120 86 103 120 86 103
120 86 103 120 85 102 119 85 102 119 85 102 119 85 102 119 85 102 119
85 102 119 85 102 119 85 102 119 85 102 119 85 102 119 85 102 119 85
102 119 85 102 118 85 102 118 85 101 118 85 101 118 85 101 118 84 101
118 84 101 118 84 101 118 84 101 118 84 101 118 84 101 118 84 101 118
84 101 117 84 101 117 84 101 117 84 101 117 84 101 117 84 100 117 84
100 117 84 100 117 84 100 117 84 100 117 83 100 117 83 100 117 83 100
117 83 100 116 83 100 116 83 100 116 83 100 116 83 100 116 83 100 116
83 99 116 83 99 116 83 99 116 83 99 116 83 99 116 224 227 229 228 230
233 231 233 236 232 235 238 234 236 239 235 237 240 235 238 240 235
238 240 235 238 240 235 237 240 234 237 239 233 236 238 232 235 237
231 234 236 230 232 235 228 231 234 227 229 232 225 228 230 223 226
228 221 224 226 219 222 224 217 220 222 215 217 220 213 215 218 210
213 215 208 210 213 205 207 210 202 205 207 199 202 204 196 199 201
193 196 198 190 193 195 187 189 192 184 186 189 180 183 185 177 179
182 173 175 178 169 172 174 165 168 170 161 164 166 157 160 162 153
155 158 149 151 154 144 147 149 139 142 145 135 137 140 130 132 135
226 228 231 224 227 229 222 225 227 220 223 226 218 221 224 216 219
221 214 217 219 212 214 217 209 212 214 207 209 212 204 207 209 201
204 206 199 201 204 196 198 201 193 195 198 189 192 194 186 189 191
183 185 188 179 182 184 176 178 181 172 174 177 168 171 173 164 166
169 160 162 165 155 158 161 151 154 156 146 149 151 142 144 147 136
139 142 131 134 136 126 128 131 120 123 125 114 117 119 108 110 113
101 104 106 94 96 99 86 89 91 78 81 83 69 72 74 59 62 64 48 51 53 39
41 44 39 41 44 13 16 18 77 93 108 77 93 108 77 93 108 77 93 108 77 92
108 77 92 108 77 92 108 77 92 108 77 92 108 77 92 107 77 92 107 77 92
107 77 92 107 77 92 107 77 92 107 77 92 107 76 92 107 76 92 107 76 92
107 76 91 107 76 91 107 76 91 106 76 91 106 76 91 106 76 91 106 76 91
106 76 91 106 76 91 106 76 91 106 76 91 106 76 91 106 76 91 106 76 91
106 76 91 106 75 90 105 75 90 105 75 90 105 75 90 105 75 90 105 75 90
105 75 90 105 75 90 105 75 90 105 75 90 105 75 90 105 75 90 105 75 90
105 75 90 104 75 90 104 75 89 104 75 89 104 75 89 104 74 89 104 74 89
104 74 89 104 74 89 104 74 89 104 74 89 104 74 89 104 74 89 103 74 89
103 74 89 103 74 89 103 74 89 103 74 88 103 74 88 103 74 88 103 74 88
103 74 88 103 74 88 103 73 88 103 73 88 103 73 88 103 73 88 102 73 88
102 73 88 102 73 88 102 73 88 102 73 88 102 73 87 102 73 87 102 73 87
102 73 87 102 73 87 102 73 87 102 73 87 102 73 87 101 73 87 101 72 87
101 72 87 101
89 107 125 89 107 125 89 107 125 89 107 125 89 107 125 89 107 125 89
107 125 89 107 124 89 107 124 89 107 124 89 107 124 89 106 124 89 106
124 89 106 124 89 106 124 89 106 124 89 106 124 89 106 124 88 106 124
88 106 124 88 106 123 88 106 123 88 106 123 88 106 123 88 106 123 88
106 123 88 106 123 88 105 123 88 105 123 88 105 123 88 105 123 88 105
123 88 105 123 88 105 122 88 105 122 88 105 122 87 105 122 87 105 122
87 105 122 87 105 122 87 105 122 87 105 122 87 104 122 87 104 122 87
104 122 87 104 122 87 104 121 87 104 121 87 104 121 87 104 121 87 104
121 87 104 121 87 104 121 87 104 121 86 104 121 86 104 121 86 104 121
86 103 121 86 103 121 86 103 120 86 103 120 86 103 120 86 103 120 86
103 120 86 103 120 86 103 120 86 103 120 86 103 120 86 103 120 86 103
120 86 103 120 86 103 120 85 102 119 85 102 119 85 102 119 85 102 119
85 102 119 85 102 119 85 102 119 85 102 119 85 102 119 85 102 119 85
102 119 85 102 119 85 102 118 85 102 118 85 101 118 85 101 118 85 101
118 84 101 118 84 101 118 84 101 118 84 101 118 84 101 118 84 101 118
84 101 118 84 101 118 84 101 117 84 101 117 84 101 117 84 101 117 84
100 117 84 100 117 84 100 117 84 100 117 84 100 117 84 100 117 83 100
117 83 100 117 83 100 116 83 100 116 83 100 116 83 100 116 83 100 116
83 100 116 83 99 116 83 99 116 83 99 116 83 99 116 83 99 116 224 226
229 227 229 232 229 231 234 230 233 235 231 234 236 232 234 237 232
235 237 232 235 237 232 234 237 231 234 236 230 233 236 230 232 235
228 231 234 227 230 232 226 228 231 224 227 229 223 225 228 221 223
226 219 221 224 217 219 222 215 217 220 212 215 217 210 213 215 208
210 213 205 208 210 202 205 207 200 202 205 197 199 202 194 196 199
191 193 196 188 190 193 184 187 190 181 184 186 178 180 183 174 177
179 170 173 176 167 169 172 163 165 168 159 161 164 155 157 160 150
153 155 146 149 151 141 144 147 137 139 142 132 134 137 127 129 132
223 226 228 222 224 227 220 222 225 218 220 223 216 218 221 214 216
219 212 214 217 209 212 214 207 209 212 204 207 209 202 204 207 199
201 204 196 199 201 193 196 198 190 193 195 187 189 192 184 186 189
180 183 185 177 179 182 173 176 178 169 172 174 165 168 170 161 164
166 157 160 162 153 155 158 148 151 153 144 146 149 139 141 144 134
136 139 128 131 133 123 125 128 117 120 122 111 114 116 105 107 110 98
100 103 90 93 96 83 85 88 74 77 79 65 68 70 55 58 60 44 46 49 39 41 44
39 41 44 78 93 108 78 93 108 77 93 108 77 93 108 77 93 108 77 93 108
77 93 108 77 92 108 77 92 108 77 92 108 77 92 108 77 92 108 77 92 107
77 92 107 77 92 107 77 92 107 77 92 107 77 92 107 77 92 107 76 92 107
76 92 107 76 92 107 76 91 107 76 91 107 76 91 106 76 91 106 76 91 106
76 91 106 76 91 106 76 91 106 76 91 106 76 91 106 76 91 106 76 91 106
76 91 106 76 91 106 76 91 106 75 90 105 75 90 105 75 90 105 75 90 105
75 90 105 75 90 105 75 90 105 75 90 105 75 90 105 75 90 105 75 90 105
75 90 105 75 90 105 75 90 104 75 90 104 75 89 104 75 89 104 75 89 104
74 89 104 74 89 104 74 89 104 74 89 104 74 89 104 74 89 104 74 89 104
74 89 104 74 89 103 74 89 103 74 89 103 74 89 103 74 88 103 74 88 103
74 88 103 74 88 103 74 88 103 74 88 103 74 88 103 73 88 103 73 88 103
73 88 102 73 88 102 73 88 102 73 88 102 73 88 102 73 88 102 73 88 102
73 87 102 73 87 102 73 87 102 73 87 102 73 87 102 73 87 102 73 87 102
73 87 101
89 107 125 89 107 125 89 107 125 89 107 125 89 107 125 89 107 125 89
107 125 89 107 125 89 107 124 89 107 124 89 107 124 89 107 124 89 106
124 89 106 124 89 106 124 89 106 124 89 106 124 89 106 124 88 106 124
88 106 124 88 106 124 88 106 123 88 106 123 88 106 123 88 106 123 88
106 123 88 106 123 88 106 123 88 105 123 88 105 123 88 105 123 88 105
123 88 105 123 88 105 123 88 105 122 88 105 122 88 105 122 87 105 122
87 105 122 87 105 122 87 105 122 87 105 122 87 105 122 87 104 122 87
104 122 87 104 122 87 104 122 87 104 121 87 104 121 87 104 121 87 104
121 87 104 121 87 104 121 87 104 121 87 104 121 86 104 121 86 104 121
86 104 121 86 103 121 86 103 121 86 103 120 86 103 120 86 103 120 86
103 120 86 103 120 86 103 120 86 103 120 86 103 120 86 103 120 86 103
120 86 103 120 86 103 120 86 103 120 85 102 119 85 102 119 85 102 119
85 102 119 85 102 119 85 102 119 85 102 119 85 102 119 85 102 119 85
102 119 85 102 119 85 102 119 85 102 118 85 102 118 85 101 118 85 101
118 85 101 118 84 101 118 84 101 118 84 101 118 84 101 118 84 101 118
84 101 118 84 101 118 84 101 118 84 101 117 84 101 117 84 101 117 84
101 117 84 100 117 84 100 117 84 100 117 84 100 117 84 100 117 84 100
117 83 100 117 83 100 117 83 100 116 83 100 116 83 100 116 83 100 116
83 100 116 83 100 116 83 100 116 83 99 116 83 99 116 83 99 116 83 99
116 222 225 227 225 227 230 227 229 232 228 230 233 228 231 234 229
231 234 229 231 234 229 231 234 228 231 233 227 230 233 227 229 232
226 228 231 224 227 229 223 225 228 221 224 227 220 222 225 218 221
223 216 219 221 214 217 219 212 215 217 210 212 215 207 210 212 205
207 210 202 205 207 200 202 205 197 200 202 194 197 199 191 194 196
188 191 193 185 188 190 182 184 187 178 181 184 175 178 180 171 174
177 168 170 173 164 167 169 160 163 165 156 159 161 152 154 157 148
150 153 143 146 148 139 141 144 134 137 139 129 132 134 124 127 129
220 223 226 219 221 224 217 220 222 215 218 220 213 216 218 211 214
216 209 211 214 206 209 212 204 207 209 202 204 207 199 201 204 196
199 201 193 196 198 190 193 195 187 190 192 184 187 189 181 183 186
177 180 183 174 176 179 170 173 175 167 169 172 163 165 168 159 161
164 154 157 159 150 153 155 145 148 151 141 143 146 136 138 141 131
133 136 125 128 130 120 122 125 114 116 119 108 110 113 101 104 106 94
97 99 87 89 92 79 81 84 70 73 75 61 63 66 50 53 55 39 41 44 39 41 44
78 93 109 78 93 109 78 93 108 78 93 108 78 93 108 77 93 108 77 93 108
77 93 108 77 93 108 77 93 108 77 93 108 77 92 108 77 92 108 77 92 108
77 92 108 77 92 107 77 92 107 77 92 107 77 92 107 77 92 107 77 92 107
77 92 107 76 92 107 76 92 107 76 92 107 76 91 107 76 91 107 76 91 107
76 91 106 76 91 106 76 91 106 76 91 106 76 91 106 76 91 106 76 91 106
76 91 106 76 91 106 76 91 106 76 91 106 76 91 106 75 90 105 75 90 105
75 90 105 75 90 105 75 90 105 75 90 105 75 90 105 75 90 105 75 90 105
75 90 105 75 90 105 75 90 105 75 90 105 75 90 105 75 90 104 75 90 104
75 89 104 75 89 104 75 89 104 74 89 104 74 89 104 74 89 104 74 89 104
74 89 104 74 89 104 74 89 104 74 89 104 74 89 103 74 89 103 74 89 103
74 89 103 74 88 103 74 88 103 74 88 103 74 88 103 74 88 103 74 88 103
73 88 103 73 88 103 73 88 103 73 88 102 73 88 102 73 88 102 73 88 102
73 88 102 73 88 102 73 88 102 73 87 102 73 87 102 73 87 102 73 87 102
73 87 102
89 107 125 89 107 125 89 107 125 89 107 125 89 107 125 89 107 125 89
107 125 89 107 125 89 107 124 89 107 124 89 107 124 89 107 124 89 107
124 89 106 124 89 106 124 89 106 124 89 106 124 89 106 124 89 106 124
88 106 124 88 106 124 88 106 124 88 106 123 88 106 123 88 106 123 88
106 123 88 106 123 88 106 123 88 106 123 88 105 123 88 105 123 88 105
123 88 105 123 88 105 123 88 105 123 88 105 122 88 105 122 88 105 122
87 105 122 87 105 122 87 105 122 87 105 122 87 105 122 87 105 122 87
104 122 87 104 122 87 104 122 87 104 122 87 104 121 87 104 121 87 104
121 87 104 121 87 104 121 87 104 121 87 104 121 87 104 121 86 104 121
86 104 121 86 104 121 86 103 121 86 103 121 86 103 120 86 103 120 86
103 120 86 103 120 86 103 120 86 103 120 86 103 120 86 103 120 86 103
120 86 103 120 86 103 120 86 103 120 86 103 120 85 102 119 85 102 119
85 102 119 85 102 119 85 102 119 85 102 119 85 102 119 85 102 119 85
102 119 85 102 119 85 102 119 85 102 119 85 102 119 85 102 118 85 102
118 85 101 118 85 101 118 85 101 118 84 101 118 84 101 118 84 101 118
84 101 118 84 101 118 84 101 118 84 101 118 84 101 117 84 101 117 84
101 117 84 101 117 84 100 117 84 100 117 84 100 117 84 100 117 84 100
117 84 100 117 83 100 117 83 100 117 83 100 117 83 100 116 83 100 116
83 100 116 83 100 116 83 100 116 83 100 116 83 99 116 83 99 116 83 99
116 83 99 116 83 99 116 223 225 228 224 226 229 225 227 230 225 228
230 225 228 231 225 228 230 225 227 230 224 227 229 223 226 229 222
225 228 221 224 226 220 223 225 218 221 224 217 219 222 215 218 220
213 216 218 211 214 216 209 212 214 207 209 212 205 207 210 202 205
207 200 202 205 197 200 202 194 197 199 191 194 197 188 191 194 185
188 191 182 185 187 179 182 184 176 178 181 172 175 177 169 171 174
165 168 170 161 164 166 157 160 162 153 156 158 149 152 154 145 147
150 140 143 145 136 138 141 131 134 136 126 129 131 121 124 126 217
220 223 216 218 221 214 217 219 212 215 217 210 213 215 208 211 213
206 208 211 204 206 209 201 204 206 199 201 204 196 199 201 193 196
198 191 193 196 188 190 193 184 187 190 181 184 186 178 181 183 175
177 180 171 174 176 167 170 173 164 166 169 160 162 165 156 158 161
151 154 156 147 150 152 142 145 147 138 140 143 133 135 138 127 130
133 122 125 127 116 119 122 110 113 116 104 107 109 98 100 103 90 93
96 83 85 88 75 77 80 66 68 71 56 59 61 45 48 50 13 16 18 78 93 109 78
93 109 78 93 109 78 93 109 78 93 109 78 93 108 78 93 108 78 93 108 77
93 108 77 93 108 77 93 108 77 93 108 77 93 108 77 93 108 77 92 108 77
92 108 77 92 108 77 92 108 77 92 107 77 92 107 77 92 107 77 92 107 77
92 107 77 92 107 77 92 107 77 92 107 76 92 107 76 92 107 76 92 107 76
91 107 76 91 107 76 91 106 76 91 106 76 91 106 76 91 106 76 91 106 76
91 106 76 91 106 76 91 106 76 91 106 76 91 106 76 91 106 76 91 106 76
91 106 75 90 105 75 90 105 75 90 105 75 90 105 75 90 105 75 90 105 75
90 105 75 90 105 75 90 105 75 90 105 75 90 105 75 90 105 75 90 105 75
90 104 75 90 104 75 89 104 75 89 104 75 89 104 74 89 104 74 89 104 74
89 104 74 89 104 74 89 104 74 89 104 74 89 104 74 89 104 74 89 103 74
89 103 74 89 103 74 89 103 74 89 103 74 88 103 74 88 103 74 88 103 74
88 103 74 88 103 74 88 103 73 88 103 73 88 103 73 88 103 73 88 102 73
88 102 73 88 102 73 88 102 73 88 102 73 88 102 73 87 102 73 87 102 73
87 102
90 107 125 89 107 125 89 107 125 89 107 125 89 107 125 89 107 125 89
107 125 89 107 125 89 107 125 89 107 124 89 107 124 89 107 124 89 107
124 89 107 124 89 106 124 89 106 124 89 106 124 89 106 124 89 106 124
89 106 124 88 106 124 88 106 124 88 106 124 88 106 123 88 106 123 88
106 123 88 106 123 88 106 123 88 106 123 88 105 123 88 105 123 88 105
123 88 105 123 88 105 123 88 105 123 88 105 123 88 105 122 88 105 122
88 105 122 87 105 122 87 105 122 87 105 122 87 105 122 87 105 122 87
105 122 87 104 122 87 104 122 87 104 122 87 104 122 87 104 121 87 104
121 87 104 121 87 104 121 87 104 121 87 104 121 87 104 121 87 104 121
86 104 121 86 104 121 86 104 121 86 103 121 86 103 121 86 103 120 86
103 120 86 103 120 86 103 120 86 103 120 86 103 120 86 103 120 86 103
120 86 103 120 86 103 120 86 103 120 86 103 120 86 103 120 85 102 119
85 102 119 85 102 119 85 102 119 85 102 119 85 102 119 85 102 119 85
102 119 85 102 119 85 102 119 85 102 119 85 102 119 85 102 119 85 102
118 85 102 118 85 101 118 85 101 118 85 101 118 84 101 118 84 101 118
84 101 118 84 101 118 84 101 118 84 101 118 84 101 118 84 101 117 84
101 117 84 101 117 84 101 117 84 100 117 84 100 117 84 100 117 84 100
117 84 100 117 84 100 117 83 100 117 83 100 117 83 100 117 83 100 116
83 100 116 83 100 116 83 100 116 83 100 116 83 100 116 83 99 116 83 99
116 83 99 116 83 99 116 83 99 116 220 222 225 221 223 226 222 224 227
222 224 227 222 224 227 221 224 227 221 223 226 220 223 225 219 222
224 218 221 223 217 219 222 215 218 220 214 216 219 212 215 217 210
213 215 208 211 213 206 209 211 204 207 209 202 204 207 199 202 204
197 199 202 194 197 199 191 194 197 189 191 194 186 188 191 183 185
188 179 182 185 176 179 181 173 175 178 169 172 174 166 168 171 162
165 167 158 161 163 154 157 159 150 153 155 146 149 151 142 144 147
137 140 142 133 135 138 128 130 133 123 125 128 118 120 123 214 217
219 213 215 218 211 214 216 209 212 214 207 210 212 205 208 210 203
205 208 201 203 206 198 201 203 196 198 201 193 196 198 190 193 195
188 190 193 185 187 190 182 184 187 178 181 183 175 178 180 172 174
177 168 171 173 164 167 169 161 163 166 157 159 162 152 155 158 148
151 153 144 146 149 139 142 144 134 137 139 129 132 134 124 127 129
119 121 124 113 115 118 107 109 112 100 103 106 94 96 99 86 89 92 79
81 84 70 73 75 61 64 66 51 53 56 78 94 109 78 94 109 78 94 109 78 93
109 78 93 109 78 93 109 78 93 109 78 93 109 78 93 109 78 93 108 78 93
108 78 93 108 77 93 108 77 93 108 77 93 108 77 93 108 77 93 108 77 93
108 77 92 108 77 92 108 77 92 108 77 92 108 77 92 107 77 92 107 77 92
107 77 92 107 77 92 107 77 92 107 77 92 107 77 92 107 76 92 107 76 92
107 76 92 107 76 91 107 76 91 107 76 91 106 76 91 106 76 91 106 76 91
106 76 91 106 76 91 106 76 91 106 76 91 106 76 91 106 76 91 106 76 91
106 76 91 106 76 91 106 75 90 105 75 90 105 75 90 105 75 90 105 75 90
105 75 90 105 75 90 105 75 90 105 75 90 105 75 90 105 75 90 105 75 90
105 75 90 105 75 90 104 75 90 104 75 90 104 75 89 104 75 89 104 75 89
104 74 89 104 74 89 104 74 89 104 74 89 104 74 89 104 74 89 104 74 89
104 74 89 104 74 89 103 74 89 103 74 89 103 74 89 103 74 88 103 74 88
103 74 88 103 74 88 103 74 88 103 74 88 103 74 88 103 73 88 103 73 88
103 73 88 102 73 88 102 73 88 102 73 88 102 73 88 102 73 88 102 73 88
102
90 107 125 90 107 125 89 107 125 89 107 125 89 107 125 89 107 125 89
107 125 89 107 125 89 107 125 89 107 125 89 107 124 89 107 124 89 107
124 89 107 124 89 106 124 89 106 124 89 106 124 89 106 124 89 106 124
89 106 124 89 106 124 88 106 124 88 106 124 88 106 123 88 106 123 88
106 123 88 106 123 88 106 123 88 106 123 88 106 123 88 105 123 88 105
123 88 105 123 88 105 123 88 105 123 88 105 123 88 105 123 88 105 122
88 105 122 87 105 122 87 105 122 87 105 122 87 105 122 87 105 122 87
105 122 87 105 122 87 104 122 87 104 122 87 104 122 87 104 122 87 104
121 87 104 121 87 104 121 87 104 121 87 104 121 87 104 121 87 104 121
87 104 121 86 104 121 86 104 121 86 104 121 86 103 121 86 103 121 86
103 120 86 103 120 86 103 120 86 103 120 86 103 120 86 103 120 86 103
120 86 103 120 86 103 120 86 103 120 86 103 120 86 103 120 86 103 120
85 102 119 85 102 119 85 102 119 85 102 119 85 102 119 85 102 119 85
102 119 85 102 119 85 102 119 85 102 119 85 102 119 85 102 119 85 102
119 85 102 118 85 102 118 85 101 118 85 101 118 85 101 118 84 101 118
84 101 118 84 101 118 84 101 118 84 101 118 84 101 118 84 101 118 84
101 117 84 101 117 84 101 117 84 101 117 84 101 117 84 100 117 84 100
117 84 100 117 84 100 117 84 100 117 84 100 117 83 100 117 83 100 117
83 100 116 83 100 116 83 100 116 83 100 116 83 100 116 83 100 116 83
99 116 83 99 116 83 99 116 83 99 116 83 99 116 83 99 116 217 220 223
218 220 223 218 221 223 218 220 223 217 220 222 217 219 222 216 218
221 215 217 220 214 216 219 212 215 217 211 213 216 209 211 214 207
210 212 205 208 210 203 206 208 201 203 206 199 201 204 196 199 201
194 196 199 191 194 196 188 191 193 186 188 191 183 185 188 180 182
185 176 179 182 173 176 178 170 172 175 166 169 171 163 165 168 159
162 164 155 158 160 151 154 156 147 150 152 143 146 148 139 141 144
134 137 139 129 132 135 125 127 130 120 122 125 212 215 218 211 214
216 209 212 215 208 210 213 206 208 211 204 207 209 202 204 207 200
202 205 197 200 203 195 198 200 193 195 198 190 193 195 187 190 192
184 187 190 181 184 187 178 181 183 175 178 180 172 174 177 168 171
174 165 167 170 161 164 166 157 160 162 153 156 158 149 152 154 145
147 150 140 143 145 136 138 141 131 133 136 126 128 131 120 123 126
115 117 120 109 112 114 103 105 108 96 99 101 89 92 95 82 85 87 74 77
79 65 68 70 78 94 109 78 94 109 78 94 109 78 94 109 78 94 109 78 94
109 78 94 109 78 93 109 78 93 109 78 93 109 78 93 109 78 93 109 78 93
109 78 93 108 78 93 108 78 93 108 77 93 108 77 93 108 77 93 108 77 93
108 77 93 108 77 93 108 77 92 108 77 92 108 77 92 108 77 92 108 77 92
107 77 92 107 77 92 107 77 92 107 77 92 107 77 92 107 77 92 107 77 92
107 76 92 107 76 92 107 76 92 107 76 91 107 76 91 107 76 91 106 76 91
106 76 91 106 76 91 106 76 91 106 76 91 106 76 91 106 76 91 106 76 91
106 76 91 106 76 91 106 76 91 106 76 91 106 76 91 106 75 90 105 75 90
105 75 90 105 75 90 105 75 90 105 75 90 105 75 90 105 75 90 105 75 90
105 75 90 105 75 90 105 75 90 105 75 90 105 75 90 104 75 90 104 75 89
104 75 89 104 75 89 104 74 89 104 74 89 104 74 89 104 74 89 104 74 89
104 74 89 104 74 89 104 74 89 104 74 89 103 74 89 103 74 89 103 74 89
103 74 89 103 74 88 103 74 88 103 74 88 103 74 88 103 74 88 103 74 88
103 73 88 103 73 88 103 73 88 103 73 88 102 73 88 102 73 88 102 73 88
102
90 107 125 90 107 125 89 107 125 89 107 125 89 107 125 89 107 125 89
107 125 89 107 125 89 107 125 89 107 125 89 107 125 89 107 124 89 107
124 89 107 124 89 107 124 89 106 124 89 106 124 89 106 124 89 106 124
89 106 124 89 106 124 88 106 124 88 106 124 88 106 124 88 106 123 88
106 123 88 106 123 88 106 123 88 106 123 88 106 123 88 106 123 88 105
123 88 105 123 88 105 123 88 105 123 88 105 123 88 105 123 88 105 123
88 105 122 88 105 122 87 105 122 87 105 122 87 105 122 87 105 122 87
105 122 87 105 122 87 104 122 87 104 122 87 104 122 87 104 122 87 104
122 87 104 121 87 104 121 87 104 121 87 104 121 87 104 121 87 104 121
87 104 121 87 104 121 86 104 121 86 104 121 86 104 121 86 103 121 86
103 121 86 103 120 86 103 120 86 103 120 86 103 120 86 103 120 86 103
120 86 103 120 86 103 120 86 103 120 86 103 120 86 103 120 86 103 120
86 103 120 85 102 119 85 102 119 85 102 119 85 102 119 85 102 119 85
102 119 85 102 119 85 102 119 85 102 119 85 102 119 85 102 119 85 102
119 85 102 119 85 102 118 85 102 118 85 101 118 85 101 118 85 101 118
84 101 118 84 101 118 84 101 118 84 101 118 84 101 118 84 101 118 84
101 118 84 101 118 84 101 117 84 101 117 84 101 117 84 101 117 84 100
117 84 100 117 84 100 117 84 100 117 84 100 117 84 100 117 83 100 117
83 100 117 83 100 116 83 100 116 83 100 116 83 100 116 83 100 116 83
100 116 83 100 116 83 99 116 83 99 116 83 99 116 83 99 116 83 99 116
83 99 116 83 99 115 214 216 219 214 216 219 213 216 218 212 215 217
211 214 216 210 213 215 209 211 214 207 210 212 206 208 211 204 206
209 202 204 207 200 202 205 198 200 203 195 198 201 193 196 198 191
193 196 188 190 193 185 188 190 182 185 188 179 182 185 176 179 182
173 176 178 170 173 175 167 169 172 163 166 168 160 162 165 156 158
161 152 155 157 148 151 153 144 146 149 140 142 145 135 138 140 131
133 136 126 129 131 121 124 126 116 119 121 209 212 214 208 210 213
206 209 211 204 207 209 203 205 208 201 203 206 199 201 204 196 199
202 194 197 199 192 194 197 189 192 194 187 189 192 184 187 189 181
184 186 178 181 183 175 178 180 172 174 177 169 171 174 165 168 170
161 164 167 158 160 163 154 156 159 150 152 155 146 148 151 141 144
146 137 139 142 132 135 137 127 130 132 122 125 127 117 119 122 111
113 116 105 108 110 99 101 104 92 95 97 85 87 90 77 80 82 79 94 110 79
94 110 78 94 110 78 94 110 78 94 109 78 94 109 78 94 109 78 94 109 78
94 109 78 94 109 78 94 109 78 93 109 78 93 109 78 93 109 78 93 109 78
93 109 78 93 109 78 93 108 78 93 108 78 93 108 77 93 108 77 93 108 77
93 108 77 93 108 77 93 108 77 93 108 77 92 108 77 92 108 77 92 108 77
92 108 77 92 107 77 92 107 77 92 107 77 92 107 77 92 107 77 92 107 77
92 107 77 92 107 76 92 107 76 92 107 76 92 107 76 91 107 76 91 107 76
91 107 76 91 106 76 91 106 76 91 106 76 91 106 76 91 106 76 91 106 76
91 106 76 91 106 76 91 106 76 91 106 76 91 106 76 91 106 76 91 106 75
90 105 75 90 105 75 90 105 75 90 105 75 90 105 75 90 105 75 90 105 75
90 105 75 90 105 75 90 105 75 90 105 75 90 105 75 90 105 75 90 104 75
90 104 75 90 104 75 89 104 75 89 104 75 89 104 74 89 104 74 89 104 74
89 104 74 89 104 74 89 104 74 89 104 74 89 104 74 89 104 74 89 103 74
89 103 74 89 103 74 89 103 74 89 103 74 88 103 74 88 103 74 88 103 74
88 103 74 88 103 74 88 103 73 88 103 73 88 103 73 88 103 73 88 102
90 107 125 90 107 125 90 107 125 89 107 125 89 107 125 89 107 125 89
107 125 89 107 125 89 107 125 89 107 125 89 107 125 89 107 124 89 107
124 89 107 124 89 107 124 89 107 124 89 106 124 89 106 124 89 106 124
89 106 124 89 106 124 89 106 124 88 106 124 88 106 124 88 106 124 88
106 123 88 106 123 88 106 123 88 106 123 88 106 123 88 106 123 88 106
123 88 105 123 88 105 123 88 105 123 88 105 123 88 105 123 88 105 123
88 105 122 88 105 122 88 105 122 87 105 122 87 105 122 87 105 122 87
105 122 87 105 122 87 105 122 87 104 122 87 104 122 87 104 122 87 104
122 87 104 122 87 104 121 87 104 121 87 104 121 87 104 121 87 104 121
87 104 121 87 104 121 87 104 121 86 104 121 86 104 121 86 104 121 86
103 121 86 103 121 86 103 120 86 103 120 86 103 120 86 103 120 86 103
120 86 103 120 86 103 120 86 103 120 86 103 120 86 103 120 86 103 120
86 103 120 86 103 120 85 102 119 85 102 119 85 102 119 85 102 119 85
102 119 85 102 119 85 102 119 85 102 119 85 102 119 85 102 119 85 102
119 85 102 119 85 102 119 85 102 118 85 102 118 85 101 118 85 101 118
85 101 118 84 101 118 84 101 118 84 101 118 84 101 118 84 101 118 84
101 118 84 101 118 84 101 118 84 101 117 84 101 117 84 101 117 84 101
117 84 100 117 84 100 117 84 100 117 84 100 117 84 100 117 84 100 117
83 100 117 83 100 117 83 100 117 83 100 116 83 100 116 83 100 116 83
100 116 83 100 116 83 100 116 83 99 116 83 99 116 83 99 116 83 99 116
83 99 116 83 99 116 83 99 115 83 99 115 83 99 115 208 211 213 207 210
213 206 209 211 205 208 210 204 206 209 202 205 207 200 203 205 198
201 204 196 199 202 194 197 199 192 195 197 190 192 195 187 190 192
185 187 190 182 184 187 179 182 184 176 179 181 173 176 178 170 173
175 167 169 172 163 166 168 160 162 165 156 159 161 152 155 158 149
151 154 145 147 150 140 143 146 136 139 141 132 134 137 127 130 132
122 125 127 117 120 123 112 115 117 205 208 210 204 206 209 202 205
207 201 203 206 199 202 204 197 200 202 195 198 200 193 195 198 191
193 196 188 191 193 186 188 191 183 186 188 180 183 186 178 180 183
175 177 180 172 174 177 168 171 173 165 168 170 162 164 167 158 160
163 154 157 159 150 153 155 146 149 151 142 145 147 138 140 143 133
136 138 128 131 133 123 126 128 118 121 123 112 115 118 107 109 112
101 103 106 94 97 99 87 90 92 79 94 110 79 94 110 79 94 110 79 94 110
79 94 110 78 94 110 78 94 110 78 94 110 78 94 109 78 94 109 78 94 109
78 94 109 78 94 109 78 94 109 78 94 109 78 93 109 78 93 109 78 93 109
78 93 109 78 93 109 78 93 109 78 93 108 78 93 108 78 93 108 77 93 108
77 93 108 77 93 108 77 93 108 77 93 108 77 93 108 77 92 108 77 92 108
77 92 108 77 92 108 77 92 107 77 92 107 77 92 107 77 92 107 77 92 107
77 92 107 77 92 107 77 92 107 76 92 107 76 92 107 76 92 107 76 91 107
76 91 107 76 91 107 76 91 106 76 91 106 76 91 106 76 91 106 76 91 106
76 91 106 76 91 106 76 91 106 76 91 106 76 91 106 76 91 106 76 91 106
76 91 106 75 90 105 75 90 105 75 90 105 75 90 105 75 90 105 75 90 105
75 90 105 75 90 105 75 90 105 75 90 105 75 90 105 75 90 105 75 90 105
75 90 105 75 90 104 75 90 104 75 89 104 75 89 104 75 89 104 74 89 104
74 89 104 74 89 104 74 89 104 74 89 104 74 89 104 74 89 104 74 89 104
74 89 103 74 89 103 74 89 103 74 89 103 74 89 103 74 88 103 74 88 103
74 88 103 74 88 103 74 88 103 74 88 103 74 88 103 73 88 103
90 107 125 90 107 125 90 107 125 90 107 125 89 107 125 89 107 125 89
107 125 89 107 125 89 107 125 89 107 125 89 107 125 89 107 125 89 107
124 89 107 124 89 107 124 89 107 124 89 106 124 89 106 124 89 106 124
89 106 124 89 106 124 89 106 124 89 106 124 88 106 124 88 106 124 88
106 124 88 106 123 88 106 123 88 106 123 88 106 123 88 106 123 88 106
123 88 105 123 88 105 123 88 105 123 88 105 123 88 105 123 88 105 123
88 105 123 88 105 122 88 105 122 88 105 122 87 105 122 87 105 122 87
105 122 87 105 122 87 105 122 87 105 122 87 104 122 87 104 122 87 104
122 87 104 122 87 104 121 87 104 121 87 104 121 87 104 121 87 104 121
87 104 121 87 104 121 87 104 121 86 104 121 86 104 121 86 104 121 86
103 121 86 103 121 86 103 121 86 103 120 86 103 120 86 103 120 86 103
120 86 103 120 86 103 120 86 103 120 86 103 120 86 103 120 86 103 120
86 103 120 86 103 120 86 103 120 85 102 119 85 102 119 85 102 119 85
102 119 85 102 119 85 102 119 85 102 119 85 102 119 85 102 119 85 102
119 85 102 119 85 102 119 85 102 119 85 102 118 85 102 118 85 101 118
85 101 118 85 101 118 84 101 118 84 101 118 84 101 118 84 101 118 84
101 118 84 101 118 84 101 118 84 101 118 84 101 117 84 101 117 84 101
117 84 101 117 84 100 117 84 100 117 84 100 117 84 100 117 84 100 117
84 100 117 83 100 117 83 100 117 83 100 117 83 100 116 83 100 116 83
100 116 83 100 116 83 100 116 83 100 116 83 99 116 83 99 116 83 99 116
83 99 116 83 99 116 83 99 116 83 99 116 83 99 115 83 99 115 82 99 115
82 99 115 201 204 206 200 202 205 198 201 203 197 199 202 195 197 200
193 195 198 191 193 196 188 191 194 186 189 191 184 186 189 181 184
186 178 181 184 176 178 181 173 175 178 170 172 175 166 169 172 163
166 168 160 162 165 156 159 161 153 155 158 149 151 154 145 148 150
141 144 146 137 139 142 132 135 138 128 131 133 123 126 128 119 121
124 114 116 119 108 111 113 81 97 113 200 203 205 199 201 204 197 200
202 195 198 200 193 196 198 191 194 196 189 192 194 187 190 192 185
187 190 182 185 187 180 182 185 177 179 182 174 177 179 171 174 176
168 170 173 165 167 170 161 164 166 158 160 163 154 157 159 150 153
155 146 149 152 142 145 147 138 141 143 134 136 139 129 132 134 124
127 129 119 122 124 114 116 119 108 111 113 79 95 111 79 95 110 79 95
110 79 95 110 79 95 110 79 94 110 79 94 110 79 94 110 79 94 110 79 94
110 79 94 110 78 94 110 78 94 110 78 94 110 78 94 109 78 94 109 78 94
109 78 94 109 78 94 109 78 94 109 78 93 109 78 93 109 78 93 109 78 93
109 78 93 109 78 93 109 78 93 109 78 93 108 78 93 108 78 93 108 77 93
108 77 93 108 77 93 108 77 93 108 77 93 108 77 93 108 77 92 108 77 92
108 77 92 108 77 92 108 77 92 107 77 92 107 77 92 107 77 92 107 77 92
107 77 92 107 77 92 107 77 92 107 77 92 107 76 92 107 76 92 107 76 92
107 76 91 107 76 91 107 76 91 106 76 91 106 76 91 106 76 91 106 76 91
106 76 91 106 76 91 106 76 91 106 76 91 106 76 91 106 76 91 106 76 91
106 76 91 106 75 90 105 75 90 105 75 90 105 75 90 105 75 90 105 75 90
105 75 90 105 75 90 105 75 90 105 75 90 105 75 90 105 75 90 105 75 90
105 75 90 105 75 90 104 75 90 104 75 89 104 75 89 104 75 89 104 75 89
104 74 89 104 74 89 104 74 89 104 74 89 104 74 89 104 74 89 104 74 89
104 74 89 104 74 89 103 74 89 103 74 89 103 74 89 103 74 89 103 74 88
103 74 88 103 74 88 103 74 88 103 74 88 103
90 108 125 90 107 125 90 107 125 90 107 125 89 107 125 89 107 125 89
107 125 89 107 125 89 107 125 89 107 125 89 107 125 89 107 125 89 107
125 89 107 124 89 107 124 89 107 124 89 107 124 89 106 124 89 106 124
89 106 124 89 106 124 89 106 124 89 106 124 89 106 124 88 106 124 88
106 124 88 106 123 88 106 123 88 106 123 88 106 123 88 106 123 88 106
123 88 106 123 88 105 123 88 105 123 88 105 123 88 105 123 88 105 123
88 105 123 88 105 123 88 105 122 88 105 122 88 105 122 87 105 122 87
105 122 87 105 122 87 105 122 87 105 122 87 105 122 87 104 122 87 104
122 87 104 122 87 104 122 87 104 121 87 104 121 87 104 121 87 104 121
87 104 121 87 104 121 87 104 121 87 104 121 86 104 121 86 104 121 86
104 121 86 103 121 86 103 121 86 103 121 86 103 120 86 103 120 86 103
120 86 103 120 86 103 120 86 103 120 86 103 120 86 103 120 86 103 120
86 103 120 86 103 120 86 103 120 86 103 120 85 102 119 85 102 119 85
102 119 85 102 119 85 102 119 85 102 119 85 102 119 85 102 119 85 102
119 85 102 119 85 102 119 85 102 119 85 102 119 85 102 118 85 102 118
85 101 118 85 101 118 85 101 118 84 101 118 84 101 118 84 101 118 84
101 118 84 101 118 84 101 118 84 101 118 84 101 118 84 101 117 84 101
117 84 101 117 84 101 117 84 100 117 84 100 117 84 100 117 84 100 117
84 100 117 84 100 117 83 100 117 83 100 117 83 100 117 83 100 116 83
100 116 83 100 116 83 100 116 83 100 116 83 100 116 83 99 116 83 99
116 83 99 116 83 99 116 83 99 116 83 99 116 83 99 116 83 99 115 83 99
115 83 99 115 82 99 115 82 99 115 82 99 115 82 99 115 82 99 115 82 99
115 187 189 192 185 187 190 182 185 188 180 183 185 177 180 183 175
177 180 172 174 177 169 172 174 166 169 171 163 165 168 160 162 165
156 159 161 153 155 158 149 151 154 145 148 150 141 144 146 137 140
142 133 136 138 81 97 113 81 97 113 81 97 113 81 97 113 81 97 113 81
97 113 81 97 113 81 97 113 81 97 113 81 97 113 81 97 113 81 97 113 80
96 112 185 188 190 183 186 188 181 183 186 178 181 183 176 178 181 173
176 178 170 173 175 167 170 172 164 167 169 161 163 166 157 160 162
154 156 159 150 153 155 146 149 151 142 145 147 138 141 143 134 136
139 129 132 134 79 95 111 79 95 111 79 95 111 79 95 111 79 95 111 79
95 111 79 95 111 79 95 110 79 95 110 79 95 110 79 95 110 79 95 110 79
94 110 79 94 110 79 94 110 79 94 110 79 94 110 79 94 110 78 94 110 78
94 110 78 94 110 78 94 109 78 94 109 78 94 109 78 94 109 78 94 109 78
94 109 78 93 109 78 93 109 78 93 109 78 93 109 78 93 109 78 93 109 78
93 109 78 93 108 78 93 108 78 93 108 77 93 108 77 93 108 77 93 108 77
93 108 77 93 108 77 93 108 77 92 108 77 92 108 77 92 108 77 92 108 77
92 108 77 92 107 77 92 107 77 92 107 77 92 107 77 92 107 77 92 107 77
92 107 77 92 107 76 92 107 76 92 107 76 92 107 76 91 107 76 91 107 76
91 106 76 91 106 76 91 106 76 91 106 76 91 106 76 91 106 76 91 106 76
91 106 76 91 106 76 91 106 76 91 106 76 91 106 76 91 106 76 91 106 75
90 105 75 90 105 75 90 105 75 90 105 75 90 105 75 90 105 75 90 105 75
90 105 75 90 105 75 90 105 75 90 105 75 90 105 75 90 105 75 90 105 75
90 104 75 90 104 75 89 104 75 89 104 75 89 104 74 89 104 74 89 104 74
89 104 74 89 104 74 89 104 74 89 104 74 89 104 74 89 104 74 89 104 74
89 103 74 89 103 74 89 103 74 89 103 74 88 103 74 88 103 74 88 103
90 108 125 90 107 125 90 107 125 90 107 125 90 107 125 89 107 125 89
107 125 89 107 125 89 107 125 89 107 125 89 107 125 89 107 125 89 107
125 89 107 124 89 107 124 89 107 124 89 107 124 89 107 124 89 106 124
89 106 124 89 106 124 89 106 124 89 106 124 89 106 124 88 106 124 88
106 124 88 106 124 88 106 123 88 106 123 88 106 123 88 106 123 88 106
123 88 106 123 88 106 123 88 105 123 88 105 123 88 105 123 88 105 123
88 105 123 88 105 123 88 105 123 88 105 122 88 105 122 87 105 122 87
105 122 87 105 122 87 105 122 87 105 122 87 105 122 87 105 122 87 104
122 87 104 122 87 104 122 87 104 122 87 104 121 87 104 121 87 104 121
87 104 121 87 104 121 87 104 121 87 104 121 87 104 121 86 104 121 86
104 121 86 104 121 86 103 121 86 103 121 86 103 120 86 103 120 86 103
120 86 103 120 86 103 120 86 103 120 86 103 120 86 103 120 86 103 120
86 103 120 86 103 120 86 103 120 86 103 120 86 103 120 85 102 119 85
102 119 85 102 119 85 102 119 85 102 119 85 102 119 85 102 119 85 102
119 85 102 119 85 102 119 85 102 119 85 102 119 85 102 119 85 102 118
85 102 118 85 101 118 85 101 118 85 101 118 84 101 118 84 101 118 84
101 118 84 101 118 84 101 118 84 101 118 84 101 118 84 101 118 84 101
117 84 101 117 84 101 117 84 101 117 84 100 117 84 100 117 84 100 117
84 100 117 84 100 117 84 100 117 84 100 117 83 100 117 83 100 117 83
100 116 83 100 116 83 100 116 83 100 116 83 100 116 83 100 116 83 100
116 83 99 116 83 99 116 83 99 116 83 99 116 83 99 116 83 99 116 83 99
115 83 99 115 83 99 115 82 99 115 82 99 115 82 99 115 82 99 115 82 99
115 82 99 115 82 98 115 82 98 115 82 98 115 82 98 115 82 98 114 82 98
114 82 98 114 82 98 114 82 98 114 82 98 114 82 98 114 82 98 114 81 98
114 81 98 114 81 98 114 81 97 114 81 97 114 81 97 114 81 97 113 81 97
113 81 97 113 81 97 113 81 97 113 81 97 113 81 97 113 81 97 113 81 97
113 81 97 113 81 97 113 81 97 113 81 97 113 80 96 112 80 96 112 80 96
112 80 96 112 80 96 112 80 96 112 80 96 112 80 96 112 80 96 112 80 96
112 80 96 112 80 96 112 80 96 112 80 96 111 80 96 111 80 95 111 80 95
111 80 95 111 79 95 111 79 95 111 79 95 111 79 95 111 79 95 111 79 95
111 79 95 111 79 95 111 79 95 110 79 95 110 79 95 110 79 95 110 79 95
110 79 94 110 79 94 110 79 94 110 79 94 110 79 94 110 79 94 110 78 94
110 78 94 110 78 94 110 78 94 109 78 94 109 78 94 109 78 94 109 78 94
109 78 94 109 78 93 109 78 93 109 78 93 109 78 93 109 78 93 109 78 93
109 78 93 109 78 93 108 78 93 108 78 93 108 77 93 108 77 93 108 77 93
108 77 93 108 77 93 108 77 93 108 77 92 108 77 92 108 77 92 108 77 92
108 77 92 108 77 92 107 77 92 107 77 92 107 77 92 107 77 92 107 77 92
107 77 92 107 77 92 107 76 92 107 76 92 107 76 92 107 76 91 107 76 91
107 76 91 106 76 91 106 76 91 106 76 91 106 76 91 106 76 91 106 76 91
106 76 91 106 76 91 106 76 91 106 76 91 106 76 91 106 76 91 106 76 91
106 75 90 105 75 90 105 75 90 105 75 90 105 75 90 105 75 90 105 75 90
105 75 90 105 75 90 105 75 90 105 75 90 105 75 90 105 75 90 105 75 90
105 75 90 104 75 90 104 75 89 104 75 89 104 75 89 104 75 89 104 74 89
104 74 89 104 74 89 104 74 89 104 74 89 104 74 89 104 74 89 104 74 89
104 74 89 103 74 89 103 74 89 103 74 89 103 74 89 103
90 108 125 90 108 125 90 107 125 90 107 125 90 107 125 89 107 125 89
107 125 89 107 125 89 107 125 89 107 125 89 107 125 89 107 125 89 107
125 89 107 125 89 107 124 89 107 124 89 107 124 89 107 124 89 106 124
89 106 124 89 106 124 89 106 124 89 106 124 89 106 124 89 106 124 88
106 124 88 106 124 88 106 124 88 106 123 88 106 123 88 106 123 88 106
123 88 106 123 88 106 123 88 105 123 88 105 123 88 105 123 88 105 123
88 105 123 88 105 123 88 105 123 88 105 122 88 105 122 88 105 122 87
105 122 87 105 122 87 105 122 87 105 122 87 105 122 87 105 122 87 104
122 87 104 122 87 104 122 87 104 122 87 104 122 87 104 121 87 104 121
87 104 121 87 104 121 87 104 121 87 104 121 87 104 121 87 104 121 86
104 121 86 104 121 86 104 121 86 103 121 86 103 121 86 103 120 86 103
120 86 103 120 86 103 120 86 103 120 86 103 120 86 103 120 86 103 120
86 103 120 86 103 120 86 103 120 86 103 120 86 103 120 86 103 120 85
102 119 85 102 119 85 102 119 85 102 119 85 102 119 85 102 119 85 102
119 85 102 119 85 102 119 85 102 119 85 102 119 85 102 119 85 102 119
85 102 118 85 102 118 85 101 118 85 101 118 85 101 118 84 101 118 84
101 118 84 101 118 84 101 118 84 101 118 84 101 118 84 101 118 84 101
118 84 101 117 84 101 117 84 101 117 84 101 117 84 101 117 84 100 117
84 100 117 84 100 117 84 100 117 84 100 117 84 100 117 83 100 117 83
100 117 83 100 116 83 100 116 83 100 116 83 100 116 83 100 116 83 100
116 83 100 116 83 99 116 83 99 116 83 99 116 83 99 116 83 99 116 83 99
116 83 99 116 83 99 115 83 99 115 82 99 115 82 99 115 82 99 115 82 99
115 82 99 115 82 99 115 82 98 115 82 98 115 82 98 115 82 98 115 82 98
115 82 98 114 82 98 114 82 98 114 82 98 114 82 98 114 82 98 114 82 98
114 82 98 114 81 98 114 81 98 114 81 98 114 81 97 114 81 97 114 81 97
113 81 97 113 81 97 113 81 97 113 81 97 113 81 97 113 81 97 113 81 97
113 81 97 113 81 97 113 81 97 113 81 97 113 81 97 113 80 96 112 80 96
112 80 96 112 80 96 112 80 96 112 80 96 112 80 96 112 80 96 112 80 96
112 80 96 112 80 96 112 80 96 112 80 96 112 80 96 112 80 96 111 80 96
111 80 95 111 80 95 111 80 95 111 79 95 111 79 95 111 79 95 111 79 95
111 79 95 111 79 95 111 79 95 111 79 95 111 79 95 110 79 95 110 79 95
110 79 95 110 79 94 110 79 94 110 79 94 110 79 94 110 79 94 110 79 94
110 79 94 110 78 94 110 78 94 110 78 94 109 78 94 109 78 94 109 78 94
109 78 94 109 78 94 109 78 94 109 78 93 109 78 93 109 78 93 109 78 93
109 78 93 109 78 93 109 78 93 109 78 93 108 78 93 108 78 93 108 77 93
108 77 93 108 77 93 108 77 93 108 77 93 108 77 93 108 77 92 108 77 92
108 77 92 108 77 92 108 77 92 108 77 92 107 77 92 107 77 92 107 77 92
107 77 92 107 77 92 107 77 92 107 77 92 107 76 92 107 76 92 107 76 92
107 76 91 107 76 91 107 76 91 106 76 91 106 76 91 106 76 91 106 76 91
106 76 91 106 76 91 106 76 91 106 76 91 106 76 91 106 76 91 106 76 91
106 76 91 106 76 91 106 75 90 105 75 90 105 75 90 105 75 90 105 75 90
105 75 90 105 75 90 105 75 90 105 75 90 105 75 90 105 75 90 105 75 90
105 75 90 105 75 90 105 75 90 104 75 90 104 75 90 104 75 89 104 75 89
104 75 89 104 74 89 104 74 89 104 74 89 104 74 89 104 74 89 104 74 89
104 74 89 104 74 89 104 74 89 104 74 89 103 74 89 103
90 108 125 90 108 125 90 107 125 90 107 125 90 107 125 90 107 125 89
107 125 89 107 125 89 107 125 89 107 125 89 107 125 89 107 125 89 107
125 89 107 125 89 107 124 89 107 124 89 107 124 89 107 124 89 107 124
89 106 124 89 106 124 89 106 124 89 106 124 89 106 124 89 106 124 88
106 124 88 106 124 88 106 124 88 106 123 88 106 123 88 106 123 88 106
123 88 106 123 88 106 123 88 106 123 88 105 123 88 105 123 88 105 123
88 105 123 88 105 123 88 105 123 88 105 123 88 105 122 88 105 122 88
105 122 87 105 122 87 105 122 87 105 122 87 105 122 87 105 122 87 105
122 87 104 122 87 104 122 87 104 122 87 104 122 87 104 122 87 104 121
87 104 121 87 104 121 87 104 121 87 104 121 87 104 121 87 104 121 87
104 121 86 104 121 86 104 121 86 104 121 86 103 121 86 103 121 86 103
120 86 103 120 86 103 120 86 103 120 86 103 120 86 103 120 86 103 120
86 103 120 86 103 120 86 103 120 86 103 120 86 103 120 86 103 120 85
102 119 85 102 119 85 102 119 85 102 119 85 102 119 85 102 119 85 102
119 85 102 119 85 102 119 85 102 119 85 102 119 85 102 119 85 102 119
85 102 119 85 102 118 85 102 118 85 101 118 85 101 118 85 101 118 84
101 118 84 101 118 84 101 118 84 101 118 84 101 118 84 101 118 84 101
118 84 101 118 84 101 117 84 101 117 84 101 117 84 101 117 84 101 117
84 100 117 84 100 117 84 100 117 84 100 117 84 100 117 84 100 117 83
100 117 83 100 117 83 100 116 83 100 116 83 100 116 83 100 116 83 100
116 83 100 116 83 100 116 83 99 116 83 99 116 83 99 116 83 99 116 83
99 116 83 99 116 83 99 116 83 99 115 83 99 115 82 99 115 82 99 115 82
99 115 82 99 115 82 99 115 82 99 115 82 99 115 82 98 115 82 98 115 82
98 115 82 98 115 82 98 114 82 98 114 82 98 114 82 98 114 82 98 114 82
98 114 82 98 114 82 98 114 81 98 114 81 98 114 81 98 114 81 97 114 81
97 114 81 97 113 81 97 113 81 97 113 81 97 113 81 97 113 81 97 113 81
97 113 81 97 113 81 97 113 81 97 113 81 97 113 81 97 113 81 97 113 81
97 113 80 96 112 80 96 112 80 96 112 80 96 112 80 96 112 80 96 112 80
96 112 80 96 112 80 96 112 80 96 112 80 96 112 80 96 112 80 96 112 80
96 111 80 96 111 80 95 111 80 95 111 80 95 111 80 95 111 79 95 111 79
95 111 79 95 111 79 95 111 79 95 111 79 95 111 79 95 111 79 95 111 79
95 110 79 95 110 79 95 110 79 95 110 79 94 110 79 94 110 79 94 110 79
94 110 79 94 110 79 94 110 79 94 110 78 94 110 78 94 110 78 94 109 78
94 109 78 94 109 78 94 109 78 94 109 78 94 109 78 94 109 78 93 109 78
93 109 78 93 109 78 93 109 78 93 109 78 93 109 78 93 109 78 93 108 78
93 108 78 93 108 77 93 108 77 93 108 77 93 108 77 93 108 77 93 108 77
93 108 77 92 108 77 92 108 77 92 108 77 92 108 77 92 108 77 92 107 77
92 107 77 92 107 77 92 107 77 92 107 77 92 107 77 92 107 77 92 107 76
92 107 76 92 107 76 92 107 76 91 107 76 91 107 76 91 107 76 91 106 76
91 106 76 91 106 76 91 106 76 91 106 76 91 106 76 91 106 76 91 106 76
91 106 76 91 106 76 91 106 76 91 106 76 91 106 76 91 106 75 90 105 75
90 105 75 90 105 75 90 105 75 90 105 75 90 105 75 90 105 75 90 105 75
90 105 75 90 105 75 90 105 75 90 105 75 90 105 75 90 105 75 90 104 75
90 104 75 89 104 75 89 104 75 89 104 75 89 104 74 89 104 74 89 104 74
89 104 74 89 104 74 89 104 74 89 104 74 89 104 74 89 104
90 108 126 90 108 125 90 108 125 90 107 125 90 107 125 90 107 125 89
107 125 89 107 125 89 107 125 89 107 125 89 107 125 89 107 125 89 107
125 89 107 125 89 107 125 89 107 124 89 107 124 89 107 124 89 107 124
89 106 124 89 106 124 89 106 124 89 106 124 89 106 124 89 106 124 89
106 124 88 106 124 88 106 124 88 106 124 88 106 123 88 106 123 88 106
123 88 106 123 88 106 123 88 106 123 88 106 123 88 105 123 88 105 123
88 105 123 88 105 123 88 105 123 88 105 123 88 105 123 88 105 122 88
105 122 87 105 122 87 105 122 87 105 122 87 105 122 87 105 122 87 105
122 87 105 122 87 104 122 87 104 122 87 104 122 87 104 122 87 104 121
87 104 121 87 104 121 87 104 121 87 104 121 87 104 121 87 104 121 87
104 121 86 104 121 86 104 121 86 104 121 86 104 121 86 103 121 86 103
121 86 103 120 86 103 120 86 103 120 86 103 120 86 103 120 86 103 120
86 103 120 86 103 120 86 103 120 86 103 120 86 103 120 86 103 120 86
103 120 85 102 119 85 102 119 85 102 119 85 102 119 85 102 119 85 102
119 85 102 119 85 102 119 85 102 119 85 102 119 85 102 119 85 102 119
85 102 119 85 102 119 85 102 118 85 102 118 85 101 118 85 101 118 85
101 118 84 101 118 84 101 118 84 101 118 84 101 118 84 101 118 84 101
118 84 101 118 84 101 118 84 101 117 84 101 117 84 101 117 84 101 117
84 101 117 84 100 117 84 100 117 84 100 117 84 100 117 84 100 117 84
100 117 83 100 117 83 100 117 83 100 117 83 100 116 83 100 116 83 100
116 83 100 116 83 100 116 83 100 116 83 99 116 83 99 116 83 99 116 83
99 116 83 99 116 83 99 116 83 99 116 83 99 115 83 99 115 83 99 115 82
99 115 82 99 115 82 99 115 82 99 115 82 99 115 82 99 115 82 98 115 82
98 115 82 98 115 82 98 115 82 98 114 82 98 114 82 98 114 82 98 114 82
98 114 82 98 114 82 98 114 82 98 114 81 98 114 81 98 114 81 98 114 81
98 114 81 97 114 81 97 114 81 97 113 81 97 113 81 97 113 81 97 113 81
97 113 81 97 113 81 97 113 81 97 113 81 97 113 81 97 113 81 97 113 81
97 113 81 97 113 80 96 112 80 96 112 80 96 112 80 96 112 80 96 112 80
96 112 80 96 112 80 96 112 80 96 112 80 96 112 80 96 112 80 96 112 80
96 112 80 96 112 80 96 111 80 96 111 80 95 111 80 95 111 80 95 111 79
95 111 79 95 111 79 95 111 79 95 111 79 95 111 79 95 111 79 95 111 79
95 111 79 95 110 79 95 110 79 95 110 79 95 110 79 95 110 79 94 110 79
94 110 79 94 110 79 94 110 79 94 110 79 94 110 78 94 110 78 94 110 78
94 110 78 94 109 78 94 109 78 94 109 78 94 109 78 94 109 78 94 109 78
94 109 78 93 109 78 93 109 78 93 109 78 93 109 78 93 109 78 93 109 78
93 109 78 93 108 78 93 108 78 93 108 77 93 108 77 93 108 77 93 108 77
93 108 77 93 108 77 93 108 77 92 108 77 92 108 77 92 108 77 92 108 77
92 108 77 92 107 77 92 107 77 92 107 77 92 107 77 92 107 77 92 107 77
92 107 77 92 107 76 92 107 76 92 107 76 92 107 76 91 107 76 91 107 76
91 107 76 91 106 76 91 106 76 91 106 76 91 106 76 91 106 76 91 106 76
91 106 76 91 106 76 91 106 76 91 106 76 91 106 76 91 106 76 91 106 76
91 106 75 90 105 75 90 105 75 90 105 75 90 105 75 90 105 75 90 105 75
90 105 75 90 105 75 90 105 75 90 105 75 90 105 75 90 105 75 90 105 75
90 105 75 90 104 75 90 104 75 90 104 75 89 104 75 89 104 75 89 104 74
89 104 74 89 104 74 89 104 74 89 104 74 89 104 74 89 104
90 108 126 90 108 125 90 108 125 90 107 125 90 107 125 90 107 125 90
107 125 89 107 125 89 107 125 89 107 125 89 107 125 89 107 125 89 107
125 89 107 125 89 107 125 89 107 124 89 107 124 89 107 124 89 107 124
89 107 124 89 106 124 89 106 124 89 106 124 89 106 124 89 106 124 89
106 124 89 106 124 88 106 124 88 106 124 88 106 123 88 106 123 88 106
123 88 106 123 88 106 123 88 106 123 88 106 123 88 105 123 88 105 123
88 105 123 88 105 123 88 105 123 88 105 123 88 105 123 88 105 122 88
105 122 88 105 122 87 105 122 87 105 122 87 105 122 87 105 122 87 105
122 87 105 122 87 104 122 87 104 122 87 104 122 87 104 122 87 104 122
87 104 121 87 104 121 87 104 121 87 104 121 87 104 121 87 104 121 87
104 121 87 104 121 86 104 121 86 104 121 86 104 121 86 103 121 86 103
121 86 103 121 86 103 120 86 103 120 86 103 120 86 103 120 86 103 120
86 103 120 86 103 120 86 103 120 86 103 120 86 103 120 86 103 120 86
103 120 86 103 120 85 102 119 85 102 119 85 102 119 85 102 119 85 102
119 85 102 119 85 102 119 85 102 119 85 102 119 85 102 119 85 102 119
85 102 119 85 102 119 85 102 119 85 102 118 85 102 118 85 101 118 85
101 118 85 101 118 84 101 118 84 101 118 84 101 118 84 101 118 84 101
118 84 101 118 84 101 118 84 101 118 84 101 117 84 101 117 84 101 117
84 101 117 84 101 117 84 100 117 84 100 117 84 100 117 84 100 117 84
100 117 84 100 117 83 100 117 83 100 117 83 100 117 83 100 116 83 100
116 83 100 116 83 100 116 83 100 116 83 100 116 83 99 116 83 99 116 83
99 116 83 99 116 83 99 116 83 99 116 83 99 116 83 99 115 83 99 115 83
99 115 82 99 115 82 99 115 82 99 115 82 99 115 82 99 115 82 99 115 82
98 115 82 98 115 82 98 115 82 98 115 82 98 115 82 98 114 82 98 114 82
98 114 82 98 114 82 98 114 82 98 114 82 98 114 82 98 114 81 98 114 81
98 114 81 98 114 81 97 114 81 97 114 81 97 113 81 97 113 81 97 113 81
97 113 81 97 113 81 97 113 81 97 113 81 97 113 81 97 113 81 97 113 81
97 113 81 97 113 81 97 113 81 97 113 80 96 112 80 96 112 80 96 112 80
96 112 80 96 112 80 96 112 80 96 112 80 96 112 80 96 112 80 96 112 80
96 112 80 96 112 80 96 112 80 96 111 80 96 111 80 96 111 80 95 111 80
95 111 80 95 111 79 95 111 79 95 111 79 95 111 79 95 111 79 95 111 79
95 111 79 95 111 79 95 111 79 95 110 79 95 110 79 95 110 79 95 110 79
95 110 79 94 110 79 94 110 79 94 110 79 94 110 79 94 110 79 94 110 78
94 110 78 94 110 78 94 110 78 94 109 78 94 109 78 94 109 78 94 109 78
94 109 78 94 109 78 94 109 78 93 109 78 93 109 78 93 109 78 93 109 78
93 109 78 93 109 78 93 109 78 93 108 78 93 108 78 93 108 77 93 108 77
93 108 77 93 108 77 93 108 77 93 108 77 93 108 77 92 108 77 92 108 77
92 108 77 92 108 77 92 108 77 92 107 77 92 107 77 92 107 77 92 107 77
92 107 77 92 107 77 92 107 77 92 107 76 92 107 76 92 107 76 92 107 76
92 107 76 91 107 76 91 107 76 91 106 76 91 106 76 91 106 76 91 106 76
91 106 76 91 106 76 91 106 76 91 106 76 91 106 76 91 106 76 91 106 76
91 106 76 91 106 76 91 106 75 90 105 75 90 105 75 90 105 75 90 105 75
90 105 75 90 105 75 90 105 75 90 105 75 90 105 75 90 105 75 90 105 75
90 105 75 90 105 75 90 105 75 90 105 75 90 104 75 90 104 75 89 104 75
89 104 75 89 104 74 89 104 74 89 104 74 89 104 74 89 104
90 108 126 90 108 125 90 108 125 90 108 125 90 107 125 90 107 125 90
107 125 89 107 125 89 107 125 89 107 125 89 107 125 89 107 125 89 107
125 89 107 125 89 107 125 89 107 125 89 107 124 89 107 124 89 107 124
89 107 124 89 107 124 89 106 124 89 106 124 89 106 124 89 106 124 89
106 124 89 106 124 88 106 124 88 106 124 88 106 124 88 106 123 88 106
123 88 106 123 88 106 123 88 106 123 88 106 123 88 106 123 88 105 123
88 105 123 88 105 123 88 105 123 88 105 123 88 105 123 88 105 123 88
105 122 88 105 122 88 105 122 87 105 122 87 105 122 87 105 122 87 105
122 87 105 122 87 105 122 87 104 122 87 104 122 87 104 122 87 104 122
87 104 122 87 104 121 87 104 121 87 104 121 87 104 121 87 104 121 87
104 121 87 104 121 87 104 121 86 104 121 86 104 121 86 104 121 86 103
121 86 103 121 86 103 120 86 103 120 86 103 120 86 103 120 86 103 120
86 103 120 86 103 120 86 103 120 86 103 120 86 103 120 86 103 120 86
103 120 86 103 120 86 103 120 85 102 119 85 102 119 85 102 119 85 102
119 85 102 119 85 102 119 85 102 119 85 102 119 85 102 119 85 102 119
85 102 119 85 102 119 85 102 119 85 102 119 85 102 118 85 102 118 85
101 118 85 101 118 85 101 118 84 101 118 84 101 118 84 101 118 84 101
118 84 101 118 84 101 118 84 101 118 84 101 118 84 101 117 84 101 117
84 101 117 84 101 117 84 101 117 84 100 117 84 100 117 84 100 117 84
100 117 84 100 117 84 100 117 83 100 117 83 100 117 83 100 117 83 100
116 83 100 116 83 100 116 83 100 116 83 100 116 83 100 116 83 100 116
83 99 116 83 99 116 83 99 116 83 99 116 83 99 116 83 99 116 83 99 115
83 99 115 83 99 115 82 99 115 82 99 115 82 99 115 82 99 115 82 99 115
82 99 115 82 99 115 82 98 115 82 98 115 82 98 115 82 98 115 82 98 114
82 98 114 82 98 114 82 98 114 82 98 114 82 98 114 82 98 114 82 98 114
81 98 114 81 98 114 81 98 114 81 97 114 81 97 114 81 97 114 81 97 113
81 97 113 81 97 113 81 97 113 81 97 113 81 97 113 81 97 113 81 97 113
81 97 113 81 97 113 81 97 113 81 97 113 81 97 113 80 96 112 80 96 112
80 96 112 80 96 112 80 96 112 80 96 112 80 96 112 80 96 112 80 96 112
80 96 112 80 96 112 80 96 112 80 96 112 80 96 112 80 96 111 80 96 111
80 95 111 80 95 111 80 95 111 80 95 111 79 95 111 79 95 111 79 95 111
79 95 111 79 95 111 79 95 111 79 95 111 79 95 111 79 95 110 79 95 110
79 95 110 79 95 110 79 94 110 79 94 110 79 94 110 79 94 110 79 94 110
79 94 110 79 94 110 78 94 110 78 94 110 78 94 110 78 94 109 78 94 109
78 94 109 78 94 109 78 94 109 78 94 109 78 94 109 78 93 109 78 93 109
78 93 109 78 93 109 78 93 109 78 93 109 78 93 109 78 93 108 78 93 108
78 93 108 77 93 108 77 93 108 77 93 108 77 93 108 77 93 108 77 93 108
77 92 108 77 92 108 77 92 108 77 92 108 77 92 108 77 92 107 77 92 107
77 92 107 77 92 107 77 92 107 77 92 107 77 92 107 77 92 107 76 92 107
76 92 107 76 92 107 76 92 107 76 91 107 76 91 107 76 91 106 76 91 106
76 91 106 76 91 106 76 91 106 76 91 106 76 91 106 76 91 106 76 91 106
76 91 106 76 91 106 76 91 106 76 91 106 76 91 106 75 90 105 75 90 105
75 90 105 75 90 105 75 90 105 75 90 105 75 90 105 75 90 105 75 90 105
75 90 105 75 90 105 75 90 105 75 90 105 75 90 105 75 90 105 75 90 104
75 90 104 75 89 104 75 89 104 75 89 104 75 89 104 74 89 104
90 108 126 90 108 126 90 108 125 90 108 125 90 107 125 90 107 125 90
107 125 90 107 125 89 107 125 89 107 125 89 107 125 89 107 125 89 107
125 89 107 125 89 107 125 89 107 125 89 107 124 89 107 124 89 107 124
89 107 124 89 107 124 89 106 124 89 106 124 89 106 124 89 106 124 89
106 124 89 106 124 89 106 124 88 106 124 88 106 124 88 106 123 88 106
123 88 106 123 88 106 123 88 106 123 88 106 123 88 106 123 88 106 123
88 105 123 88 105 123 88 105 123 88 105 123 88 105 123 88 105 123 88
105 123 88 105 122 88 105 122 87 105 122 87 105 122 87 105 122 87 105
122 87 105 122 87 105 122 87 105 122 87 104 122 87 104 122 87 104 122
87 104 122 87 104 121 87 104 121 87 104 121 87 104 121 87 104 121 87
104 121 87 104 121 87 104 121 87 104 121 86 104 121 86 104 121 86 104
121 86 103 121 86 103 121 86 103 120 86 103 120 86 103 120 86 103 120
86 103 120 86 103 120 86 103 120 86 103 120 86 103 120 86 103 120 86
103 120 86 103 120 86 103 120 86 103 120 85 102 119 85 102 119 85 102
119 85 102 119 85 102 119 85 102 119 85 102 119 85 102 119 85 102 119
85 102 119 85 102 119 85 102 119 85 102 119 85 102 119 85 102 118 85
102 118 85 101 118 85 101 118 85 101 118 84 101 118 84 101 118 84 101
118 84 101 118 84 101 118 84 101 118 84 101 118 84 101 118 84 101 117
84 101 117 84 101 117 84 101 117 84 101 117 84 100 117 84 100 117 84
100 117 84 100 117 84 100 117 84 100 117 83 100 117 83 100 117 83 100
117 83 100 116 83 100 116 83 100 116 83 100 116 83 100 116 83 100 116
83 100 116 83 99 116 83 99 116 83 99 116 83 99 116 83 99 116 83 99 116
83 99 116 83 99 115 83 99 115 82 99 115 82 99 115 82 99 115 82 99 115
82 99 115 82 99 115 82 99 115 82 98 115 82 98 115 82 98 115 82 98 115
82 98 114 82 98 114 82 98 114 82 98 114 82 98 114 82 98 114 82 98 114
82 98 114 82 98 114 81 98 114 81 98 114 81 98 114 81 97 114 81 97 114
81 97 113 81 97 113 81 97 113 81 97 113 81 97 113 81 97 113 81 97 113
81 97 113 81 97 113 81 97 113 81 97 113 81 97 113 81 97 113 81 97 113
80 96 112 80 96 112 80 96 112 80 96 112 80 96 112 80 96 112 80 96 112
80 96 112 80 96 112 80 96 112 80 96 112 80 96 112 80 96 112 80 96 112
80 96 111 80 96 111 80 95 111 80 95 111 80 95 111 79 95 111 79 95 111
79 95 111 79 95 111 79 95 111 79 95 111 79 95 111 79 95 111 79 95 111
79 95 110 79 95 110 79 95 110 79 95 110 79 94 110 79 94 110 79 94 110
79 94 110 79 94 110 79 94 110 79 94 110 78 94 110 78 94 110 78 94 110
78 94 109 78 94 109 78 94 109 78 94 109 78 94 109 78 94 109 78 94 109
78 93 109 78 93 109 78 93 109 78 93 109 78 93 109 78 93 109 78 93 109
78 93 108 78 93 108 78 93 108 77 93 108 77 93 108 77 93 108 77 93 108
77 93 108 77 93 108 77 92 108 77 92 108 77 92 108 77 92 108 77 92 108
77 92 107 77 92 107 77 92 107 77 92 107 77 92 107 77 92 107 77 92 107
77 92 107 77 92 107 76 92 107 76 92 107 76 92 107 76 91 107 76 91 107
76 91 106 76 91 106 76 91 106 76 91 106 76 91 106 76 91 106 76 91 106
76 91 106 76 91 106 76 91 106 76 91 106 76 91 106 76 91 106 76 91 106
76 91 106 75 90 105 75 90 105 75 90 105 75 90 105 75 90 105 75 90 105
75 90 105 75 90 105 75 90 105 75 90 105 75 90 105 75 90 105 75 90 105
75 90 105 75 90 104 75 90 104 75 90 104 75 89 104 75 89 104
90 108 126 90 108 126 90 108 125 90 108 125 90 108 125 90 107 125 90
107 125 90 107 125 89 107 125 89 107 125 89 107 125 89 107 125 89 107
125 89 107 125 89 107 125 89 107 125 89 107 125 89 107 124 89 107 124
89 107 124 89 107 124 89 107 124 89 106 124 89 106 124 89 106 124 89
106 124 89 106 124 89 106 124 88 106 124 88 106 124 88 106 124 88 106
123 88 106 123 88 106 123 88 106 123 88 106 123 88 106 123 88 106 123
88 105 123 88 105 123 88 105 123 88 105 123 88 105 123 88 105 123 88
105 123 88 105 122 88 105 122 88 105 122 87 105 122 87 105 122 87 105
122 87 105 122 87 105 122 87 105 122 87 104 122 87 104 122 87 104 122
87 104 122 87 104 122 87 104 121 87 104 121 87 104 121 87 104 121 87
104 121 87 104 121 87 104 121 87 104 121 86 104 121 86 104 121 86 104
121 86 104 121 86 103 121 86 103 121 86 103 120 86 103 120 86 103 120
86 103 120 86 103 120 86 103 120 86 103 120 86 103 120 86 103 120 86
103 120 86 103 120 86 103 120 86 103 120 86 103 120 85 102 119 85 102
119 85 102 119 85 102 119 85 102 119 85 102 119 85 102 119 85 102 119
85 102 119 85 102 119 85 102 119 85 102 119 85 102 119 85 102 119 85
102 118 85 102 118 85 101 118 85 101 118 85 101 118 84 101 118 84 101
118 84 101 118 84 101 118 84 101 118 84 101 118 84 101 118 84 101 118
84 101 117 84 101 117 84 101 117 84 101 117 84 101 117 84 100 117 84
100 117 84 100 117 84 100 117 84 100 117 84 100 117 83 100 117 83 100
117 83 100 117 83 100 116 83 100 116 83 100 116 83 100 116 83 100 116
83 100 116 83 100 116 83 99 116 83 99 116 83 99 116 83 99 116 83 99
116 83 99 116 83 99 116 83 99 115 83 99 115 83 99 115 82 99 115 82 99
115 82 99 115 82 99 115 82 99 115 82 99 115 82 98 115 82 98 115 82 98
115 82 98 115 82 98 115 82 98 114 82 98 114 82 98 114 82 98 114 82 98
114 82 98 114 82 98 114 82 98 114 81 98 114 81 98 114 81 98 114 81 97
114 81 97 114 81 97 113 81 97 113 81 97 113 81 97 113 81 97 113 81 97
113 81 97 113 81 97 113 81 97 113 81 97 113 81 97 113 81 97 113 81 97
113 81 97 113 80 96 112 80 96 112 80 96 112 80 96 112 80 96 112 80 96
112 80 96 112 80 96 112 80 96 112 80 96 112 80 96 112 80 96 112 80 96
112 80 96 112 80 96 111 80 96 111 80 96 111 80 95 111 80 95 111 80 95
111 79 95 111 79 95 111 79 95 111 79 95 111 79 95 111 79 95 111 79 95
111 79 95 111 79 95 110 79 95 110 79 95 110 79 95 110 79 95 110 79 94
110 79 94 110 79 94 110 79 94 110 79 94 110 79 94 110 79 94 110 78 94
110 78 94 110 78 94 109 78 94 109 78 94 109 78 94 109 78 94 109 78 94
109 78 94 109 78 93 109 78 93 109 78 93 109 78 93 109 78 93 109 78 93
109 78 93 109 78 93 109 78 93 108 78 93 108 77 93 108 77 93 108 77 93
108 77 93 108 77 93 108 77 93 108 77 93 108 77 92 108 77 92 108 77 92
108 77 92 108 77 92 108 77 92 107 77 92 107 77 92 107 77 92 107 77 92
107 77 92 107 77 92 107 77 92 107 77 92 107 76 92 107 76 92 107 76 92
107 76 91 107 76 91 107 76 91 106 76 91 106 76 91 106 76 91 106 76 91
106 76 91 106 76 91 106 76 91 106 76 91 106 76 91 106 76 91 106 76 91
106 76 91 106 76 91 106 76 91 106 75 90 105 75 90 105 75 90 105 75 90
105 75 90 105 75 90 105 75 90 105 75 90 105 75 90 105 75 90 105 75 90
105 75 90 105 75 90 105 75 90 105 75 90 105 75 90 104 75 90 104
90 108 126 90 108 126 90 108 126 90 108 125 90 108 125 90 107 125 90
107 125 90 107 125 90 107 125 89 107 125 89 107 125 89 107 125 89 107
125 89 107 125 89 107 125 89 107 125 89 107 125 89 107 124 89 107 124
89 107 124 89 107 124 89 107 124 89 106 124 89 106 124 89 106 124 89
106 124 89 106 124 89 106 124 89 106 124 88 106 124 88 106 124 88 106
124 88 106 123 88 106 123 88 106 123 88 106 123 88 106 123 88 106 123
88 106 123 88 105 123 88 105 123 88 105 123 88 105 123 88 105 123 88
105 123 88 105 123 88 105 122 88 105 122 88 105 122 87 105 122 87 105
122 87 105 122 87 105 122 87 105 122 87 105 122 87 104 122 87 104 122
87 104 122 87 104 122 87 104 122 87 104 121 87 104 121 87 104 121 87
104 121 87 104 121 87 104 121 87 104 121 87 104 121 86 104 121 86 104
121 86 104 121 86 103 121 86 103 121 86 103 121 86 103 120 86 103 120
86 103 120 86 103 120 86 103 120 86 103 120 86 103 120 86 103 120 86
103 120 86 103 120 86 103 120 86 103 120 86 103 120 86 103 120 85 102
119 85 102 119 85 102 119 85 102 119 85 102 119 85 102 119 85 102 119
85 102 119 85 102 119 85 102 119 85 102 119 85 102 119 85 102 119 85
102 119 85 102 118 85 102 118 85 101 118 85 101 118 85 101 118 84 101
118 84 101 118 84 101 118 84 101 118 84 101 118 84 101 118 84 101 118
84 101 118 84 101 117 84 101 117 84 101 117 84 101 117 84 101 117 84
100 117 84 100 117 84 100 117 84 100 117 84 100 117 84 100 117 83 100
117 83 100 117 83 100 117 83 100 116 83 100 116 83 100 116 83 100 116
83 100 116 83 100 116 83 100 116 83 99 116 83 99 116 83 99 116 83 99
116 83 99 116 83 99 116 83 99 116 83 99 115 83 99 115 83 99 115 82 99
115 82 99 115 82 99 115 82 99 115 82 99 115 82 99 115 82 98 115 82 98
115 82 98 115 82 98 115 82 98 115 82 98 114 82 98 114 82 98 114 82 98
114 82 98 114 82 98 114 82 98 114 82 98 114 81 98 114 81 98 114 81 98
114 81 98 114 81 97 114 81 97 114 81 97 113 81 97 113 81 97 113 81 97
113 81 97 113 81 97 113 81 97 113 81 97 113 81 97 113 81 97 113 81 97
113 81 97 113 81 97 113 81 97 113 80 96 112 80 96 112 80 96 112 80 96
112 80 96 112 80 96 112 80 96 112 80 96 112 80 96 112 80 96 112 80 96
112 80 96 112 80 96 112 80 96 112 80 96 111 80 96 111 80 95 111 80 95
111 80 95 111 80 95 111 79 95 111 79 95 111 79 95 111 79 95 111 79 95
111 79 95 111 79 95 111 79 95 111 79 95 110 79 95 110 79 95 110 79 95
110 79 95 110 79 94 110 79 94 110 79 94 110 79 94 110 79 94 110 79 94
110 78 94 110 78 94 110 78 94 110 78 94 109 78 94 109 78 94 109 78 94
109 78 94 109 78 94 109 78 94 109 78 93 109 78 93 109 78 93 109 78 93
109 78 93 109 78 93 109 78 93 109 78 93 109 78 93 108 78 93 108 77 93
108 77 93 108 77 93 108 77 93 108 77 93 108 77 93 108 77 93 108 77 92
108 77 92 108 77 92 108 77 92 108 77 92 108 77 92 107 77 92 107 77 92
107 77 92 107 77 92 107 77 92 107 77 92 107 77 92 107 77 92 107 76 92
107 76 92 107 76 92 107 76 91 107 76 91 107 76 91 107 76 91 106 76 91
106 76 91 106 76 91 106 76 91 106 76 91 106 76 91 106 76 91 106 76 91
106 76 91 106 76 91 106 76 91 106 76 91 106 76 91 106 75 90 105 75 90
105 75 90 105 75 90 105 75 90 105 75 90 105 75 90 105 75 90 105 75 90
105 75 90 105 75 90 105 75 90 105 75 90 105 75 90 105 75 90 105
90 108 126 90 108 126 90 108 126 90 108 125 90 108 125 90 108 125 90
107 125 90 107 125 90 107 125 89 107 125 89 107 125 89 107 125 89 107
125 89 107 125 89 107 125 89 107 125 89 107 125 89 107 125 89 107 124
89 107 124 89 107 124 89 107 124 89 106 124 89 106 124 89 106 124 89
106 124 89 106 124 89 106 124 89 106 124 88 106 124 88 106 124 88 106
124 88 106 123 88 106 123 88 106 123 88 106 123 88 106 123 88 106 123
88 106 123 88 105 123 88 105 123 88 105 123 88 105 123 88 105 123 88
105 123 88 105 123 88 105 122 88 105 122 88 105 122 87 105 122 87 105
122 87 105 122 87 105 122 87 105 122 87 105 122 87 105 122 87 104 122
87 104 122 87 104 122 87 104 122 87 104 121 87 104 121 87 104 121 87
104 121 87 104 121 87 104 121 87 104 121 87 104 121 87 104 121 86 104
121 86 104 121 86 104 121 86 103 121 86 103 121 86 103 121 86 103 120
86 103 120 86 103 120 86 103 120 86 103 120 86 103 120 86 103 120 86
103 120 86 103 120 86 103 120 86 103 120 86 103 120 86 103 120 86 103
120 85 102 119 85 102 119 85 102 119 85 102 119 85 102 119 85 102 119
85 102 119 85 102 119 85 102 119 85 102 119 85 102 119 85 102 119 85
102 119 85 102 118 85 102 118 85 102 118 85 101 118 85 101 118 85 101
118 84 101 118 84 101 118 84 101 118 84 101 118 84 101 118 84 101 118
84 101 118 84 101 118 84 101 117 84 101 117 84 101 117 84 101 117 84
101 117 84 100 117 84 100 117 84 100 117 84 100 117 84 100 117 84 100
117 84 100 117 83 100 117 83 100 117 83 100 116 83 100 116 83 100 116
83 100 116 83 100 116 83 100 116 83 100 116 83 99 116 83 99 116 83 99
116 83 99 116 83 99 116 83 99 116 83 99 116 83 99 115 83 99 115 83 99
115 82 99 115 82 99 115 82 99 115 82 99 115 82 99 115 82 99 115 82 99
115 82 98 115 82 98 115 82 98 115 82 98 115 82 98 114 82 98 114 82 98
114 82 98 114 82 98 114 82 98 114 82 98 114 82 98 114 82 98 114 81 98
114 81 98 114 81 98 114 81 97 114 81 97 114 81 97 113 81 97 113 81 97
113 81 97 113 81 97 113 81 97 113 81 97 113 81 97 113 81 97 113 81 97
113 81 97 113 81 97 113 81 97 113 81 97 113 80 96 112 80 96 112 80 96
112 80 96 112 80 96 112 80 96 112 80 96 112 80 96 112 80 96 112 80 96
112 80 96 112 80 96 112 80 96 112 80 96 112 80 96 111 80 96 111 80 96
111 80 95 111 80 95 111 80 95 111 79 95 111 79 95 111 79 95 111 79 95
111 79 95 111 79 95 111 79 95 111 79 95 111 79 95 111 79 95 110 79 95
110 79 95 110 79 95 110 79 94 110 79 94 110 79 94 110 79 94 110 79 94
110 79 94 110 79 94 110 78 94 110 78 94 110 78 94 110 78 94 109 78 94
109 78 94 109 78 94 109 78 94 109 78 94 109 78 94 109 78 93 109 78 93
109 78 93 109 78 93 109 78 93 109 78 93 109 78 93 109 78 93 108 78 93
108 78 93 108 77 93 108 77 93 108 77 93 108 77 93 108 77 93 108 77 93
108 77 93 108 77 92 108 77 92 108 77 92 108 77 92 108 77 92 108 77 92
107 77 92 107 77 92 107 77 92 107 77 92 107 77 92 107 77 92 107 77 92
107 77 92 107 76 92 107 76 92 107 76 92 107 76 91 107 76 91 107 76 91
107 76 91 106 76 91 106 76 91 106 76 91 106 76 91 106 76 91 106 76 91
106 76 91 106 76 91 106 76 91 106 76 91 106 76 91 106 76 91 106 76 91
106 76 91 106 75 90 105 75 90 105 75 90 105 75 90 105 75 90 105 75 90
105 75 90 105 75 90 105 75 90 105 75 90 105 75 90 105 75 90 105
90 108 126 90 108 126 90 108 126 90 108 125 90 108 125 90 108 125 90
107 125 90 107 125 90 107 125 89 107 125 89 107 125 89 107 125 89 107
125 89 107 125 89 107 125 89 107 125 89 107 125 89 107 125 89 107 124
89 107 124 89 107 124 89 107 124 89 107 124 89 106 124 89 106 124 89
106 124 89 106 124 89 106 124 89 106 124 89 106 124 88 106 124 88 106
124 88 106 124 88 106 123 88 106 123 88 106 123 88 106 123 88 106 123
88 106 123 88 106 123 88 105 123 88 105 123 88 105 123 88 105 123 88
105 123 88 105 123 88 105 123 88 105 122 88 105 122 88 105 122 87 105
122 87 105 122 87 105 122 87 105 122 87 105 122 87 105 122 87 104 122
87 104 122 87 104 122 87 104 122 87 104 122 87 104 121 87 104 121 87
104 121 87 104 121 87 104 121 87 104 121 87 104 121 87 104 121 87 104
121 86 104 121 86 104 121 86 104 121 86 103 121 86 103 121 86 103 120
86 103 120 86 103 120 86 103 120 86 103 120 86 103 120 86 103 120 86
103 120 86 103 120 86 103 120 86 103 120 86 103 120 86 103 120 86 103
120 85 102 119 85 102 119 85 102 119 85 102 119 85 102 119 85 102 119
85 102 119 85 102 119 85 102 119 85 102 119 85 102 119 85 102 119 85
102 119 85 102 119 85 102 118 85 102 118 85 102 118 85 101 118 85 101
118 85 101 118 84 101 118 84 101 118 84 101 118 84 101 118 84 101 118
84 101 118 84 101 118 84 101 118 84 101 117 84 101 117 84 101 117 84
101 117 84 101 117 84 100 117 84 100 117 84 100 117 84 100 117 84 100
117 84 100 117 84 100 117 83 100 117 83 100 117 83 100 116 83 100 116
83 100 116 83 100 116 83 100 116 83 100 116 83 100 116 83 99 116 83 99
116 83 99 116 83 99 116 83 99 116 83 99 116 83 99 116 83 99 115 83 99
115 83 99 115 82 99 115 82 99 115 82 99 115 82 99 115 82 99 115 82 99
115 82 99 115 82 98 115 82 98 115 82 98 115 82 98 115 82 98 115 82 98
114 82 98 114 82 98 114 82 98 114 82 98 114 82 98 114 82 98 114 82 98
114 81 98 114 81 98 114 81 98 114 81 97 114 81 97 114 81 97 114 81 97
113 81 97 113 81 97 113 81 97 113 81 97 113 81 97 113 81 97 113 81 97
113 81 97 113 81 97 113 81 97 113 81 97 113 81 97 113 81 97 113 80 96
112 80 96 112 80 96 112 80 96 112 80 96 112 80 96 112 80 96 112 80 96
112 80 96 112 80 96 112 80 96 112 80 96 112 80 96 112 80 96 112 80 96
111 80 96 111 80 95 111 80 95 111 80 95 111 80 95 111 79 95 111 79 95
111 79 95 111 79 95 111 79 95 111 79 95 111 79 95 111 79 95 111 79 95
110 79 95 110 79 95 110 79 95 110 79 95 110 79 94 110 79 94 110 79 94
110 79 94 110 79 94 110 79 94 110 79 94 110 78 94 110 78 94 110 78 94
110 78 94 109 78 94 109 78 94 109 78 94 109 78 94 109 78 94 109 78 94
109 78 93 109 78 93 109 78 93 109 78 93 109 78 93 109 78 93 109 78 93
109 78 93 108 78 93 108 78 93 108 77 93 108 77 93 108 77 93 108 77 93
108 77 93 108 77 93 108 77 93 108 77 92 108 77 92 108 77 92 108 77 92
108 77 92 108 77 92 107 77 92 107 77 92 107 77 92 107 77 92 107 77 92
107 77 92 107 77 92 107 77 92 107 76 92 107 76 92 107 76 92 107 76 91
107 76 91 107 76 91 107 76 91 106 76 91 106 76 91 106 76 91 106 76 91
106 76 91 106 76 91 106 76 91 106 76 91 106 76 91 106 76 91 106 76 91
106 76 91 106 76 91 106 76 91 106 75 90 105 75 90 105 75 90 105 75 90
105 75 90 105 75 90 105 75 90 105 75 90 105 75 90 105 75 90 105
90 108 126 90 108 126 90 108 126 90 108 126 90 108 125 90 108 125 90
107 125 90 107 125 90 107 125 90 107 125 89 107 125 89 107 125 89 107
125 89 107 125 89 107 125 89 107 125 89 107 125 89 107 125 89 107 125
89 107 124 89 107 124 89 107 124 89 107 124 89 106 124 89 106 124 89
106 124 89 106 124 89 106 124 89 106 124 89 106 124 88 106 124 88 106
124 88 106 124 88 106 123 88 106 123 88 106 123 88 106 123 88 106 123
88 106 123 88 106 123 88 105 123 88 105 123 88 105 123 88 105 123 88
105 123 88 105 123 88 105 123 88 105 122 88 105 122 88 105 122 87 105
122 87 105 122 87 105 122 87 105 122 87 105 122 87 105 122 87 105 122
87 104 122 87 104 122 87 104 122 87 104 122 87 104 122 87 104 121 87
104 121 87 104 121 87 104 121 87 104 121 87 104 121 87 104 121 87 104
121 86 104 121 86 104 121 86 104 121 86 104 121 86 103 121 86 103 121
86 103 120 86 103 120 86 103 120 86 103 120 86 103 120 86 103 120 86
103 120 86 103 120 86 103 120 86 103 120 86 103 120 86 103 120 86 103
120 86 103 120 85 102 119 85 102 119 85 102 119 85 102 119 85 102 119
85 102 119 85 102 119 85 102 119 85 102 119 85 102 119 85 102 119 85
102 119 85 102 119 85 102 119 85 102 118 85 102 118 85 102 118 85 101
118 85 101 118 85 101 118 84 101 118 84 101 118 84 101 118 84 101 118
84 101 118 84 101 118 84 101 118 84 101 118 84 101 117 84 101 117 84
101 117 84 101 117 84 101 117 84 100 117 84 100 117 84 100 117 84 100
117 84 100 117 84 100 117 84 100 117 83 100 117 83 100 117 83 100 116
83 100 116 83 100 116 83 100 116 83 100 116 83 100 116 83 100 116 83
100 116 83 99 116 83 99 116 83 99 116 83 99 116 83 99 116 83 99 116 83
99 116 83 99 115 83 99 115 82 99 115 82 99 115 82 99 115 82 99 115 82
99 115 82 99 115 82 99 115 82 98 115 82 98 115 82 98 115 82 98 115 82
98 115 82 98 114 82 98 114 82 98 114 82 98 114 82 98 114 82 98 114 82
98 114 82 98 114 81 98 114 81 98 114 81 98 114 81 98 114 81 97 114 81
97 114 81 97 113 81 97 113 81 97 113 81 97 113 81 97 113 81 97 113 81
97 113 81 97 113 81 97 113 81 97 113 81 97 113 81 97 113 81 97 113 81
97 113 80 96 112 80 96 112 80 96 112 80 96 112 80 96 112 80 96 112 80
96 112 80 96 112 80 96 112 80 96 112 80 96 112 80 96 112 80 96 112 80
96 112 80 96 112 80 96 111 80 96 111 80 95 111 80 95 111 80 95 111 79
95 111 79 95 111 79 95 111 79 95 111 79 95 111 79 95 111 79 95 111 79
95 111 79 95 111 79 95 110 79 95 110 79 95 110 79 95 110 79 95 110 79
94 110 79 94 110 79 94 110 79 94 110 79 94 110 79 94 110 79 94 110 78
94 110 78 94 110 78 94 110 78 94 109 78 94 109 78 94 109 78 94 109 78
94 109 78 94 109 78 94 109 78 93 109 78 93 109 78 93 109 78 93 109 78
93 109 78 93 109 78 93 109 78 93 108 78 93 108 78 93 108 77 93 108 77
93 108 77 93 108 77 93 108 77 93 108 77 93 108 77 93 108 77 92 108 77
92 108 77 92 108 77 92 108 77 92 108 77 92 107 77 92 107 77 92 107 77
92 107 77 92 107 77 92 107 77 92 107 77 92 107 77 92 107 76 92 107 76
92 107 76 92 107 76 91 107 76 91 107 76 91 107 76 91 106 76 91 106 76
91 106 76 91 106 76 91 106 76 91 106 76 91 106 76 91 106 76 91 106 76
91 106 76 91 106 76 91 106 76 91 106 76 91 106 76 91 106 75 90 105 75
90 105 75 90 105 75 90 105 75 90 105 75 90 105 75 90 105 75 90 105
90 108 126 90 108 126 90 108 126 90 108 126 90 108 125 90 108 125 90
108 125 90 107 125 90 107 125 90 107 125 89 107 125 89 107 125 89 107
125 89 107 125 89 107 125 89 107 125 89 107 125 89 107 125 89 107 125
89 107 124 89 107 124 89 107 124 89 107 124 89 107 124 89 106 124 89
106 124 89 106 124 89 106 124 89 106 124 89 106 124 89 106 124 88 106
124 88 106 124 88 106 124 88 106 123 88 106 123 88 106 123 88 106 123
88 106 123 88 106 123 88 106 123 88 105 123 88 105 123 88 105 123 88
105 123 88 105 123 88 105 123 88 105 123 88 105 122 88 105 122 88 105
122 87 105 122 87 105 122 87 105 122 87 105 122 87 105 122 87 105 122
87 105 122 87 104 122 87 104 122 87 104 122 87 104 122 87 104 121 87
104 121 87 104 121 87 104 121 87 104 121 87 104 121 87 104 121 87 104
121 87 104 121 86 104 121 86 104 121 86 104 121 86 103 121 86 103 121
86 103 121 86 103 120 86 103 120 86 103 120 86 103 120 86 103 120 86
103 120 86 103 120 86 103 120 86 103 120 86 103 120 86 103 120 86 103
120 86 103 120 86 103 120 85 102 119 85 102 119 85 102 119 85 102 119
85 102 119 85 102 119 85 102 119 85 102 119 85 102 119 85 102 119 85
102 119 85 102 119 85 102 119 85 102 119 85 102 118 85 102 118 85 102
118 85 101 118 85 101 118 85 101 118 84 101 118 84 101 118 84 101 118
84 101 118 84 101 118 84 101 118 84 101 118 84 101 118 84 101 117 84
101 117 84 101 117 84 101 117 84 101 117 84 100 117 84 100 117 84 100
117 84 100 117 84 100 117 84 100 117 84 100 117 83 100 117 83 100 117
83 100 117 83 100 116 83 100 116 83 100 116 83 100 116 83 100 116 83
100 116 83 100 116 83 99 116 83 99 116 83 99 116 83 99 116 83 99 116
83 99 116 83 99 116 83 99 115 83 99 115 83 99 115 82 99 115 82 99 115
82 99 115 82 99 115 82 99 115 82 99 115 82 98 115 82 98 115 82 98 115
82 98 115 82 98 115 82 98 114 82 98 114 82 98 114 82 98 114 82 98 114
82 98 114 82 98 114 82 98 114 82 98 114 81 98 114 81 98 114 81 98 114
81 97 114 81 97 114 81 97 113 81 97 113 81 97 113 81 97 113 81 97 113
81 97 113 81 97 113 81 97 113 81 97 113 81 97 113 81 97 113 81 97 113
81 97 113 81 97 113 81 97 113 80 96 112 80 96 112 80 96 112 80 96 112
80 96 112 80 96 112 80 96 112 80 96 112 80 96 112 80 96 112 80 96 112
80 96 112 80 96 112 80 96 112 80 96 111 80 96 111 80 96 111 80 95 111
80 95 111 80 95 111 79 95 111 79 95 111 79 95 111 79 95 111 79 95 111
79 95 111 79 95 111 79 95 111 79 95 111 79 95 110 79 95 110 79 95 110
79 95 110 79 95 110 79 94 110 79 94 110 79 94 110 79 94 110 79 94 110
79 94 110 78 94 110 78 94 110 78 94 110 78 94 109 78 94 109 78 94 109
78 94 109 78 94 109 78 94 109 78 94 109 78 94 109 78 93 109 78 93 109
78 93 109 78 93 109 78 93 109 78 93 109 78 93 109 78 93 108 78 93 108
78 93 108 77 93 108 77 93 108 77 93 108 77 93 108 77 93 108 77 93 108
77 93 108 77 92 108 77 92 108 77 92 108 77 92 108 77 92 108 77 92 107
77 92 107 77 92 107 77 92 107 77 92 107 77 92 107 77 92 107 77 92 107
77 92 107 76 92 107 76 92 107 76 92 107 76 92 107 76 91 107 76 91 107
76 91 106 76 91 106 76 91 106 76 91 106 76 91 106 76 91 106 76 91 106
76 91 106 76 91 106 76 91 106 76 91 106 76 91 106 76 91 106 76 91 106
76 91 106 75 90 105 75 90 105 75 90 105 75 90 105 75 90 105 75 90 105
90 108 126 90 108 126 90 108 126 90 108 126 90 108 125 90 108 125 90
108 125 90 107 125 90 107 125 90 107 125 89 107 125 89 107 125 89 107
125 89 107 125 89 107 125 89 107 125 89 107 125 89 107 125 89 107 125
89 107 124 89 107 124 89 107 124 89 107 124 89 107 124 89 106 124 89
106 124 89 106 124 89 106 124 89 106 124 89 106 124 89 106 124 88 106
124 88 106 124 88 106 124 88 106 123 88 106 123 88 106 123 88 106 123
88 106 123 88 106 123 88 106 123 88 105 123 88 105 123 88 105 123 88
105 123 88 105 123 88 105 123 88 105 123 88 105 123 88 105 122 88 105
122 87 105 122 87 105 122 87 105 122 87 105 122 87 105 122 87 105 122
87 105 122 87 104 122 87 104 122 87 104 122 87 104 122 87 104 122 87
104 121 87 104 121 87 104 121 87 104 121 87 104 121 87 104 121 87 104
121 87 104 121 87 104 121 86 104 121 86 104 121 86 104 121 86 103 121
86 103 121 86 103 120 86 103 120 86 103 120 86 103 120 86 103 120 86
103 120 86 103 120 86 103 120 86 103 120 86 103 120 86 103 120 86 103
120 86 103 120 86 103 120 86 103 120 85 102 119 85 102 119 85 102 119
85 102 119 85 102 119 85 102 119 85 102 119 85 102 119 85 102 119 85
102 119 85 102 119 85 102 119 85 102 119 85 102 119 85 102 118 85 102
118 85 101 118 85 101 118 85 101 118 85 101 118 84 101 118 84 101 118
84 101 118 84 101 118 84 101 118 84 101 118 84 101 118 84 101 118 84
101 117 84 101 117 84 101 117 84 101 117 84 101 117 84 100 117 84 100
117 84 100 117 84 100 117 84 100 117 84 100 117 84 100 117 83 100 117
83 100 117 83 100 117 83 100 116 83 100 116 83 100 116 83 100 116 83
100 116 83 100 116 83 100 116 83 99 116 83 99 116 83 99 116 83 99 116
83 99 116 83 99 116 83 99 116 83 99 115 83 99 115 83 99 115 82 99 115
82 99 115 82 99 115 82 99 115 82 99 115 82 99 115 82 99 115 82 98 115
82 98 115 82 98 115 82 98 115 82 98 114 82 98 114 82 98 114 82 98 114
82 98 114 82 98 114 82 98 114 82 98 114 82 98 114 81 98 114 81 98 114
81 98 114 81 97 114 81 97 114 81 97 114 81 97 113 81 97 113 81 97 113
81 97 113 81 97 113 81 97 113 81 97 113 81 97 113 81 97 113 81 97 113
81 97 113 81 97 113 81 97 113 81 97 113 80 96 112 80 96 112 80 96 112
80 96 112 80 96 112 80 96 112 80 96 112 80 96 112 80 96 112 80 96 112
80 96 112 80 96 112 80 96 112 80 96 112 80 96 112 80 96 111 80 96 111
80 95 111 80 95 111 80 95 111 80 95 111 79 95 111 79 95 111 79 95 111
79 95 111 79 95 111 79 95 111 79 95 111 79 95 111 79 95 110 79 95 110
79 95 110 79 95 110 79 95 110 79 94 110 79 94 110 79 94 110 79 94 110
79 94 110 79 94 110 79 94 110 78 94 110 78 94 110 78 94 110 78 94 109
78 94 109 78 94 109 78 94 109 78 94 109 78 94 109 78 94 109 78 94 109
78 93 109 78 93 109 78 93 109 78 93 109 78 93 109 78 93 109 78 93 109
78 93 108 78 93 108 78 93 108 77 93 108 77 93 108 77 93 108 77 93 108
77 93 108 77 93 108 77 93 108 77 92 108 77 92 108 77 92 108 77 92 108
77 92 108 77 92 107 77 92 107 77 92 107 77 92 107 77 92 107 77 92 107
77 92 107 77 92 107 77 92 107 76 92 107 76 92 107 76 92 107 76 92 107
76 91 107 76 91 107 76 91 106 76 91 106 76 91 106 76 91 106 76 91 106
76 91 106 76 91 106 76 91 106 76 91 106 76 91 106 76 91 106 76 91 106
76 91 106 76 91 106 76 91 106 75 90 105 75 90 105 75 90 105 75 90 105
90 108 126 90 108 126 90 108 126 90 108 126 90 108 126 90 108 125 90
108 125 90 107 125 90 107 125 90 107 125 90 107 125 89 107 125 89 107
125 89 107 125 89 107 125 89 107 125 89 107 125 89 107 125 89 107 125
89 107 125 89 107 124 89 107 124 89 107 124 89 107 124 89 107 124 89
106 124 89 106 124 89 106 124 89 106 124 89 106 124 89 106 124 89 106
124 88 106 124 88 106 124 88 106 123 88 106 123 88 106 123 88 106 123
88 106 123 88 106 123 88 106 123 88 106 123 88 105 123 88 105 123 88
105 123 88 105 123 88 105 123 88 105 123 88 105 123 88 105 122 88 105
122 88 105 122 87 105 122 87 105 122 87 105 122 87 105 122 87 105 122
87 105 122 87 105 122 87 104 122 87 104 122 87 104 122 87 104 122 87
104 122 87 104 121 87 104 121 87 104 121 87 104 121 87 104 121 87 104
121 87 104 121 87 104 121 86 104 121 86 104 121 86 104 121 86 104 121
86 103 121 86 103 121 86 103 120 86 103 120 86 103 120 86 103 120 86
103 120 86 103 120 86 103 120 86 103 120 86 103 120 86 103 120 86 103
120 86 103 120 86 103 120 86 103 120 86 103 120 85 102 119 85 102 119
85 102 119 85 102 119 85 102 119 85 102 119 85 102 119 85 102 119 85
102 119 85 102 119 85 102 119 85 102 119 85 102 119 85 102 119 85 102
118 85 102 118 85 101 118 85 101 118 85 101 118 85 101 118 84 101 118
84 101 118 84 101 118 84 101 118 84 101 118 84 101 118 84 101 118 84
101 118 84 101 117 84 101 117 84 101 117 84 101 117 84 101 117 84 100
117 84 100 117 84 100 117 84 100 117 84 100 117 84 100 117 84 100 117
83 100 117 83 100 117 83 100 117 83 100 116 83 100 116 83 100 116 83
100 116 83 100 116 83 100 116 83 100 116 83 99 116 83 99 116 83 99 116
83 99 116 83 99 116 83 99 116 83 99 116 83 99 115 83 99 115 83 99 115
82 99 115 82 99 115 82 99 115 82 99 115 82 99 115 82 99 115 82 99 115
82 98 115 82 98 115 82 98 115 82 98 115 82 98 115 82 98 114 82 98 114
82 98 114 82 98 114 82 98 114 82 98 114 82 98 114 82 98 114 81 98 114
81 98 114 81 98 114 81 98 114 81 97 114 81 97 114 81 97 113 81 97 113
81 97 113 81 97 113 81 97 113 81 97 113 81 97 113 81 97 113 81 97 113
81 97 113 81 97 113 81 97 113 81 97 113 81 97 113 81 97 113 80 96 112
80 96 112 80 96 112 80 96 112 80 96 112 80 96 112 80 96 112 80 96 112
80 96 112 80 96 112 80 96 112 80 96 112 80 96 112 80 96 112 80 96 111
80 96 111 80 96 111 80 95 111 80 95 111 80 95 111 79 95 111 79 95 111
79 95 111 79 95 111 79 95 111 79 95 111 79 95 111 79 95 111 79 95 111
79 95 110 79 95 110 79 95 110 79 95 110 79 95 110 79 94 110 79 94 110
79 94 110 79 94 110 79 94 110 79 94 110 79 94 110 78 94 110 78 94 110
78 94 110 78 94 109 78 94 109 78 94 109 78 94 109 78 94 109 78 94 109
78 94 109 78 93 109 78 93 109 78 93 109 78 93 109 78 93 109 78 93 109
78 93 109 78 93 109 78 93 108 78 93 108 78 93 108 77 93 108 77 93 108
77 93 108 77 93 108 77 93 108 77 93 108 77 93 108 77 92 108 77 92 108
77 92 108 77 92 108 77 92 108 77 92 107 77 92 107 77 92 107 77 92 107
77 92 107 77 92 107 77 92 107 77 92 107 77 92 107 76 92 107 76 92 107
76 92 107 76 92 107 76 91 107 76 91 107 76 91 106 76 91 106 76 91 106
76 91 106 76 91 106 76 91 106 76 91 106 76 91 106 76 91 106 76 91 106
76 91 106 76 91 106 76 91 106 76 91 106 76 91 106 76 91 106 75 90 105
90 108 126 90 108 126 90 108 126 90 108 126 90 108 126 90 108 125 90
108 125 90 108 125 90 107 125 90 107 125 90 107 125 89 107 125 89 107
125 89 107 125 89 107 125 89 107 125 89 107 125 89 107 125 89 107 125
89 107 125 89 107 124 89 107 124 89 107 124 89 107 124 89 107 124 89
106 124 89 106 124 89 106 124 89 106 124 89 106 124 89 106 124 89 106
124 88 106 124 88 106 124 88 106 124 88 106 123 88 106 123 88 106 123
88 106 123 88 106 123 88 106 123 88 106 123 88 105 123 88 105 123 88
105 123 88 105 123 88 105 123 88 105 123 88 105 123 88 105 123 88 105
122 88 105 122 88 105 122 87 105 122 87 105 122 87 105 122 87 105 122
87 105 122 87 105 122 87 104 122 87 104 122 87 104 122 87 104 122 87
104 122 87 104 121 87 104 121 87 104 121 87 104 121 87 104 121 87 104
121 87 104 121 87 104 121 87 104 121 86 104 121 86 104 121 86 104 121
86 103 121 86 103 121 86 103 121 86 103 120 86 103 120 86 103 120 86
103 120 86 103 120 86 103 120 86 103 120 86 103 120 86 103 120 86 103
120 86 103 120 86 103 120 86 103 120 86 103 120 85 102 119 85 102 119
85 102 119 85 102 119 85 102 119 85 102 119 85 102 119 85 102 119 85
102 119 85 102 119 85 102 119 85 102 119 85 102 119 85 102 119 85 102
119 85 102 118 85 102 118 85 101 118 85 101 118 85 101 118 85 101 118
84 101 118 84 101 118 84 101 118 84 101 118 84 101 118 84 101 118 84
101 118 84 101 118 84 101 117 84 101 117 84 101 117 84 101 117 84 101
117 84 100 117 84 100 117 84 100 117 84 100 117 84 100 117 84 100 117
84 100 117 83 100 117 83 100 117 83 100 117 83 100 116 83 100 116 83
100 116 83 100 116 83 100 116 83 100 116 83 100 116 83 99 116 83 99
116 83 99 116 83 99 116 83 99 116 83 99 116 83 99 116 83 99 115 83 99
115 83 99 115 82 99 115 82 99 115 82 99 115 82 99 115 82 99 115 82 99
115 82 99 115 82 98 115 82 98 115 82 98 115 82 98 115 82 98 115 82 98
114 82 98 114 82 98 114 82 98 114 82 98 114 82 98 114 82 98 114 82 98
114 82 98 114 81 98 114 81 98 114 81 98 114 81 97 114 81 97 114 81 97
113 81 97 113 81 97 113 81 97 113 81 97 113 81 97 113 81 97 113 81 97
113 81 97 113 81 97 113 81 97 113 81 97 113 81 97 113 81 97 113 81 97
113 80 96 112 80 96 112 80 96 112 80 96 112 80 96 112 80 96 112 80 96
112 80 96 112 80 96 112 80 96 112 80 96 112 80 96 112 80 96 112 80 96
112 80 96 112 80 96 111 80 96 111 80 95 111 80 95 111 80 95 111 80 95
111 79 95 111 79 95 111 79 95 111 79 95 111 79 95 111 79 95 111 79 95
111 79 95 111 79 95 111 79 95 110 79 95 110 79 95 110 79 95 110 79 95
110 79 94 110 79 94 110 79 94 110 79 94 110 79 94 110 79 94 110 79 94
110 78 94 110 78 94 110 78 94 110 78 94 109 78 94 109 78 94 109 78 94
109 78 94 109 78 94 109 78 94 109 78 93 109 78 93 109 78 93 109 78 93
109 78 93 109 78 93 109 78 93 109 78 93 109 78 93 108 78 93 108 78 93
108 77 93 108 77 93 108 77 93 108 77 93 108 77 93 108 77 93 108 77 93
108 77 92 108 77 92 108 77 92 108 77 92 108 77 92 108 77 92 107 77 92
107 77 92 107 77 92 107 77 92 107 77 92 107 77 92 107 77 92 107 77 92
107 76 92 107 76 92 107 76 92 107 76 92 107 76 91 107 76 91 107 76 91
106 76 91 106 76 91 106 76 91 106 76 91 106 76 91 106 76 91 106 76 91
106 76 91 106 76 91 106 76 91 106 76 91 106 76 91 106 76 91 106 76 91
106
90 108 126 90 108 126 90 108 126 90 108 126 90 108 126 90 108 125 90
108 125 90 108 125 90 107 125 90 107 125 90 107 125 89 107 125 89 107
125 89 107 125 89 107 125 89 107 125 89 107 125 89 107 125 89 107 125
89 107 125 89 107 124 89 107 124 89 107 124 89 107 124 89 107 124 89
106 124 89 106 124 89 106 124 89 106 124 89 106 124 89 106 124 89 106
124 88 106 124 88 106 124 88 106 124 88 106 123 88 106 123 88 106 123
88 106 123 88 106 123 88 106 123 88 106 123 88 106 123 88 105 123 88
105 123 88 105 123 88 105 123 88 105 123 88 105 123 88 105 123 88 105
122 88 105 122 88 105 122 87 105 122 87 105 122 87 105 122 87 105 122
87 105 122 87 105 122 87 105 122 87 104 122 87 104 122 87 104 122 87
104 122 87 104 122 87 104 121 87 104 121 87 104 121 87 104 121 87 104
121 87 104 121 87 104 121 87 104 121 87 104 121 86 104 121 86 104 121
86 104 121 86 103 121 86 103 121 86 103 120 86 103 120 86 103 120 86
103 120 86 103 120 86 103 120 86 103 120 86 103 120 86 103 120 86 103
120 86 103 120 86 103 120 86 103 120 86 103 120 86 103 120 85 102 119
85 102 119 85 102 119 85 102 119 85 102 119 85 102 119 85 102 119 85
102 119 85 102 119 85 102 119 85 102 119 85 102 119 85 102 119 85 102
119 85 102 119 85 102 118 85 102 118 85 101 118 85 101 118 85 101 118
84 101 118 84 101 118 84 101 118 84 101 118 84 101 118 84 101 118 84
101 118 84 101 118 84 101 118 84 101 117 84 101 117 84 101 117 84 101
117 84 101 117 84 100 117 84 100 117 84 100 117 84 100 117 84 100 117
84 100 117 84 100 117 83 100 117 83 100 117 83 100 117 83 100 116 83
100 116 83 100 116 83 100 116 83 100 116 83 100 116 83 100 116 83 99
116 83 99 116 83 99 116 83 99 116 83 99 116 83 99 116 83 99 116 83 99
115 83 99 115 83 99 115 82 99 115 82 99 115 82 99 115 82 99 115 82 99
115 82 99 115 82 99 115 82 98 115 82 98 115 82 98 115 82 98 115 82 98
115 82 98 114 82 98 114 82 98 114 82 98 114 82 98 114 82 98 114 82 98
114 82 98 114 82 98 114 81 98 114 81 98 114 81 98 114 81 97 114 81 97
114 81 97 114 81 97 113 81 97 113 81 97 113 81 97 113 81 97 113 81 97
113 81 97 113 81 97 113 81 97 113 81 97 113 81 97 113 81 97 113 81 97
113 81 97 113 81 97 113 80 96 112 80 96 112 80 96 112 80 96 112 80 96
112 80 96 112 80 96 112 80 96 112 80 96 112 80 96 112 80 96 112 80 96
112 80 96 112 80 96 112 80 96 111 80 96 111 80 96 111 80 95 111 80 95
111 80 95 111 79 95 111 79 95 111 79 95 111 79 95 111 79 95 111 79 95
111 79 95 111 79 95 111 79 95 111 79 95 110 79 95 110 79 95 110 79 95
110 79 95 110 79 94 110 79 94 110 79 94 110 79 94 110 79 94 110 79 94
110 79 94 110 78 94 110 78 94 110 78 94 110 78 94 109 78 94 109 78 94
109 78 94 109 78 94 109 78 94 109 78 94 109 78 94 109 78 93 109 78 93
109 78 93 109 78 93 109 78 93 109 78 93 109 78 93 109 78 93 109 78 93
108 78 93 108 78 93 108 77 93 108 77 93 108 77 93 108 77 93 108 77 93
108 77 93 108 77 93 108 77 92 108 77 92 108 77 92 108 77 92 108 77 92
108 77 92 107 77 92 107 77 92 107 77 92 107 77 92 107 77 92 107 77 92
107 77 92 107 77 92 107 76 92 107 76 92 107 76 92 107 76 92 107 76 91
107 76 91 107 76 91 106 76 91 106 76 91 106 76 91 106 76 91 106 76 91
106 76 91 106 76 91 106 76 91 106 76 91 106 76 91 106 76 91 106 76 91
106
90 108 126 90 108 126 90 108 126 90 108 126 90 108 126 90 108 126 90
108 125 90 108 125 90 107 125 90 107 125 90 107 125 90 107 125 89 107
125 89 107 125 89 107 125 89 107 125 89 107 125 89 107 125 89 107 125
89 107 125 89 107 125 89 107 124 89 107 124 89 107 124 89 107 124 89
107 124 89 106 124 89 106 124 89 106 124 89 106 124 89 106 124 89 106
124 89 106 124 88 106 124 88 106 124 88 106 124 88 106 123 88 106 123
88 106 123 88 106 123 88 106 123 88 106 123 88 106 123 88 105 123 88
105 123 88 105 123 88 105 123 88 105 123 88 105 123 88 105 123 88 105
123 88 105 122 88 105 122 88 105 122 87 105 122 87 105 122 87 105 122
87 105 122 87 105 122 87 105 122 87 105 122 87 104 122 87 104 122 87
104 122 87 104 122 87 104 121 87 104 121 87 104 121 87 104 121 87 104
121 87 104 121 87 104 121 87 104 121 87 104 121 86 104 121 86 104 121
86 104 121 86 104 121 86 103 121 86 103 121 86 103 120 86 103 120 86
103 120 86 103 120 86 103 120 86 103 120 86 103 120 86 103 120 86 103
120 86 103 120 86 103 120 86 103 120 86 103 120 86 103 120 86 103 120
85 102 119 85 102 119 85 102 119 85 102 119 85 102 119 85 102 119 85
102 119 85 102 119 85 102 119 85 102 119 85 102 119 85 102 119 85 102
119 85 102 119 85 102 119 85 102 118 85 102 118 85 101 118 85 101 118
85 101 118 84 101 118 84 101 118 84 101 118 84 101 118 84 101 118 84
101 118 84 101 118 84 101 118 84 101 118 84 101 117 84 101 117 84 101
117 84 101 117 84 101 117 84 100 117 84 100 117 84 100 117 84 100 117
84 100 117 84 100 117 84 100 117 83 100 117 83 100 117 83 100 117 83
100 116 83 100 116 83 100 116 83 100 116 83 100 116 83 100 116 83 100
116 83 99 116 83 99 116 83 99 116 83 99 116 83 99 116 83 99 116 83 99
116 83 99 116 83 99 115 83 99 115 82 99 115 82 99 115 82 99 115 82 99
115 82 99 115 82 99 115 82 99 115 82 98 115 82 98 115 82 98 115 82 98
115 82 98 115 82 98 114 82 98 114 82 98 114 82 98 114 82 98 114 82 98
114 82 98 114 82 98 114 82 98 114 81 98 114 81 98 114 81 98 114 81 98
114 81 97 114 81 97 114 81 97 113 81 97 113 81 97 113 81 97 113 81 97
113 81 97 113 81 97 113 81 97 113 81 97 113 81 97 113 81 97 113 81 97
113 81 97 113 81 97 113 81 97 113 80 96 112 80 96 112 80 96 112 80 96
112 80 96 112 80 96 112 80 96 112 80 96 112 80 96 112 80 96 112 80 96
112 80 96 112 80 96 112 80 96 112 80 96 112 80 96 111 80 96 111 80 95
111 80 95 111 80 95 111 80 95 111 79 95 111 79 95 111 79 95 111 79 95
111 79 95 111 79 95 111 79 95 111 79 95 111 79 95 111 79 95 110 79 95
110 79 95 110 79 95 110 79 95 110 79 94 110 79 94 110 79 94 110 79 94
110 79 94 110 79 94 110 79 94 110 78 94 110 78 94 110 78 94 110 78 94
109 78 94 109 78 94 109 78 94 109 78 94 109 78 94 109 78 94 109 78 94
109 78 93 109 78 93 109 78 93 109 78 93 109 78 93 109 78 93 109 78 93
109 78 93 109 78 93 108 78 93 108 78 93 108 77 93 108 77 93 108 77 93
108 77 93 108 77 93 108 77 93 108 77 93 108 77 92 108 77 92 108 77 92
108 77 92 108 77 92 108 77 92 107 77 92 107 77 92 107 77 92 107 77 92
107 77 92 107 77 92 107 77 92 107 77 92 107 76 92 107 76 92 107 76 92
107 76 92 107 76 91 107 76 91 107 76 91 107 76 91 106 76 91 106 76 91
106 76 91 106 76 91 106 76 91 106 76 91 106 76 91 106 76 91 106 76 91
106
90 108 126 90 108 126 90 108 126 90 108 126 90 108 126 90 108 126 90
108 125 90 108 125 90 107 125 90 107 125 90 107 125 90 107 125 89 107
125 89 107 125 89 107 125 89 107 125 89 107 125 89 107 125 89 107 125
89 107 125 89 107 125 89 107 124 89 107 124 89 107 124 89 107 124 89
107 124 89 106 124 89 106 124 89 106 124 89 106 124 89 106 124 89 106
124 89 106 124 88 106 124 88 106 124 88 106 124 88 106 123 88 106 123
88 106 123 88 106 123 88 106 123 88 106 123 88 106 123 88 106 123 88
105 123 88 105 123 88 105 123 88 105 123 88 105 123 88 105 123 88 105
123 88 105 122 88 105 122 88 105 122 87 105 122 87 105 122 87 105 122
87 105 122 87 105 122 87 105 122 87 105 122 87 104 122 87 104 122 87
104 122 87 104 122 87 104 122 87 104 121 87 104 121 87 104 121 87 104
121 87 104 121 87 104 121 87 104 121 87 104 121 87 104 121 86 104 121
86 104 121 86 104 121 86 103 121 86 103 121 86 103 121 86 103 120 86
103 120 86 103 120 86 103 120 86 103 120 86 103 120 86 103 120 86 103
120 86 103 120 86 103 120 86 103 120 86 103 120 86 103 120 86 103 120
86 103 120 85 102 119 85 102 119 85 102 119 85 102 119 85 102 119 85
102 119 85 102 119 85 102 119 85 102 119 85 102 119 85 102 119 85 102
119 85 102 119 85 102 119 85 102 118 85 102 118 85 102 118 85 101 118
85 101 118 85 101 118 84 101 118 84 101 118 84 101 118 84 101 118 84
101 118 84 101 118 84 101 118 84 101 118 84 101 118 84 101 117 84 101
117 84 101 117 84 101 117 84 101 117 84 100 117 84 100 117 84 100 117
84 100 117 84 100 117 84 100 117 84 100 117 83 100 117 83 100 117 83
100 117 83 100 116 83 100 116 83 100 116 83 100 116 83 100 116 83 100
116 83 100 116 83 99 116 83 99 116 83 99 116 83 99 116 83 99 116 83 99
116 83 99 116 83 99 116 83 99 115 83 99 115 83 99 115 82 99 115 82 99
115 82 99 115 82 99 115 82 99 115 82 99 115 82 99 115 82 98 115 82 98
115 82 98 115 82 98 115 82 98 115 82 98 114 82 98 114 82 98 114 82 98
114 82 98 114 82 98 114 82 98 114 82 98 114 81 98 114 81 98 114 81 98
114 81 98 114 81 97 114 81 97 114 81 97 113 81 97 113 81 97 113 81 97
113 81 97 113 81 97 113 81 97 113 81 97 113 81 97 113 81 97 113 81 97
113 81 97 113 81 97 113 81 97 113 81 97 113 80 96 112 80 96 112 80 96
112 80 96 112 80 96 112 80 96 112 80 96 112 80 96 112 80 96 112 80 96
112 80 96 112 80 96 112 80 96 112 80 96 112 80 96 112 80 96 111 80 96
111 80 96 111 80 95 111 80 95 111 80 95 111 80 95 111 79 95 111 79 95
111 79 95 111 79 95 111 79 95 111 79 95 111 79 95 111 79 95 111 79 95
111 79 95 110 79 95 110 79 95 110 79 95 110 79 95 110 79 94 110 79 94
110 79 94 110 79 94 110 79 94 110 79 94 110 79 94 110 78 94 110 78 94
110 78 94 110 78 94 109 78 94 109 78 94 109 78 94 109 78 94 109 78 94
109 78 94 109 78 94 109 78 93 109 78 93 109 78 93 109 78 93 109 78 93
109 78 93 109 78 93 109 78 93 108 78 93 108 78 93 108 77 93 108 77 93
108 77 93 108 77 93 108 77 93 108 77 93 108 77 93 108 77 93 108 77 92
108 77 92 108 77 92 108 77 92 108 77 92 108 77 92 107 77 92 107 77 92
107 77 92 107 77 92 107 77 92 107 77 92 107 77 92 107 77 92 107 76 92
107 76 92 107 76 92 107 76 92 107 76 91 107 76 91 107 76 91 107 76 91
106 76 91 106 76 91 106 76 91 106 76 91 106 76 91 106 76 91 106 76 91
106
90 108 126 90 108 126 90 108 126 90 108 126 90 108 126 90 108 126 90
108 125 90 108 125 90 108 125 90 107 125 90 107 125 90 107 125 89 107
125 89 107 125 89 107 125 89 107 125 89 107 125 89 107 125 89 107 125
89 107 125 89 107 125 89 107 124 89 107 124 89 107 124 89 107 124 89
107 124 89 107 124 89 106 124 89 106 124 89 106 124 89 106 124 89 106
124 89 106 124 89 106 124 88 106 124 88 106 124 88 106 124 88 106 123
88 106 123 88 106 123 88 106 123 88 106 123 88 106 123 88 106 123 88
105 123 88 105 123 88 105 123 88 105 123 88 105 123 88 105 123 88 105
123 88 105 123 88 105 122 88 105 122 88 105 122 87 105 122 87 105 122
87 105 122 87 105 122 87 105 122 87 105 122 87 105 122 87 104 122 87
104 122 87 104 122 87 104 122 87 104 122 87 104 121 87 104 121 87 104
121 87 104 121 87 104 121 87 104 121 87 104 121 87 104 121 87 104 121
86 104 121 86 104 121 86 104 121 86 103 121 86 103 121 86 103 120 86
103 120 86 103 120 86 103 120 86 103 120 86 103 120 86 103 120 86 103
120 86 103 120 86 103 120 86 103 120 86 103 120 86 103 120 86 103 120
86 103 120 85 102 119 85 102 119 85 102 119 85 102 119 85 102 119 85
102 119 85 102 119 85 102 119 85 102 119 85 102 119 85 102 119 85 102
119 85 102 119 85 102 119 85 102 119 85 102 118 85 102 118 85 102 118
85 101 118 85 101 118 85 101 118 84 101 118 84 101 118 84 101 118 84
101 118 84 101 118 84 101 118 84 101 118 84 101 118 84 101 118 84 101
117 84 101 117 84 101 117 84 101 117 84 101 117 84 100 117 84 100 117
84 100 117 84 100 117 84 100 117 84 100 117 84 100 117 83 100 117 83
100 117 83 100 117 83 100 116 83 100 116 83 100 116 83 100 116 83 100
116 83 100 116 83 100 116 83 99 116 83 99 116 83 99 116 83 99 116 83
99 116 83 99 116 83 99 116 83 99 116 83 99 115 83 99 115 83 99 115 82
99 115 82 99 115 82 99 115 82 99 115 82 99 115 82 99 115 82 99 115 82
98 115 82 98 115 82 98 115 82 98 115 82 98 115 82 98 114 82 98 114 82
98 114 82 98 114 82 98 114 82 98 114 82 98 114 82 98 114 82 98 114 81
98 114 81 98 114 81 98 114 81 97 114 81 97 114 81 97 114 81 97 113 81
97 113 81 97 113 81 97 113 81 97 113 81 97 113 81 97 113 81 97 113 81
97 113 81 97 113 81 97 113 81 97 113 81 97 113 81 97 113 81 97 113 80
96 112 80 96 112 80 96 112 80 96 112 80 96 112 80 96 112 80 96 112 80
96 112 80 96 112 80 96 112 80 96 112 80 96 112 80 96 112 80 96 112 80
96 112 80 96 111 80 96 111 80 96 111 80 95 111 80 95 111 80 95 111 79
95 111 79 95 111 79 95 111 79 95 111 79 95 111 79 95 111 79 95 111 79
95 111 79 95 111 79 95 110 79 95 110 79 95 110 79 95 110 79 95 110 79
94 110 79 94 110 79 94 110 79 94 110 79 94 110 79 94 110 79 94 110 79
94 110 78 94 110 78 94 110 78 94 110 78 94 109 78 94 109 78 94 109 78
94 109 78 94 109 78 94 109 78 94 109 78 93 109 78 93 109 78 93 109 78
93 109 78 93 109 78 93 109 78 93 109 78 93 109 78 93 108 78 93 108 78
93 108 77 93 108 77 93 108 77 93 108 77 93 108 77 93 108 77 93 108 77
93 108 77 93 108 77 92 108 77 92 108 77 92 108 77 92 108 77 92 108 77
92 107 77 92 107 77 92 107 77 92 107 77 92 107 77 92 107 77 92 107 77
92 107 77 92 107 76 92 107 76 92 107 76 92 107 76 92 107 76 91 107 76
91 107 76 91 107 76 91 106 76 91 106 76 91 106 76 91 106 76 91 106 76
91 106
90 108 126 90 108 126 90 108 126 90 108 126 90 108 126 90 108 126 90
108 125 90 108 125 90 108 125 90 107 125 90 107 125 90 107 125 90 107
125 89 107 125 89 107 125 89 107 125 89 107 125 89 107 125 89 107 125
89 107 125 89 107 125 89 107 125 89 107 124 89 107 124 89 107 124 89
107 124 89 107 124 89 106 124 89 106 124 89 106 124 89 106 124 89 106
124 89 106 124 89 106 124 88 106 124 88 106 124 88 106 124 88 106 123
88 106 123 88 106 123 88 106 123 88 106 123 88 106 123 88 106 123 88
106 123 88 105 123 88 105 123 88 105 123 88 105 123 88 105 123 88 105
123 88 105 123 88 105 122 88 105 122 88 105 122 87 105 122 87 105 122
87 105 122 87 105 122 87 105 122 87 105 122 87 105 122 87 104 122 87
104 122 87 104 122 87 104 122 87 104 122 87 104 121 87 104 121 87 104
121 87 104 121 87 104 121 87 104 121 87 104 121 87 104 121 87 104 121
86 104 121 86 104 121 86 104 121 86 104 121 86 103 121 86 103 121 86
103 120 86 103 120 86 103 120 86 103 120 86 103 120 86 103 120 86 103
120 86 103 120 86 103 120 86 103 120 86 103 120 86 103 120 86 103 120
86 103 120 86 103 120 85 102 119 85 102 119 85 102 119 85 102 119 85
102 119 85 102 119 85 102 119 85 102 119 85 102 119 85 102 119 85 102
119 85 102 119 85 102 119 85 102 119 85 102 119 85 102 118 85 102 118
85 102 118 85 101 118 85 101 118 85 101 118 84 101 118 84 101 118 84
101 118 84 101 118 84 101 118 84 101 118 84 101 118 84 101 118 84 101
118 84 101 117 84 101 117 84 101 117 84 101 117 84 101 117 84 100 117
84 100 117 84 100 117 84 100 117 84 100 117 84 100 117 84 100 117 83
100 117 83 100 117 83 100 117 83 100 116 83 100 116 83 100 116 83 100
116 83 100 116 83 100 116 83 100 116 83 99 116 83 99 116 83 99 116 83
99 116 83 99 116 83 99 116 83 99 116 83 99 116 83 99 115 83 99 115 83
99 115 82 99 115 82 99 115 82 99 115 82 99 115 82 99 115 82 99 115 82
99 115 82 98 115 82 98 115 82 98 115 82 98 115 82 98 115 82 98 114 82
98 114 82 98 114 82 98 114 82 98 114 82 98 114 82 98 114 82 98 114 82
98 114 81 98 114 81 98 114 81 98 114 81 98 114 81 97 114 81 97 114 81
97 113 81 97 113 81 97 113 81 97 113 81 97 113 81 97 113 81 97 113 81
97 113 81 97 113 81 97 113 81 97 113 81 97 113 81 97 113 81 97 113 81
97 113 80 96 112 80 96 112 80 96 112 80 96 112 80 96 112 80 96 112 80
96 112 80 96 112 80 96 112 80 96 112 80 96 112 80 96 112 80 96 112 80
96 112 80 96 112 80 96 112 80 96 111 80 96 111 80 95 111 80 95 111 80
95 111 80 95 111 79 95 111 79 95 111 79 95 111 79 95 111 79 95 111 79
95 111 79 95 111 79 95 111 79 95 111 79 95 110 79 95 110 79 95 110 79
95 110 79 95 110 79 94 110 79 94 110 79 94 110 79 94 110 79 94 110 79
94 110 79 94 110 78 94 110 78 94 110 78 94 110 78 94 109 78 94 109 78
94 109 78 94 109 78 94 109 78 94 109 78 94 109 78 94 109 78 93 109 78
93 109 78 93 109 78 93 109 78 93 109 78 93 109 78 93 109 78 93 109 78
93 108 78 93 108 78 93 108 77 93 108 77 93 108 77 93 108 77 93 108 77
93 108 77 93 108 77 93 108 77 93 108 77 92 108 77 92 108 77 92 108 77
92 108 77 92 108 77 92 107 77 92 107 77 92 107 77 92 107 77 92 107 77
92 107 77 92 107 77 92 107 77 92 107 76 92 107 76 92 107 76 92 107 76
92 107 76 91 107 76 91 107 76 91 107 76 91 106 76 91 106 76 91 106 76
91 106
90 108 126 90 108 126 90 108 126 90 108 126 90 108 126 90 108 126 90
108 126 90 108 125 90 108 125 90 107 125 90 107 125 90 107 125 90 107
125 89 107 125 89 107 125 89 107 125 89 107 125 89 107 125 89 107 125
89 107 125 89 107 125 89 107 125 89 107 124 89 107 124 89 107 124 89
107 124 89 107 124 89 106 124 89 106 124 89 106 124 89 106 124 89 106
124 89 106 124 89 106 124 88 106 124 88 106 124 88 106 124 88 106 123
88 106 123 88 106 123 88 106 123 88 106 123 88 106 123 88 106 123 88
106 123 88 105 123 88 105 123 88 105 123 88 105 123 88 105 123 88 105
123 88 105 123 88 105 123 88 105 122 88 105 122 88 105 122 87 105 122
87 105 122 87 105 122 87 105 122 87 105 122 87 105 122 87 105 122 87
104 122 87 104 122 87 104 122 87 104 122 87 104 122 87 104 121 87 104
121 87 104 121 87 104 121 87 104 121 87 104 121 87 104 121 87 104 121
87 104 121 86 104 121 86 104 121 86 104 121 86 103 121 86 103 121 86
103 121 86 103 120 86 103 120 86 103 120 86 103 120 86 103 120 86 103
120 86 103 120 86 103 120 86 103 120 86 103 120 86 103 120 86 103 120
86 103 120 86 103 120 86 103 120 85 102 119 85 102 119 85 102 119 85
102 119 85 102 119 85 102 119 85 102 119 85 102 119 85 102 119 85 102
119 85 102 119 85 102 119 85 102 119 85 102 119 85 102 119 85 102 118
85 102 118 85 101 118 85 101 118 85 101 118 85 101 118 84 101 118 84
101 118 84 101 118 84 101 118 84 101 118 84 101 118 84 101 118 84 101
118 84 101 118 84 101 117 84 101 117 84 101 117 84 101 117 84 101 117
84 100 117 84 100 117 84 100 117 84 100 117 84 100 117 84 100 117 84
100 117 83 100 117 83 100 117 83 100 117 83 100 116 83 100 116 83 100
116 83 100 116 83 100 116 83 100 116 83 100 116 83 99 116 83 99 116 83
99 116 83 99 116 83 99 116 83 99 116 83 99 116 83 99 116 83 99 115 83
99 115 83 99 115 82 99 115 82 99 115 82 99 115 82 99 115 82 99 115 82
99 115 82 99 115 82 98 115 82 98 115 82 98 115 82 98 115 82 98 115 82
98 114 82 98 114 82 98 114 82 98 114 82 98 114 82 98 114 82 98 114 82
98 114 82 98 114 81 98 114 81 98 114 81 98 114 81 98 114 81 97 114 81
97 114 81 97 113 81 97 113 81 97 113 81 97 113 81 97 113 81 97 113 81
97 113 81 97 113 81 97 113 81 97 113 81 97 113 81 97 113 81 97 113 81
97 113 81 97 113 81 97 113 80 96 112 80 96 112 80 96 112 80 96 112 80
96 112 80 96 112 80 96 112 80 96 112 80 96 112 80 96 112 80 96 112 80
96 112 80 96 112 80 96 112 80 96 112 80 96 111 80 96 111 80 96 111 80
95 111 80 95 111 80 95 111 79 95 111 79 95 111 79 95 111 79 95 111 79
95 111 79 95 111 79 95 111 79 95 111 79 95 111 79 95 111 79 95 110 79
95 110 79 95 110 79 95 110 79 95 110 79 94 110 79 94 110 79 94 110 79
94 110 79 94 110 79 94 110 79 94 110 78 94 110 78 94 110 78 94 110 78
94 109 78 94 109 78 94 109 78 94 109 78 94 109 78 94 109 78 94 109 78
94 109 78 93 109 78 93 109 78 93 109 78 93 109 78 93 109 78 93 109 78
93 109 78 93 109 78 93 108 78 93 108 78 93 108 77 93 108 77 93 108 77
93 108 77 93 108 77 93 108 77 93 108 77 93 108 77 93 108 77 92 108 77
92 108 77 92 108 77 92 108 77 92 108 77 92 107 77 92 107 77 92 107 77
92 107 77 92 107 77 92 107 77 92 107 77 92 107 77 92 107 76 92 107 76
92 107 76 92 107 76 92 107 76 91 107 76 91 107 76 91 107 76 91 106 76
91 106
90 108 126 90 108 126 90 108 126 90 108 126 90 108 126 90 108 126 90
108 126 90 108 125 90 108 125 90 107 125 90 107 125 90 107 125 90 107
125 89 107 125 89 107 125 89 107 125 89 107 125 89 107 125 89 107 125
89 107 125 89 107 125 89 107 125 89 107 124 89 107 124 89 107 124 89
107 124 89 107 124 89 107 124 89 106 124 89 106 124 89 106 124 89 106
124 89 106 124 89 106 124 89 106 124 88 106 124 88 106 124 88 106 124
88 106 123 88 106 123 88 106 123 88 106 123 88 106 123 88 106 123 88
106 123 88 105 123 88 105 123 88 105 123 88 105 123 88 105 123 88 105
123 88 105 123 88 105 123 88 105 122 88 105 122 88 105 122 87 105 122
87 105 122 87 105 122 87 105 122 87 105 122 87 105 122 87 105 122 87
104 122 87 104 122 87 104 122 87 104 122 87 104 122 87 104 121 87 104
121 87 104 121 87 104 121 87 104 121 87 104 121 87 104 121 87 104 121
87 104 121 86 104 121 86 104 121 86 104 121 86 104 121 86 103 121 86
103 121 86 103 120 86 103 120 86 103 120 86 103 120 86 103 120 86 103
120 86 103 120 86 103 120 86 103 120 86 103 120 86 103 120 86 103 120
86 103 120 86 103 120 86 103 120 86 103 120 85 102 119 85 102 119 85
102 119 85 102 119 85 102 119 85 102 119 85 102 119 85 102 119 85 102
119 85 102 119 85 102 119 85 102 119 85 102 119 85 102 119 85 102 119
85 102 118 85 102 118 85 101 118 85 101 118 85 101 118 85 101 118 84
101 118 84 101 118 84 101 118 84 101 118 84 101 118 84 101 118 84 101
118 84 101 118 84 101 118 84 101 117 84 101 117 84 101 117 84 101 117
84 101 117 84 100 117 84 100 117 84 100 117 84 100 117 84 100 117 84
100 117 84 100 117 83 100 117 83 100 117 83 100 117 83 100 116 83 100
116 83 100 116 83 100 116 83 100 116 83 100 116 83 100 116 83 100 116
83 99 116 83 99 116 83 99 116 83 99 116 83 99 116 83 99 116 83 99 116
83 99 115 83 99 115 83 99 115 82 99 115 82 99 115 82 99 115 82 99 115
82 99 115 82 99 115 82 99 115 82 98 115 82 98 115 82 98 115 82 98 115
82 98 115 82 98 114 82 98 114 82 98 114 82 98 114 82 98 114 82 98 114
82 98 114 82 98 114 82 98 114 82 98 114 81 98 114 81 98 114 81 98 114
81 97 114 81 97 114 81 97 114 81 97 113 81 97 113 81 97 113 81 97 113
81 97 113 81 97 113 81 97 113 81 97 113 81 97 113 81 97 113 81 97 113
81 97 113 81 97 113 81 97 113 81 97 113 80 96 112 80 96 112 80 96 112
80 96 112 80 96 112 80 96 112 80 96 112 80 96 112 80 96 112 80 96 112
80 96 112 80 96 112 80 96 112 80 96 112 80 96 112 80 96 112 80 96 111
80 96 111 80 95 111 80 95 111 80 95 111 80 95 111 79 95 111 79 95 111
79 95 111 79 95 111 79 95 111 79 95 111 79 95 111 79 95 111 79 95 111
79 95 110 79 95 110 79 95 110 79 95 110 79 95 110 79 94 110 79 94 110
79 94 110 79 94 110 79 94 110 79 94 110 79 94 110 79 94 110 78 94 110
78 94 110 78 94 110 78 94 109 78 94 109 78 94 109 78 94 109 78 94 109
78 94 109 78 94 109 78 94 109 78 93 109 78 93 109 78 93 109 78 93 109
78 93 109 78 93 109 78 93 109 78 93 109 78 93 108 78 93 108 78 93 108
77 93 108 77 93 108 77 93 108 77 93 108 77 93 108 77 93 108 77 93 108
77 92 108 77 92 108 77 92 108 77 92 108 77 92 108 77 92 108 77 92 107
77 92 107 77 92 107 77 92 107 77 92 107 77 92 107 77 92 107 77 92 107
77 92 107 77 92 107 76 92 107 76 92 107 76 92 107 76 91 107 76 91 107
76 91 107
90 108 126 90 108 126 90 108 126 90 108 126 90 108 126 90 108 126 90
108 126 90 108 125 90 108 125 90 108 125 90 107 125 90 107 125 90 107
125 89 107 125 89 107 125 89 107 125 89 107 125 89 107 125 89 107 125
89 107 125 89 107 125 89 107 125 89 107 125 89 107 124 89 107 124 89
107 124 89 107 124 89 107 124 89 106 124 89 106 124 89 106 124 89 106
124 89 106 124 89 106 124 89 106 124 88 106 124 88 106 124 88 106 124
88 106 123 88 106 123 88 106 123 88 106 123 88 106 123 88 106 123 88
106 123 88 106 123 88 105 123 88 105 123 88 105 123 88 105 123 88 105
123 88 105 123 88 105 123 88 105 123 88 105 122 88 105 122 88 105 122
87 105 122 87 105 122 87 105 122 87 105 122 87 105 122 87 105 122 87
105 122 87 104 122 87 104 122 87 104 122 87 104 122 87 104 122 87 104
121 87 104 121 87 104 121 87 104 121 87 104 121 87 104 121 87 104 121
87 104 121 87 104 121 86 104 121 86 104 121 86 104 121 86 104 121 86
103 121 86 103 121 86 103 120 86 103 120 86 103 120 86 103 120 86 103
120 86 103 120 86 103 120 86 103 120 86 103 120 86 103 120 86 103 120
86 103 120 86 103 120 86 103 120 86 103 120 85 102 119 85 102 119 85
102 119 85 102 119 85 102 119 85 102 119 85 102 119 85 102 119 85 102
119 85 102 119 85 102 119 85 102 119 85 102 119 85 102 119 85 102 119
85 102 118 85 102 118 85 102 118 85 101 118 85 101 118 85 101 118 85
101 118 84 101 118 84 101 118 84 101 118 84 101 118 84 101 118 84 101
118 84 101 118 84 101 118 84 101 118 84 101 117 84 101 117 84 101 117
84 101 117 84 101 117 84 100 117 84 100 117 84 100 117 84 100 117 84
100 117 84 100 117 84 100 117 83 100 117 83 100 117 83 100 117 83 100
116 83 100 116 83 100 116 83 100 116 83 100 116 83 100 116 83 100 116
83 100 116 83 99 116 83 99 116 83 99 116 83 99 116 83 99 116 83 99 116
83 99 116 83 99 115 83 99 115 83 99 115 82 99 115 82 99 115 82 99 115
82 99 115 82 99 115 82 99 115 82 99 115 82 98 115 82 98 115 82 98 115
82 98 115 82 98 115 82 98 115 82 98 114 82 98 114 82 98 114 82 98 114
82 98 114 82 98 114 82 98 114 82 98 114 82 98 114 81 98 114 81 98 114
81 98 114 81 97 114 81 97 114 81 97 114 81 97 113 81 97 113 81 97 113
81 97 113 81 97 113 81 97 113 81 97 113 81 97 113 81 97 113 81 97 113
81 97 113 81 97 113 81 97 113 81 97 113 81 97 113 81 97 113 80 96 112
80 96 112 80 96 112 80 96 112 80 96 112 80 96 112 80 96 112 80 96 112
80 96 112 80 96 112 80 96 112 80 96 112 80 96 112 80 96 112 80 96 112
80 96 111 80 96 111 80 96 111 80 95 111 80 95 111 80 95 111 79 95 111
79 95 111 79 95 111 79 95 111 79 95 111 79 95 111 79 95 111 79 95 111
79 95 111 79 95 111 79 95 110 79 95 110 79 95 110 79 95 110 79 95 110
79 94 110 79 94 110 79 94 110 79 94 110 79 94 110 79 94 110 79 94 110
79 94 110 78 94 110 78 94 110 78 94 110 78 94 109 78 94 109 78 94 109
78 94 109 78 94 109 78 94 109 78 94 109 78 94 109 78 93 109 78 93 109
78 93 109 78 93 109 78 93 109 78 93 109 78 93 109 78 93 109 78 93 108
78 93 108 78 93 108 77 93 108 77 93 108 77 93 108 77 93 108 77 93 108
77 93 108 77 93 108 77 92 108 77 92 108 77 92 108 77 92 108 77 92 108
77 92 108 77 92 107 77 92 107 77 92 107 77 92 107 77 92 107 77 92 107
77 92 107 77 92 107 77 92 107 77 92 107 76 92 107 76 92 107 76 92 107
76 91 107
90 108 126 90 108 126 90 108 126 90 108 126 90 108 126 90 108 126 90
108 126 90 108 125 90 108 125 90 108 125 90 107 125 90 107 125 90 107
125 90 107 125 89 107 125 89 107 125 89 107 125 89 107 125 89 107 125
89 107 125 89 107 125 89 107 125 89 107 125 89 107 124 89 107 124 89
107 124 89 107 124 89 107 124 89 106 124 89 106 124 89 106 124 89 106
124 89 106 124 89 106 124 89 106 124 88 106 124 88 106 124 88 106 124
88 106 124 88 106 123 88 106 123 88 106 123 88 106 123 88 106 123 88
106 123 88 106 123 88 105 123 88 105 123 88 105 123 88 105 123 88 105
123 88 105 123 88 105 123 88 105 123 88 105 122 88 105 122 88 105 122
87 105 122 87 105 122 87 105 122 87 105 122 87 105 122 87 105 122 87
105 122 87 104 122 87 104 122 87 104 122 87 104 122 87 104 122 87 104
121 87 104 121 87 104 121 87 104 121 87 104 121 87 104 121 87 104 121
87 104 121 87 104 121 87 104 121 86 104 121 86 104 121 86 104 121 86
103 121 86 103 121 86 103 121 86 103 120 86 103 120 86 103 120 86 103
120 86 103 120 86 103 120 86 103 120 86 103 120 86 103 120 86 103 120
86 103 120 86 103 120 86 103 120 86 103 120 86 103 120 85 102 119 85
102 119 85 102 119 85 102 119 85 102 119 85 102 119 85 102 119 85 102
119 85 102 119 85 102 119 85 102 119 85 102 119 85 102 119 85 102 119
85 102 119 85 102 118 85 102 118 85 102 118 85 101 118 85 101 118 85
101 118 84 101 118 84 101 118 84 101 118 84 101 118 84 101 118 84 101
118 84 101 118 84 101 118 84 101 118 84 101 118 84 101 117 84 101 117
84 101 117 84 101 117 84 101 117 84 100 117 84 100 117 84 100 117 84
100 117 84 100 117 84 100 117 84 100 117 83 100 117 83 100 117 83 100
117 83 100 116 83 100 116 83 100 116 83 100 116 83 100 116 83 100 116
83 100 116 83 100 116 83 99 116 83 99 116 83 99 116 83 99 116 83 99
116 83 99 116 83 99 116 83 99 115 83 99 115 83 99 115 82 99 115 82 99
115 82 99 115 82 99 115 82 99 115 82 99 115 82 99 115 82 99 115 82 98
115 82 98 115 82 98 115 82 98 115 82 98 115 82 98 114 82 98 114 82 98
114 82 98 114 82 98 114 82 98 114 82 98 114 82 98 114 82 98 114 81 98
114 81 98 114 81 98 114 81 98 114 81 97 114 81 97 114 81 97 113 81 97
113 81 97 113 81 97 113 81 97 113 81 97 113 81 97 113 81 97 113 81 97
113 81 97 113 81 97 113 81 97 113 81 97 113 81 97 113 81 97 113 81 97
113 80 96 112 80 96 112 80 96 112 80 96 112 80 96 112 80 96 112 80 96
112 80 96 112 80 96 112 80 96 112 80 96 112 80 96 112 80 96 112 80 96
112 80 96 112 80 96 112 80 96 111 80 96 111 80 95 111 80 95 111 80 95
111 80 95 111 79 95 111 79 95 111 79 95 111 79 95 111 79 95 111 79 95
111 79 95 111 79 95 111 79 95 111 79 95 110 79 95 110 79 95 110 79 95
110 79 95 110 79 95 110 79 94 110 79 94 110 79 94 110 79 94 110 79 94
110 79 94 110 79 94 110 78 94 110 78 94 110 78 94 110 78 94 109 78 94
109 78 94 109 78 94 109 78 94 109 78 94 109 78 94 109 78 94 109 78 93
109 78 93 109 78 93 109 78 93 109 78 93 109 78 93 109 78 93 109 78 93
109 78 93 109 78 93 108 78 93 108 78 93 108 77 93 108 77 93 108 77 93
108 77 93 108 77 93 108 77 93 108 77 93 108 77 92 108 77 92 108 77 92
108 77 92 108 77 92 108 77 92 108 77 92 107 77 92 107 77 92 107 77 92
107 77 92 107 77 92 107 77 92 107 77 92 107 77 92 107 77 92 107 76 92
107 76 92 107
90 108 126 90 108 126 90 108 126 90 108 126 90 108 126 90 108 126 90
108 126 90 108 126 90 108 125 90 108 125 90 107 125 90 107 125 90 107
125 90 107 125 89 107 125 89 107 125 89 107 125 89 107 125 89 107 125
89 107 125 89 107 125 89 107 125 89 107 125 89 107 124 89 107 124 89
107 124 89 107 124 89 107 124 89 106 124 89 106 124 89 106 124 89 106
124 89 106 124 89 106 124 89 106 124 89 106 124 88 106 124 88 106 124
88 106 124 88 106 123 88 106 123 88 106 123 88 106 123 88 106 123 88
106 123 88 106 123 88 106 123 88 105 123 88 105 123 88 105 123 88 105
123 88 105 123 88 105 123 88 105 123 88 105 122 88 105 122 88 105 122
88 105 122 87 105 122 87 105 122 87 105 122 87 105 122 87 105 122 87
105 122 87 105 122 87 104 122 87 104 122 87 104 122 87 104 122 87 104
122 87 104 121 87 104 121 87 104 121 87 104 121 87 104 121 87 104 121
87 104 121 87 104 121 87 104 121 86 104 121 86 104 121 86 104 121 86
104 121 86 103 121 86 103 121 86 103 120 86 103 120 86 103 120 86 103
120 86 103 120 86 103 120 86 103 120 86 103 120 86 103 120 86 103 120
86 103 120 86 103 120 86 103 120 86 103 120 86 103 120 86 103 120 85
102 119 85 102 119 85 102 119 85 102 119 85 102 119 85 102 119 85 102
119 85 102 119 85 102 119 85 102 119 85 102 119 85 102 119 85 102 119
85 102 119 85 102 119 85 102 118 85 102 118 85 102 118 85 101 118 85
101 118 85 101 118 84 101 118 84 101 118 84 101 118 84 101 118 84 101
118 84 101 118 84 101 118 84 101 118 84 101 118 84 101 118 84 101 117
84 101 117 84 101 117 84 101 117 84 101 117 84 100 117 84 100 117 84
100 117 84 100 117 84 100 117 84 100 117 84 100 117 83 100 117 83 100
117 83 100 117 83 100 116 83 100 116 83 100 116 83 100 116 83 100 116
83 100 116 83 100 116 83 100 116 83 99 116 83 99 116 83 99 116 83 99
116 83 99 116 83 99 116 83 99 116 83 99 115 83 99 115 83 99 115 83 99
115 82 99 115 82 99 115 82 99 115 82 99 115 82 99 115 82 99 115 82 99
115 82 98 115 82 98 115 82 98 115 82 98 115 82 98 115 82 98 114 82 98
114 82 98 114 82 98 114 82 98 114 82 98 114 82 98 114 82 98 114 82 98
114 81 98 114 81 98 114 81 98 114 81 98 114 81 97 114 81 97 114 81 97
114 81 97 113 81 97 113 81 97 113 81 97 113 81 97 113 81 97 113 81 97
113 81 97 113 81 97 113 81 97 113 81 97 113 81 97 113 81 97 113 81 97
113 81 97 113 80 96 112 80 96 112 80 96 112 80 96 112 80 96 112 80 96
112 80 96 112 80 96 112 80 96 112 80 96 112 80 96 112 80 96 112 80 96
112 80 96 112 80 96 112 80 96 112 80 96 111 80 96 111 80 96 111 80 95
111 80 95 111 80 95 111 80 95 111 79 95 111 79 95 111 79 95 111 79 95
111 79 95 111 79 95 111 79 95 111 79 95 111 79 95 111 79 95 110 79 95
110 79 95 110 79 95 110 79 95 110 79 94 110 79 94 110 79 94 110 79 94
110 79 94 110 79 94 110 79 94 110 79 94 110 78 94 110 78 94 110 78 94
110 78 94 109 78 94 109 78 94 109 78 94 109 78 94 109 78 94 109 78 94
109 78 94 109 78 93 109 78 93 109 78 93 109 78 93 109 78 93 109 78 93
109 78 93 109 78 93 109 78 93 108 78 93 108 78 93 108 78 93 108 77 93
108 77 93 108 77 93 108 77 93 108 77 93 108 77 93 108 77 93 108 77 92
108 77 92 108 77 92 108 77 92 108 77 92 108 77 92 108 77 92 107 77 92
107 77 92 107 77 92 107 77 92 107 77 92 107 77 92 107 77 92 107 77 92
107 77 92 107
90 108 126 90 108 126 90 108 126 90 108 126 90 108 126 90 108 126 90
108 126 90 108 126 90 108 125 90 108 125 90 107 125 90 107 125 90 107
125 90 107 125 89 107 125 89 107 125 89 107 125 89 107 125 89 107 125
89 107 125 89 107 125 89 107 125 89 107 125 89 107 125 89 107 124 89
107 124 89 107 124 89 107 124 89 107 124 89 106 124 89 106 124 89 106
124 89 106 124 89 106 124 89 106 124 89 106 124 88 106 124 88 106 124
88 106 124 88 106 123 88 106 123 88 106 123 88 106 123 88 106 123 88
106 123 88 106 123 88 106 123 88 105 123 88 105 123 88 105 123 88 105
123 88 105 123 88 105 123 88 105 123 88 105 123 88 105 122 88 105 122
88 105 122 87 105 122 87 105 122 87 105 122 87 105 122 87 105 122 87
105 122 87 105 122 87 104 122 87 104 122 87 104 122 87 104 122 87 104
122 87 104 121 87 104 121 87 104 121 87 104 121 87 104 121 87 104 121
87 104 121 87 104 121 87 104 121 87 104 121 86 104 121 86 104 121 86
104 121 86 103 121 86 103 121 86 103 121 86 103 120 86 103 120 86 103
120 86 103 120 86 103 120 86 103 120 86 103 120 86 103 120 86 103 120
86 103 120 86 103 120 86 103 120 86 103 120 86 103 120 86 103 120 85
102 119 85 102 119 85 102 119 85 102 119 85 102 119 85 102 119 85 102
119 85 102 119 85 102 119 85 102 119 85 102 119 85 102 119 85 102 119
85 102 119 85 102 119 85 102 119 85 102 118 85 102 118 85 101 118 85
101 118 85 101 118 85 101 118 84 101 118 84 101 118 84 101 118 84 101
118 84 101 118 84 101 118 84 101 118 84 101 118 84 101 118 84 101 117
84 101 117 84 101 117 84 101 117 84 101 117 84 101 117 84 100 117 84
100 117 84 100 117 84 100 117 84 100 117 84 100 117 84 100 117 83 100
117 83 100 117 83 100 117 83 100 116 83 100 116 83 100 116 83 100 116
83 100 116 83 100 116 83 100 116 83 100 116 83 99 116 83 99 116 83 99
116 83 99 116 83 99 116 83 99 116 83 99 116 83 99 116 83 99 115 83 99
115 83 99 115 82 99 115 82 99 115 82 99 115 82 99 115 82 99 115 82 99
115 82 99 115 82 98 115 82 98 115 82 98 115 82 98 115 82 98 115 82 98
114 82 98 114 82 98 114 82 98 114 82 98 114 82 98 114 82 98 114 82 98
114 82 98 114 82 98 114 81 98 114 81 98 114 81 98 114 81 97 114 81 97
114 81 97 114 81 97 113 81 97 113 81 97 113 81 97 113 81 97 113 81 97
113 81 97 113 81 97 113 81 97 113 81 97 113 81 97 113 81 97 113 81 97
113 81 97 113 81 97 113 81 97 113 80 96 112 80 96 112 80 96 112 80 96
112 80 96 112 80 96 112 80 96 112 80 96 112 80 96 112 80 96 112 80 96
112 80 96 112 80 96 112 80 96 112 80 96 112 80 96 112 80 96 111 80 96
111 80 95 111 80 95 111 80 95 111 80 95 111 79 95 111 79 95 111 79 95
111 79 95 111 79 95 111 79 95 111 79 95 111 79 95 111 79 95 111 79 95
111 79 95 110 79 95 110 79 95 110 79 95 110 79 95 110 79 94 110 79 94
110 79 94 110 79 94 110 79 94 110 79 94 110 79 94 110 79 94 110 78 94
110 78 94 110 78 94 110 78 94 109 78 94 109 78 94 109 78 94 109 78 94
109 78 94 109 78 94 109 78 94 109 78 93 109 78 93 109 78 93 109 78 93
109 78 93 109 78 93 109 78 93 109 78 93 109 78 93 108 78 93 108 78 93
108 77 93 108 77 93 108 77 93 108 77 93 108 77 93 108 77 93 108 77 93
108 77 93 108 77 92 108 77 92 108 77 92 108 77 92 108 77 92 108 77 92
108 77 92 107 77 92 107 77 92 107 77 92 107 77 92 107 77 92 107 77 92
107 77 92 107
90 108 126 90 108 126 90 108 126 90 108 126 90 108 126 90 108 126 90
108 126 90 108 126 90 108 125 90 108 125 90 108 125 90 107 125 90 107
125 90 107 125 89 107 125 89 107 125 89 107 125 89 107 125 89 107 125
89 107 125 89 107 125 89 107 125 89 107 125 89 107 125 89 107 124 89
107 124 89 107 124 89 107 124 89 107 124 89 106 124 89 106 124 89 106
124 89 106 124 89 106 124 89 106 124 89 106 124 88 106 124 88 106 124
88 106 124 88 106 124 88 106 123 88 106 123 88 106 123 88 106 123 88
106 123 88 106 123 88 106 123 88 105 123 88 105 123 88 105 123 88 105
123 88 105 123 88 105 123 88 105 123 88 105 123 88 105 122 88 105 122
88 105 122 87 105 122 87 105 122 87 105 122 87 105 122 87 105 122 87
105 122 87 105 122 87 105 122 87 104 122 87 104 122 87 104 122 87 104
122 87 104 122 87 104 121 87 104 121 87 104 121 87 104 121 87 104 121
87 104 121 87 104 121 87 104 121 87 104 121 86 104 121 86 104 121 86
104 121 86 104 121 86 103 121 86 103 121 86 103 121 86 103 120 86 103
120 86 103 120 86 103 120 86 103 120 86 103 120 86 103 120 86 103 120
86 103 120 86 103 120 86 103 120 86 103 120 86 103 120 86 103 120 86
103 120 85 102 119 85 102 119 85 102 119 85 102 119 85 102 119 85 102
119 85 102 119 85 102 119 85 102 119 85 102 119 85 102 119 85 102 119
85 102 119 85 102 119 85 102 119 85 102 119 85 102 118 85 102 118 85
101 118 85 101 118 85 101 118 85 101 118 84 101 118 84 101 118 84 101
118 84 101 118 84 101 118 84 101 118 84 101 118 84 101 118 84 101 118
84 101 117 84 101 117 84 101 117 84 101 117 84 101 117 84 101 117 84
100 117 84 100 117 84 100 117 84 100 117 84 100 117 84 100 117 84 100
117 83 100 117 83 100 117 83 100 117 83 100 116 83 100 116 83 100 116
83 100 116 83 100 116 83 100 116 83 100 116 83 100 116 83 99 116 83 99
116 83 99 116 83 99 116 83 99 116 83 99 116 83 99 116 83 99 116 83 99
115 83 99 115 83 99 115 82 99 115 82 99 115 82 99 115 82 99 115 82 99
115 82 99 115 82 99 115 82 98 115 82 98 115 82 98 115 82 98 115 82 98
115 82 98 114 82 98 114 82 98 114 82 98 114 82 98 114 82 98 114 82 98
114 82 98 114 82 98 114 82 98 114 81 98 114 81 98 114 81 98 114 81 98
114 81 97 114 81 97 114 81 97 113 81 97 113 81 97 113 81 97 113 81 97
113 81 97 113 81 97 113 81 97 113 81 97 113 81 97 113 81 97 113 81 97
113 81 97 113 81 97 113 81 97 113 81 97 113 80 96 112 80 96 112 80 96
112 80 96 112 80 96 112 80 96 112 80 96 112 80 96 112 80 96 112 80 96
112 80 96 112 80 96 112 80 96 112 80 96 112 80 96 112 80 96 112 80 96
111 80 96 111 80 96 111 80 95 111 80 95 111 80 95 111 80 95 111 79 95
111 79 95 111 79 95 111 79 95 111 79 95 111 79 95 111 79 95 111 79 95
111 79 95 111 79 95 110 79 95 110 79 95 110 79 95 110 79 95 110 79 95
110 79 94 110 79 94 110 79 94 110 79 94 110 79 94 110 79 94 110 79 94
110 78 94 110 78 94 110 78 94 110 78 94 110 78 94 109 78 94 109 78 94
109 78 94 109 78 94 109 78 94 109 78 94 109 78 94 109 78 93 109 78 93
109 78 93 109 78 93 109 78 93 109 78 93 109 78 93 109 78 93 109 78 93
108 78 93 108 78 93 108 77 93 108 77 93 108 77 93 108 77 93 108 77 93
108 77 93 108 77 93 108 77 93 108 77 92 108 77 92 108 77 92 108 77 92
108 77 92 108 77 92 108 77 92 107 77 92 107 77 92 107 77 92 107 77 92
107 77 92 107
90 108 126 90 108 126 90 108 126 90 108 126 90 108 126 90 108 126 90
108 126 90 108 126 90 108 125 90 108 125 90 108 125 90 107 125 90 107
125 90 107 125 89 107 125 89 107 125 89 107 125 89 107 125 89 107 125
89 107 125 89 107 125 89 107 125 89 107 125 89 107 125 89 107 124 89
107 124 89 107 124 89 107 124 89 107 124 89 106 124 89 106 124 89 106
124 89 106 124 89 106 124 89 106 124 89 106 124 89 106 124 88 106 124
88 106 124 88 106 124 88 106 123 88 106 123 88 106 123 88 106 123 88
106 123 88 106 123 88 106 123 88 106 123 88 105 123 88 105 123 88 105
123 88 105 123 88 105 123 88 105 123 88 105 123 88 105 123 88 105 122
88 105 122 88 105 122 87 105 122 87 105 122 87 105 122 87 105 122 87
105 122 87 105 122 87 105 122 87 104 122 87 104 122 87 104 122 87 104
122 87 104 122 87 104 121 87 104 121 87 104 121 87 104 121 87 104 121
87 104 121 87 104 121 87 104 121 87 104 121 87 104 121 86 104 121 86
104 121 86 104 121 86 104 121 86 103 121 86 103 121 86 103 120 86 103
120 86 103 120 86 103 120 86 103 120 86 103 120 86 103 120 86 103 120
86 103 120 86 103 120 86 103 120 86 103 120 86 103 120 86 103 120 86
103 120 86 103 120 85 102 119 85 102 119 85 102 119 85 102 119 85 102
119 85 102 119 85 102 119 85 102 119 85 102 119 85 102 119 85 102 119
85 102 119 85 102 119 85 102 119 85 102 119 85 102 119 85 102 118 85
102 118 85 101 118 85 101 118 85 101 118 85 101 118 84 101 118 84 101
118 84 101 118 84 101 118 84 101 118 84 101 118 84 101 118 84 101 118
84 101 118 84 101 117 84 101 117 84 101 117 84 101 117 84 101 117 84
100 117 84 100 117 84 100 117 84 100 117 84 100 117 84 100 117 84 100
117 84 100 117 83 100 117 83 100 117 83 100 117 83 100 116 83 100 116
83 100 116 83 100 116 83 100 116 83 100 116 83 100 116 83 100 116 83
99 116 83 99 116 83 99 116 83 99 116 83 99 116 83 99 116 83 99 116 83
99 116 83 99 115 83 99 115 83 99 115 82 99 115 82 99 115 82 99 115 82
99 115 82 99 115 82 99 115 82 99 115 82 98 115 82 98 115 82 98 115 82
98 115 82 98 115 82 98 115 82 98 114 82 98 114 82 98 114 82 98 114 82
98 114 82 98 114 82 98 114 82 98 114 82 98 114 81 98 114 81 98 114 81
98 114 81 98 114 81 97 114 81 97 114 81 97 114 81 97 113 81 97 113 81
97 113 81 97 113 81 97 113 81 97 113 81 97 113 81 97 113 81 97 113 81
97 113 81 97 113 81 97 113 81 97 113 81 97 113 81 97 113 81 97 113 80
96 112 80 96 112 80 96 112 80 96 112 80 96 112 80 96 112 80 96 112 80
96 112 80 96 112 80 96 112 80 96 112 80 96 112 80 96 112 80 96 112 80
96 112 80 96 112 80 96 111 80 96 111 80 95 111 80 95 111 80 95 111 80
95 111 79 95 111 79 95 111 79 95 111 79 95 111 79 95 111 79 95 111 79
95 111 79 95 111 79 95 111 79 95 111 79 95 110 79 95 110 79 95 110 79
95 110 79 95 110 79 94 110 79 94 110 79 94 110 79 94 110 79 94 110 79
94 110 79 94 110 79 94 110 78 94 110 78 94 110 78 94 110 78 94 109 78
94 109 78 94 109 78 94 109 78 94 109 78 94 109 78 94 109 78 94 109 78
94 109 78 93 109 78 93 109 78 93 109 78 93 109 78 93 109 78 93 109 78
93 109 78 93 109 78 93 108 78 93 108 78 93 108 77 93 108 77 93 108 77
93 108 77 93 108 77 93 108 77 93 108 77 93 108 77 93 108 77 92 108 77
92 108 77 92 108 77 92 108 77 92 108 77 92 108 77 92 107 77 92 107 77
92 107 77 92 107
90 108 126 90 108 126 90 108 126 90 108 126 90 108 126 90 108 126 90
108 126 90 108 126 90 108 125 90 108 125 90 108 125 90 107 125 90 107
125 90 107 125 90 107 125 89 107 125 89 107 125 89 107 125 89 107 125
89 107 125 89 107 125 89 107 125 89 107 125 89 107 125 89 107 124 89
107 124 89 107 124 89 107 124 89 107 124 89 107 124 89 106 124 89 106
124 89 106 124 89 106 124 89 106 124 89 106 124 89 106 124 88 106 124
88 106 124 88 106 124 88 106 123 88 106 123 88 106 123 88 106 123 88
106 123 88 106 123 88 106 123 88 106 123 88 105 123 88 105 123 88 105
123 88 105 123 88 105 123 88 105 123 88 105 123 88 105 123 88 105 122
88 105 122 88 105 122 87 105 122 87 105 122 87 105 122 87 105 122 87
105 122 87 105 122 87 105 122 87 105 122 87 104 122 87 104 122 87 104
122 87 104 122 87 104 122 87 104 121 87 104 121 87 104 121 87 104 121
87 104 121 87 104 121 87 104 121 87 104 121 87 104 121 86 104 121 86
104 121 86 104 121 86 104 121 86 103 121 86 103 121 86 103 121 86 103
120 86 103 120 86 103 120 86 103 120 86 103 120 86 103 120 86 103 120
86 103 120 86 103 120 86 103 120 86 103 120 86 103 120 86 103 120 86
103 120 86 103 120 86 103 120 85 102 119 85 102 119 85 102 119 85 102
119 85 102 119 85 102 119 85 102 119 85 102 119 85 102 119 85 102 119
85 102 119 85 102 119 85 102 119 85 102 119 85 102 119 85 102 118 85
102 118 85 102 118 85 101 118 85 101 118 85 101 118 85 101 118 84 101
118 84 101 118 84 101 118 84 101 118 84 101 118 84 101 118 84 101 118
84 101 118 84 101 118 84 101 117 84 101 117 84 101 117 84 101 117 84
101 117 84 100 117 84 100 117 84 100 117 84 100 117 84 100 117 84 100
117 84 100 117 84 100 117 83 100 117 83 100 117 83 100 117 83 100 116
83 100 116 83 100 116 83 100 116 83 100 116 83 100 116 83 100 116 83
100 116 83 99 116 83 99 116 83 99 116 83 99 116 83 99 116 83 99 116 83
99 116 83 99 116 83 99 115 83 99 115 83 99 115 82 99 115 82 99 115 82
99 115 82 99 115 82 99 115 82 99 115 82 99 115 82 98 115 82 98 115 82
98 115 82 98 115 82 98 115 82 98 115 82 98 114 82 98 114 82 98 114 82
98 114 82 98 114 82 98 114 82 98 114 82 98 114 82 98 114 81 98 114 81
98 114 81 98 114 81 98 114 81 97 114 81 97 114 81 97 114 81 97 113 81
97 113 81 97 113 81 97 113 81 97 113 81 97 113 81 97 113 81 97 113 81
97 113 81 97 113 81 97 113 81 97 113 81 97 113 81 97 113 81 97 113 81
97 113 80 96 112 80 96 112 80 96 112 80 96 112 80 96 112 80 96 112 80
96 112 80 96 112 80 96 112 80 96 112 80 96 112 80 96 112 80 96 112 80
96 112 80 96 112 80 96 112 80 96 111 80 96 111 80 96 111 80 95 111 80
95 111 80 95 111 80 95 111 79 95 111 79 95 111 79 95 111 79 95 111 79
95 111 79 95 111 79 95 111 79 95 111 79 95 111 79 95 111 79 95 110 79
95 110 79 95 110 79 95 110 79 95 110 79 94 110 79 94 110 79 94 110 79
94 110 79 94 110 79 94 110 79 94 110 79 94 110 78 94 110 78 94 110 78
94 110 78 94 109 78 94 109 78 94 109 78 94 109 78 94 109 78 94 109 78
94 109 78 94 109 78 93 109 78 93 109 78 93 109 78 93 109 78 93 109 78
93 109 78 93 109 78 93 109 78 93 109 78 93 108 78 93 108 78 93 108 77
93 108 77 93 108 77 93 108 77 93 108 77 93 108 77 93 108 77 93 108 77
93 108 77 92 108 77 92 108 77 92 108 77 92 108 77 92 108 77 92 108 77
92 107 77 92 107
90 108 126 90 108 126 90 108 126 90 108 126 90 108 126 90 108 126 90
108 126 90 108 126 90 108 125 90 108 125 90 108 125 90 107 125 90 107
125 90 107 125 90 107 125 89 107 125 89 107 125 89 107 125 89 107 125
89 107 125 89 107 125 89 107 125 89 107 125 89 107 125 89 107 125 89
107 124 89 107 124 89 107 124 89 107 124 89 107 124 89 106 124 89 106
124 89 106 124 89 106 124 89 106 124 89 106 124 89 106 124 88 106 124
88 106 124 88 106 124 88 106 124 88 106 123 88 106 123 88 106 123 88
106 123 88 106 123 88 106 123 88 106 123 88 106 123 88 105 123 88 105
123 88 105 123 88 105 123 88 105 123 88 105 123 88 105 123 88 105 123
88 105 122 88 105 122 88 105 122 87 105 122 87 105 122 87 105 122 87
105 122 87 105 122 87 105 122 87 105 122 87 104 122 87 104 122 87 104
122 87 104 122 87 104 122 87 104 121 87 104 121 87 104 121 87 104 121
87 104 121 87 104 121 87 104 121 87 104 121 87 104 121 87 104 121 86
104 121 86 104 121 86 104 121 86 104 121 86 103 121 86 103 121 86 103
120 86 103 120 86 103 120 86 103 120 86 103 120 86 103 120 86 103 120
86 103 120 86 103 120 86 103 120 86 103 120 86 103 120 86 103 120 86
103 120 86 103 120 86 103 120 85 102 119 85 102 119 85 102 119 85 102
119 85 102 119 85 102 119 85 102 119 85 102 119 85 102 119 85 102 119
85 102 119 85 102 119 85 102 119 85 102 119 85 102 119 85 102 119 85
102 118 85 102 118 85 102 118 85 101 118 85 101 118 85 101 118 84 101
118 84 101 118 84 101 118 84 101 118 84 101 118 84 101 118 84 101 118
84 101 118 84 101 118 84 101 118 84 101 117 84 101 117 84 101 117 84
101 117 84 101 117 84 100 117 84 100 117 84 100 117 84 100 117 84 100
117 84 100 117 84 100 117 84 100 117 83 100 117 83 100 117 83 100 117
83 100 116 83 100 116 83 100 116 83 100 116 83 100 116 83 100 116 83
100 116 83 100 116 83 99 116 83 99 116 83 99 116 83 99 116 83 99 116
83 99 116 83 99 116 83 99 116 83 99 115 83 99 115 83 99 115 82 99 115
82 99 115 82 99 115 82 99 115 82 99 115 82 99 115 82 99 115 82 99 115
82 98 115 82 98 115 82 98 115 82 98 115 82 98 115 82 98 114 82 98 114
82 98 114 82 98 114 82 98 114 82 98 114 82 98 114 82 98 114 82 98 114
82 98 114 81 98 114 81 98 114 81 98 114 81 97 114 81 97 114 81 97 114
81 97 113 81 97 113 81 97 113 81 97 113 81 97 113 81 97 113 81 97 113
81 97 113 81 97 113 81 97 113 81 97 113 81 97 113 81 97 113 81 97 113
81 97 113 81 97 113 80 96 112 80 96 112 80 96 112 80 96 112 80 96 112
80 96 112 80 96 112 80 96 112 80 96 112 80 96 112 80 96 112 80 96 112
80 96 112 80 96 112 80 96 112 80 96 112 80 96 112 80 96 111 80 96 111
80 95 111 80 95 111 80 95 111 80 95 111 79 95 111 79 95 111 79 95 111
79 95 111 79 95 111 79 95 111 79 95 111 79 95 111 79 95 111 79 95 111
79 95 110 79 95 110 79 95 110 79 95 110 79 95 110 79 95 110 79 94 110
79 94 110 79 94 110 79 94 110 79 94 110 79 94 110 79 94 110 78 94 110
78 94 110 78 94 110 78 94 110 78 94 109 78 94 109 78 94 109 78 94 109
78 94 109 78 94 109 78 94 109 78 94 109 78 93 109 78 93 109 78 93 109
78 93 109 78 93 109 78 93 109 78 93 109 78 93 109 78 93 109 78 93 108
78 93 108 78 93 108 77 93 108 77 93 108 77 93 108 77 93 108 77 93 108
77 93 108 77 93 108 77 93 108 77 92 108 77 92 108 77 92 108 77 92 108
77 92 108 77 92 107
90 108 126 90 108 126 90 108 126 90 108 126 90 108 126 90 108 126 90
108 126 90 108 126 90 108 126 90 108 125 90 108 125 90 107 125 90 107
125 90 107 125 90 107 125 89 107 125 89 107 125 89 107 125 89 107 125
89 107 125 89 107 125 89 107 125 89 107 125 89 107 125 89 107 125 89
107 124 89 107 124 89 107 124 89 107 124 89 107 124 89 106 124 89 106
124 89 106 124 89 106 124 89 106 124 89 106 124 89 106 124 89 106 124
88 106 124 88 106 124 88 106 124 88 106 123 88 106 123 88 106 123 88
106 123 88 106 123 88 106 123 88 106 123 88 106 123 88 105 123 88 105
123 88 105 123 88 105 123 88 105 123 88 105 123 88 105 123 88 105 123
88 105 122 88 105 122 88 105 122 87 105 122 87 105 122 87 105 122 87
105 122 87 105 122 87 105 122 87 105 122 87 105 122 87 104 122 87 104
122 87 104 122 87 104 122 87 104 122 87 104 121 87 104 121 87 104 121
87 104 121 87 104 121 87 104 121 87 104 121 87 104 121 87 104 121 87
104 121 86 104 121 86 104 121 86 104 121 86 103 121 86 103 121 86 103
121 86 103 120 86 103 120 86 103 120 86 103 120 86 103 120 86 103 120
86 103 120 86 103 120 86 103 120 86 103 120 86 103 120 86 103 120 86
103 120 86 103 120 86 103 120 86 103 120 85 102 119 85 102 119 85 102
119 85 102 119 85 102 119 85 102 119 85 102 119 85 102 119 85 102 119
85 102 119 85 102 119 85 102 119 85 102 119 85 102 119 85 102 119 85
102 119 85 102 118 85 102 118 85 102 118 85 101 118 85 101 118 85 101
118 84 101 118 84 101 118 84 101 118 84 101 118 84 101 118 84 101 118
84 101 118 84 101 118 84 101 118 84 101 118 84 101 117 84 101 117 84
101 117 84 101 117 84 101 117 84 100 117 84 100 117 84 100 117 84 100
117 84 100 117 84 100 117 84 100 117 84 100 117 83 100 117 83 100 117
83 100 117 83 100 116 83 100 116 83 100 116 83 100 116 83 100 116 83
100 116 83 100 116 83 100 116 83 99 116 83 99 116 83 99 116 83 99 116
83 99 116 83 99 116 83 99 116 83 99 116 83 99 115 83 99 115 83 99 115
82 99 115 82 99 115 82 99 115 82 99 115 82 99 115 82 99 115 82 99 115
82 99 115 82 98 115 82 98 115 82 98 115 82 98 115 82 98 115 82 98 114
82 98 114 82 98 114 82 98 114 82 98 114 82 98 114 82 98 114 82 98 114
82 98 114 82 98 114 81 98 114 81 98 114 81 98 114 81 98 114 81 97 114
81 97 114 81 97 113 81 97 113 81 97 113 81 97 113 81 97 113 81 97 113
81 97 113 81 97 113 81 97 113 81 97 113 81 97 113 81 97 113 81 97 113
81 97 113 81 97 113 81 97 113 81 97 113 80 96 112 80 96 112 80 96 112
80 96 112 80 96 112 80 96 112 80 96 112 80 96 112 80 96 112 80 96 112
80 96 112 80 96 112 80 96 112 80 96 112 80 96 112 80 96 112 80 96 111
80 96 111 80 96 111 80 95 111 80 95 111 80 95 111 80 95 111 79 95 111
79 95 111 79 95 111 79 95 111 79 95 111 79 95 111 79 95 111 79 95 111
79 95 111 79 95 111 79 95 110 79 95 110 79 95 110 79 95 110 79 95 110
79 94 110 79 94 110 79 94 110 79 94 110 79 94 110 79 94 110 79 94 110
79 94 110 78 94 110 78 94 110 78 94 110 78 94 109 78 94 109 78 94 109
78 94 109 78 94 109 78 94 109 78 94 109 78 94 109 78 94 109 78 93 109
78 93 109 78 93 109 78 93 109 78 93 109 78 93 109 78 93 109 78 93 109
78 93 108 78 93 108 78 93 108 78 93 108 77 93 108 77 93 108 77 93 108
77 93 108 77 93 108 77 93 108 77 93 108 77 93 108 77 92 108 77 92 108
77 92 108 77 92 108
90 108 126 90 108 126 90 108 126 90 108 126 90 108 126 90 108 126 90
108 126 90 108 126 90 108 126 90 108 125 90 108 125 90 107 125 90 107
125 90 107 125 90 107 125 89 107 125 89 107 125 89 107 125 89 107 125
89 107 125 89 107 125 89 107 125 89 107 125 89 107 125 89 107 125 89
107 124 89 107 124 89 107 124 89 107 124 89 107 124 89 106 124 89 106
124 89 106 124 89 106 124 89 106 124 89 106 124 89 106 124 89 106 124
88 106 124 88 106 124 88 106 124 88 106 123 88 106 123 88 106 123 88
106 123 88 106 123 88 106 123 88 106 123 88 106 123 88 105 123 88 105
123 88 105 123 88 105 123 88 105 123 88 105 123 88 105 123 88 105 123
88 105 122 88 105 122 88 105 122 88 105 122 87 105 122 87 105 122 87
105 122 87 105 122 87 105 122 87 105 122 87 105 122 87 104 122 87 104
122 87 104 122 87 104 122 87 104 122 87 104 121 87 104 121 87 104 121
87 104 121 87 104 121 87 104 121 87 104 121 87 104 121 87 104 121 87
104 121 86 104 121 86 104 121 86 104 121 86 104 121 86 103 121 86 103
121 86 103 121 86 103 120 86 103 120 86 103 120 86 103 120 86 103 120
86 103 120 86 103 120 86 103 120 86 103 120 86 103 120 86 103 120 86
103 120 86 103 120 86 103 120 86 103 120 86 103 120 85 102 119 85 102
119 85 102 119 85 102 119 85 102 119 85 102 119 85 102 119 85 102 119
85 102 119 85 102 119 85 102 119 85 102 119 85 102 119 85 102 119 85
102 119 85 102 119 85 102 118 85 102 118 85 101 118 85 101 118 85 101
118 85 101 118 84 101 118 84 101 118 84 101 118 84 101 118 84 101 118
84 101 118 84 101 118 84 101 118 84 101 118 84 101 118 84 101 117 84
101 117 84 101 117 84 101 117 84 101 117 84 100 117 84 100 117 84 100
117 84 100 117 84 100 117 84 100 117 84 100 117 84 100 117 83 100 117
83 100 117 83 100 117 83 100 116 83 100 116 83 100 116 83 100 116 83
100 116 83 100 116 83 100 116 83 100 116 83 99 116 83 99 116 83 99 116
83 99 116 83 99 116 83 99 116 83 99 116 83 99 116 83 99 115 83 99 115
83 99 115 82 99 115 82 99 115 82 99 115 82 99 115 82 99 115 82 99 115
82 99 115 82 99 115 82 98 115 82 98 115 82 98 115 82 98 115 82 98 115
82 98 114 82 98 114 82 98 114 82 98 114 82 98 114 82 98 114 82 98 114
82 98 114 82 98 114 82 98 114 81 98 114 81 98 114 81 98 114 81 98 114
81 97 114 81 97 114 81 97 114 81 97 113 81 97 113 81 97 113 81 97 113
81 97 113 81 97 113 81 97 113 81 97 113 81 97 113 81 97 113 81 97 113
81 97 113 81 97 113 81 97 113 81 97 113 81 97 113 80 96 112 80 96 112
80 96 112 80 96 112 80 96 112 80 96 112 80 96 112 80 96 112 80 96 112
80 96 112 80 96 112 80 96 112 80 96 112 80 96 112 80 96 112 80 96 112
80 96 112 80 96 111 80 96 111 80 95 111 80 95 111 80 95 111 80 95 111
79 95 111 79 95 111 79 95 111 79 95 111 79 95 111 79 95 111 79 95 111
79 95 111 79 95 111 79 95 111 79 95 110 79 95 110 79 95 110 79 95 110
79 95 110 79 95 110 79 94 110 79 94 110 79 94 110 79 94 110 79 94 110
79 94 110 79 94 110 79 94 110 78 94 110 78 94 110 78 94 110 78 94 109
78 94 109 78 94 109 78 94 109 78 94 109 78 94 109 78 94 109 78 94 109
78 94 109 78 93 109 78 93 109 78 93 109 78 93 109 78 93 109 78 93 109
78 93 109 78 93 109 78 93 108 78 93 108 78 93 108 78 93 108 77 93 108
77 93 108 77 93 108 77 93 108 77 93 108 77 93 108 77 93 108 77 93 108
77 92 108 77 92 108
90 108 126 90 108 126 90 108 126 90 108 126 90 108 126 90 108 126 90
108 126 90 108 126 90 108 126 90 108 125 90 108 125 90 108 125 90 107
125 90 107 125 90 107 125 89 107 125 89 107 125 89 107 125 89 107 125
89 107 125 89 107 125 89 107 125 89 107 125 89 107 125 89 107 125 89
107 124 89 107 124 89 107 124 89 107 124 89 107 124 89 107 124 89 106
124 89 106 124 89 106 124 89 106 124 89 106 124 89 106 124 89 106 124
88 106 124 88 106 124 88 106 124 88 106 124 88 106 123 88 106 123 88
106 123 88 106 123 88 106 123 88 106 123 88 106 123 88 106 123 88 105
123 88 105 123 88 105 123 88 105 123 88 105 123 88 105 123 88 105 123
88 105 123 88 105 122 88 105 122 88 105 122 87 105 122 87 105 122 87
105 122 87 105 122 87 105 122 87 105 122 87 105 122 87 105 122 87 104
122 87 104 122 87 104 122 87 104 122 87 104 122 87 104 121 87 104 121
87 104 121 87 104 121 87 104 121 87 104 121 87 104 121 87 104 121 87
104 121 87 104 121 86 104 121 86 104 121 86 104 121 86 103 121 86 103
121 86 103 121 86 103 120 86 103 120 86 103 120 86 103 120 86 103 120
86 103 120 86 103 120 86 103 120 86 103 120 86 103 120 86 103 120 86
103 120 86 103 120 86 103 120 86 103 120 86 103 120 85 102 119 85 102
119 85 102 119 85 102 119 85 102 119 85 102 119 85 102 119 85 102 119
85 102 119 85 102 119 85 102 119 85 102 119 85 102 119 85 102 119 85
102 119 85 102 119 85 102 118 85 102 118 85 102 118 85 101 118 85 101
118 85 101 118 85 101 118 84 101 118 84 101 118 84 101 118 84 101 118
84 101 118 84 101 118 84 101 118 84 101 118 84 101 118 84 101 118 84
101 117 84 101 117 84 101 117 84 101 117 84 101 117 84 100 117 84 100
117 84 100 117 84 100 117 84 100 117 84 100 117 84 100 117 84 100 117
83 100 117 83 100 117 83 100 117 83 100 116 83 100 116 83 100 116 83
100 116 83 100 116 83 100 116 83 100 116 83 100 116 83 99 116 83 99
116 83 99 116 83 99 116 83 99 116 83 99 116 83 99 116 83 99 116 83 99
115 83 99 115 83 99 115 82 99 115 82 99 115 82 99 115 82 99 115 82 99
115 82 99 115 82 99 115 82 99 115 82 98 115 82 98 115 82 98 115 82 98
115 82 98 115 82 98 114 82 98 114 82 98 114 82 98 114 82 98 114 82 98
114 82 98 114 82 98 114 82 98 114 82 98 114 81 98 114 81 98 114 81 98
114 81 98 114 81 97 114 81 97 114 81 97 114 81 97 113 81 97 113 81 97
113 81 97 113 81 97 113 81 97 113 81 97 113 81 97 113 81 97 113 81 97
113 81 97 113 81 97 113 81 97 113 81 97 113 81 97 113 81 97 113 80 96
112 80 96 112 80 96 112 80 96 112 80 96 112 80 96 112 80 96 112 80 96
112 80 96 112 80 96 112 80 96 112 80 96 112 80 96 112 80 96 112 80 96
112 80 96 112 80 96 112 80 96 111 80 96 111 80 96 111 80 95 111 80 95
111 80 95 111 80 95 111 79 95 111 79 95 111 79 95 111 79 95 111 79 95
111 79 95 111 79 95 111 79 95 111 79 95 111 79 95 111 79 95 110 79 95
110 79 95 110 79 95 110 79 95 110 79 95 110 79 94 110 79 94 110 79 94
110 79 94 110 79 94 110 79 94 110 79 94 110 78 94 110 78 94 110 78 94
110 78 94 110 78 94 109 78 94 109 78 94 109 78 94 109 78 94 109 78 94
109 78 94 109 78 94 109 78 93 109 78 93 109 78 93 109 78 93 109 78 93
109 78 93 109 78 93 109 78 93 109 78 93 109 78 93 108 78 93 108 78 93
108 77 93 108 77 93 108 77 93 108 77 93 108 77 93 108 77 93 108 77 93
108 77 93 108 77 92 108
90 108 126 90 108 126 90 108 126 90 108 126 90 108 126 90 108 126 90
108 126 90 108 126 90 108 126 90 108 125 90 108 125 90 108 125 90 107
125 90 107 125 90 107 125 90 107 125 89 107 125 89 107 125 89 107 125
89 107 125 89 107 125 89 107 125 89 107 125 89 107 125 89 107 125 89
107 124 89 107 124 89 107 124 89 107 124 89 107 124 89 107 124 89 106
124 89 106 124 89 106 124 89 106 124 89 106 124 89 106 124 89 106 124
89 106 124 88 106 124 88 106 124 88 106 124 88 106 123 88 106 123 88
106 123 88 106 123 88 106 123 88 106 123 88 106 123 88 106 123 88 105
123 88 105 123 88 105 123 88 105 123 88 105 123 88 105 123 88 105 123
88 105 123 88 105 122 88 105 122 88 105 122 87 105 122 87 105 122 87
105 122 87 105 122 87 105 122 87 105 122 87 105 122 87 105 122 87 104
122 87 104 122 87 104 122 87 104 122 87 104 122 87 104 121 87 104 121
87 104 121 87 104 121 87 104 121 87 104 121 87 104 121 87 104 121 87
104 121 87 104 121 86 104 121 86 104 121 86 104 121 86 104 121 86 103
121 86 103 121 86 103 121 86 103 120 86 103 120 86 103 120 86 103 120
86 103 120 86 103 120 86 103 120 86 103 120 86 103 120 86 103 120 86
103 120 86 103 120 86 103 120 86 103 120 86 103 120 86 103 120 85 102
119 85 102 119 85 102 119 85 102 119 85 102 119 85 102 119 85 102 119
85 102 119 85 102 119 85 102 119 85 102 119 85 102 119 85 102 119 85
102 119 85 102 119 85 102 119 85 102 118 85 102 118 85 102 118 85 101
118 85 101 118 85 101 118 85 101 118 84 101 118 84 101 118 84 101 118
84 101 118 84 101 118 84 101 118 84 101 118 84 101 118 84 101 118 84
101 117 84 101 117 84 101 117 84 101 117 84 101 117 84 101 117 84 100
117 84 100 117 84 100 117 84 100 117 84 100 117 84 100 117 84 100 117
84 100 117 83 100 117 83 100 117 83 100 117 83 100 116 83 100 116 83
100 116 83 100 116 83 100 116 83 100 116 83 100 116 83 100 116 83 99
116 83 99 116 83 99 116 83 99 116 83 99 116 83 99 116 83 99 116 83 99
116 83 99 115 83 99 115 83 99 115 82 99 115 82 99 115 82 99 115 82 99
115 82 99 115 82 99 115 82 99 115 82 99 115 82 98 115 82 98 115 82 98
115 82 98 115 82 98 115 82 98 115 82 98 114 82 98 114 82 98 114 82 98
114 82 98 114 82 98 114 82 98 114 82 98 114 82 98 114 82 98 114 81 98
114 81 98 114 81 98 114 81 97 114 81 97 114 81 97 114 81 97 113 81 97
113 81 97 113 81 97 113 81 97 113 81 97 113 81 97 113 81 97 113 81 97
113 81 97 113 81 97 113 81 97 113 81 97 113 81 97 113 81 97 113 81 97
113 81 97 113 80 96 112 80 96 112 80 96 112 80 96 112 80 96 112 80 96
112 80 96 112 80 96 112 80 96 112 80 96 112 80 96 112 80 96 112 80 96
112 80 96 112 80 96 112 80 96 112 80 96 112 80 96 111 80 96 111 80 95
111 80 95 111 80 95 111 80 95 111 79 95 111 79 95 111 79 95 111 79 95
111 79 95 111 79 95 111 79 95 111 79 95 111 79 95 111 79 95 111 79 95
111 79 95 110 79 95 110 79 95 110 79 95 110 79 95 110 79 94 110 79 94
110 79 94 110 79 94 110 79 94 110 79 94 110 79 94 110 79 94 110 78 94
110 78 94 110 78 94 110 78 94 110 78 94 109 78 94 109 78 94 109 78 94
109 78 94 109 78 94 109 78 94 109 78 94 109 78 93 109 78 93 109 78 93
109 78 93 109 78 93 109 78 93 109 78 93 109 78 93 109 78 93 109 78 93
108 78 93 108 78 93 108 77 93 108 77 93 108 77 93 108 77 93 108 77 93
108 77 93 108 77 93 108
90 108 126 90 108 126 90 108 126 90 108 126 90 108 126 90 108 126 90
108 126 90 108 126 90 108 126 90 108 125 90 108 125 90 108 125 90 107
125 90 107 125 90 107 125 90 107 125 89 107 125 89 107 125 89 107 125
89 107 125 89 107 125 89 107 125 89 107 125 89 107 125 89 107 125 89
107 125 89 107 124 89 107 124 89 107 124 89 107 124 89 107 124 89 106
124 89 106 124 89 106 124 89 106 124 89 106 124 89 106 124 89 106 124
89 106 124 88 106 124 88 106 124 88 106 124 88 106 123 88 106 123 88
106 123 88 106 123 88 106 123 88 106 123 88 106 123 88 106 123 88 105
123 88 105 123 88 105 123 88 105 123 88 105 123 88 105 123 88 105 123
88 105 123 88 105 123 88 105 122 88 105 122 88 105 122 87 105 122 87
105 122 87 105 122 87 105 122 87 105 122 87 105 122 87 105 122 87 104
122 87 104 122 87 104 122 87 104 122 87 104 122 87 104 122 87 104 121
87 104 121 87 104 121 87 104 121 87 104 121 87 104 121 87 104 121 87
104 121 87 104 121 87 104 121 86 104 121 86 104 121 86 104 121 86 104
121 86 103 121 86 103 121 86 103 120 86 103 120 86 103 120 86 103 120
86 103 120 86 103 120 86 103 120 86 103 120 86 103 120 86 103 120 86
103 120 86 103 120 86 103 120 86 103 120 86 103 120 86 103 120 86 103
120 85 102 119 85 102 119 85 102 119 85 102 119 85 102 119 85 102 119
85 102 119 85 102 119 85 102 119 85 102 119 85 102 119 85 102 119 85
102 119 85 102 119 85 102 119 85 102 119 85 102 118 85 102 118 85 102
118 85 101 118 85 101 118 85 101 118 84 101 118 84 101 118 84 101 118
84 101 118 84 101 118 84 101 118 84 101 118 84 101 118 84 101 118 84
101 118 84 101 117 84 101 117 84 101 117 84 101 117 84 101 117 84 101
117 84 100 117 84 100 117 84 100 117 84 100 117 84 100 117 84 100 117
84 100 117 83 100 117 83 100 117 83 100 117 83 100 117 83 100 116 83
100 116 83 100 116 83 100 116 83 100 116 83 100 116 83 100 116 83 100
116 83 99 116 83 99 116 83 99 116 83 99 116 83 99 116 83 99 116 83 99
116 83 99 116 83 99 115 83 99 115 83 99 115 83 99 115 82 99 115 82 99
115 82 99 115 82 99 115 82 99 115 82 99 115 82 99 115 82 98 115 82 98
115 82 98 115 82 98 115 82 98 115 82 98 115 82 98 114 82 98 114 82 98
114 82 98 114 82 98 114 82 98 114 82 98 114 82 98 114 82 98 114 82 98
114 81 98 114 81 98 114 81 98 114 81 98 114 81 97 114 81 97 114 81 97
113 81 97 113 81 97 113 81 97 113 81 97 113 81 97 113 81 97 113 81 97
113 81 97 113 81 97 113 81 97 113 81 97 113 81 97 113 81 97 113 81 97
113 81 97 113 81 97 113 80 96 112 80 96 112 80 96 112 80 96 112 80 96
112 80 96 112 80 96 112 80 96 112 80 96 112 80 96 112 80 96 112 80 96
112 80 96 112 80 96 112 80 96 112 80 96 112 80 96 112 80 96 111 80 96
111 80 96 111 80 95 111 80 95 111 80 95 111 80 95 111 79 95 111 79 95
111 79 95 111 79 95 111 79 95 111 79 95 111 79 95 111 79 95 111 79 95
111 79 95 111 79 95 110 79 95 110 79 95 110 79 95 110 79 95 110 79 95
110 79 94 110 79 94 110 79 94 110 79 94 110 79 94 110 79 94 110 79 94
110 79 94 110 78 94 110 78 94 110 78 94 110 78 94 109 78 94 109 78 94
109 78 94 109 78 94 109 78 94 109 78 94 109 78 94 109 78 94 109 78 93
109 78 93 109 78 93 109 78 93 109 78 93 109 78 93 109 78 93 109 78 93
109 78 93 109 78 93 108 78 93 108 78 93 108 77 93 108 77 93 108 77 93
108 77 93 108 77 93 108
90 108 126 90 108 126 90 108 126 90 108 126 90 108 126 90 108 126 90
108 126 90 108 126 90 108 126 90 108 125 90 108 125 90 108 125 90 107
125 90 107 125 90 107 125 90 107 125 89 107 125 89 107 125 89 107 125
89 107 125 89 107 125 89 107 125 89 107 125 89 107 125 89 107 125 89
107 125 89 107 124 89 107 124 89 107 124 89 107 124 89 107 124 89 106
124 89 106 124 89 106 124 89 106 124 89 106 124 89 106 124 89 106 124
89 106 124 88 106 124 88 106 124 88 106 124 88 106 123 88 106 123 88
106 123 88 106 123 88 106 123 88 106 123 88 106 123 88 106 123 88 106
123 88 105 123 88 105 123 88 105 123 88 105 123 88 105 123 88 105 123
88 105 123 88 105 123 88 105 122 88 105 122 88 105 122 87 105 122 87
105 122 87 105 122 87 105 122 87 105 122 87 105 122 87 105 122 87 105
122 87 104 122 87 104 122 87 104 122 87 104 122 87 104 122 87 104 121
87 104 121 87 104 121 87 104 121 87 104 121 87 104 121 87 104 121 87
104 121 87 104 121 87 104 121 86 104 121 86 104 121 86 104 121 86 104
121 86 103 121 86 103 121 86 103 121 86 103 120 86 103 120 86 103 120
86 103 120 86 103 120 86 103 120 86 103 120 86 103 120 86 103 120 86
103 120 86 103 120 86 103 120 86 103 120 86 103 120 86 103 120 86 103
120 85 102 119 85 102 119 85 102 119 85 102 119 85 102 119 85 102 119
85 102 119 85 102 119 85 102 119 85 102 119 85 102 119 85 102 119 85
102 119 85 102 119 85 102 119 85 102 119 85 102 119 85 102 118 85 102
118 85 101 118 85 101 118 85 101 118 85 101 118 84 101 118 84 101 118
84 101 118 84 101 118 84 101 118 84 101 118 84 101 118 84 101 118 84
101 118 84 101 118 84 101 117 84 101 117 84 101 117 84 101 117 84 101
117 84 101 117 84 100 117 84 100 117 84 100 117 84 100 117 84 100 117
84 100 117 84 100 117 83 100 117 83 100 117 83 100 117 83 100 117 83
100 116 83 100 116 83 100 116 83 100 116 83 100 116 83 100 116 83 100
116 83 100 116 83 99 116 83 99 116 83 99 116 83 99 116 83 99 116 83 99
116 83 99 116 83 99 116 83 99 115 83 99 115 83 99 115 83 99 115 82 99
115 82 99 115 82 99 115 82 99 115 82 99 115 82 99 115 82 99 115 82 98
115 82 98 115 82 98 115 82 98 115 82 98 115 82 98 115 82 98 114 82 98
114 82 98 114 82 98 114 82 98 114 82 98 114 82 98 114 82 98 114 82 98
114 82 98 114 81 98 114 81 98 114 81 98 114 81 98 114 81 97 114 81 97
114 81 97 114 81 97 113 81 97 113 81 97 113 81 97 113 81 97 113 81 97
113 81 97 113 81 97 113 81 97 113 81 97 113 81 97 113 81 97 113 81 97
113 81 97 113 81 97 113 81 97 113 81 97 113 80 96 112 80 96 112 80 96
112 80 96 112 80 96 112 80 96 112 80 96 112 80 96 112 80 96 112 80 96
112 80 96 112 80 96 112 80 96 112 80 96 112 80 96 112 80 96 112 80 96
112 80 96 111 80 96 111 80 95 111 80 95 111 80 95 111 80 95 111 79 95
111 79 95 111 79 95 111 79 95 111 79 95 111 79 95 111 79 95 111 79 95
111 79 95 111 79 95 111 79 95 111 79 95 110 79 95 110 79 95 110 79 95
110 79 95 110 79 94 110 79 94 110 79 94 110 79 94 110 79 94 110 79 94
110 79 94 110 79 94 110 79 94 110 78 94 110 78 94 110 78 94 110 78 94
109 78 94 109 78 94 109 78 94 109 78 94 109 78 94 109 78 94 109 78 94
109 78 94 109 78 93 109 78 93 109 78 93 109 78 93 109 78 93 109 78 93
109 78 93 109 78 93 109 78 93 108 78 93 108 78 93 108 78 93 108 77 93
108 77 93 108 77 93 108
